/* XPM */
static char *texture[] = {
"64 64 256 2",
"aa c #3F3E41",
"ab c #160D22",
"ac c #31242C",
"ad c #6D5454",
"ae c #947E7B",
"af c #9D827F",
"ag c #180818",
"ah c #442027",
"ai c #9D776A",
"aj c #3F2129",
"ak c #EAE6E5",
"al c #BCB9BA",
"am c #3D1E1F",
"an c #CFD0D3",
"ao c #B5B6BB",
"ap c #5E3931",
"aq c #5E4040",
"ar c #634445",
"as c #928482",
"at c #847271",
"au c #382430",
"av c #35202F",
"aw c #492D2B",
"ax c #6B4B48",
"ay c #B2ACAA",
"az c #9F8F8A",
"aA c #100413",
"aB c #C8BFBA",
"aC c #927A77",
"aD c #745858",
"aE c #E2E0E1",
"aF c #7E5548",
"aG c #846D6B",
"aH c #DAD4D4",
"aI c #B7ADAA",
"aJ c #C3B1AA",
"aK c #FCF9FC",
"aL c #D8CFCB",
"aM c #6E4940",
"aN c #DED9D5",
"aO c #6E504F",
"aP c #744D42",
"aQ c #7A6464",
"aR c #411D26",
"aS c #CECCCC",
"aT c #978684",
"aU c #D4D3D5",
"aV c #694940",
"aW c #988381",
"aX c #90787A",
"aY c #543533",
"aZ c #230D1D",
"a0 c #817E83",
"a1 c #322629",
"a2 c #2B1F2C",
"a3 c #FDFAFD",
"a4 c #563231",
"a5 c #C4AA9E",
"a6 c #A29897",
"a7 c #959297",
"a8 c #D9CAC5",
"a9 c #7A5A53",
"ba c #6D5B5D",
"bb c #CDC2C0",
"bc c #755048",
"bd c #605759",
"be c #836960",
"bf c #F4F3F6",
"bg c #B1897B",
"bh c #51383F",
"bi c #0B091E",
"bj c #221626",
"bk c #7F6F6E",
"bl c #B79E95",
"bm c #B19D99",
"bn c #C6C8CC",
"bo c #DAD9DD",
"bp c #6E5654",
"bq c #A69997",
"br c #766F73",
"bs c #A6A1A4",
"bt c #A78174",
"bu c #452830",
"bv c #2D1525",
"bw c #402730",
"bx c #3B212C",
"by c #241324",
"bz c #1B0F22",
"bA c #452728",
"bB c #ECECEE",
"bC c #927368",
"bD c #4A353A",
"bE c #B1A4A0",
"bF c #7A564A",
"bG c #E1DEDE",
"bH c #532D2A",
"bI c #946D5A",
"bJ c #897271",
"bK c #4A3037",
"bL c #401A22",
"bM c #2C111E",
"bN c #FCFAFD",
"bO c #897875",
"bP c #FEFAFF",
"bQ c #634745",
"bR c #AB9A9B",
"bS c #927D81",
"bT c #C3BEBC",
"bU c #4E2A2C",
"bV c #BCAAA5",
"bW c #C5C2C3",
"bX c #D5D7DB",
"bY c #BBB0AD",
"bZ c #472B35",
"b0 c #5C3534",
"b1 c #5F4342",
"b2 c #826356",
"b3 c #37161D",
"b4 c #CBB7AF",
"b5 c #5A3F46",
"b6 c #100D23",
"b7 c #806563",
"b8 c #88848B",
"b9 c #A59592",
"ca c #391921",
"cb c #1C0818",
"cc c #F0EFF0",
"cd c #3A3138",
"ce c #402B34",
"cf c #999CA6",
"cg c #230918",
"ch c #3A1620",
"ci c #745751",
"cj c #8D7B7A",
"ck c #B5B1B2",
"cl c #CDC8C7",
"cm c #8D7E7F",
"cn c #755C5B",
"co c #D6C3B9",
"cp c #795145",
"cq c #F9F7FA",
"cr c #3D2022",
"cs c #5F3F37",
"ct c #908D92",
"cu c #835C4F",
"cv c #2E0D1A",
"cw c #948081",
"cx c #886763",
"cy c #6E4F48",
"cz c #482028",
"cA c #A69D9A",
"cB c #68403C",
"cC c #674544",
"cD c #AEA7A5",
"cE c #351821",
"cF c #876C66",
"cG c #895D55",
"cH c #8D898D",
"cI c #755A57",
"cJ c #595055",
"cK c #9A7366",
"cL c #593C3D",
"cM c #998988",
"cN c #503F41",
"cO c #442426",
"cP c #624040",
"cQ c #8B6553",
"cR c #3C1B22",
"cS c #33111C",
"cT c #AB9E9C",
"cU c #6F544C",
"cV c #8A726A",
"cW c #351C27",
"cX c #C1C2C4",
"cY c #A9897D",
"cZ c #B3A9A7",
"c0 c #8D7775",
"c1 c #826A68",
"c2 c #492A2B",
"c3 c #4F2831",
"c4 c #BDBDC0",
"c5 c #11091C",
"c6 c #7A5F5B",
"c7 c #B99384",
"c8 c #32151F",
"c9 c #5A4B4E",
"da c #522B30",
"db c #503539",
"dc c #63443D",
"dd c #613D35",
"de c #2D1C2C",
"df c #241B20",
"dg c #5F3D3E",
"dh c #BBB5B2",
"di c #886F6B",
"dj c #402324",
"dk c #4D2828",
"dl c #B2A6A4",
"dm c #A4908C",
"dn c #9DA0AB",
"do c #7F6360",
"dp c #957D76",
"dq c #C8C4C3",
"dr c #563834",
"ds c #2C192A",
"dt c #AB9992",
"du c #E2DAD5",
"dv c #AE918A",
"dw c #8A665A",
"dx c #5E3A3C",
"dy c #69504D",
"dz c #50322C",
"dA c #7F5D53",
"dB c #56393E",
"dC c #9E9093",
"dD c #9899A0",
"dE c #C2B8B4",
"dF c #4A2427",
"dG c #FEFBFF",
"dH c #E4E3E4",
"dI c #352A2D",
"dJ c #4A272C",
"dK c #FDFAFE",
"dL c #1D1226",
"dM c #7B625E",
"dN c #8C7570",
"dO c #391B1F",
"dP c #482E38",
"dQ c #503237",
"dR c #A6A7B0",
"dS c #51474A",
"dT c #A0938E",
"dU c #9F9596",
"dV c #67494A",
"dW c #6F6365",
"dX c #3F242C",
"dY c #4E2E2D",
"dZ c #7C6968",
"d0 c #926E68",
"d1 c #DCDADC",
"d2 c #ABA3A1",
"d3 c #9E8681",
"d4 c #755E5D",
"d5 c #6C443E",
"d6 c #5A3138",
"d7 c #C1A094",
"d8 c #381F26",
"d9 c #504347",
"ea c #3D373A",
"eb c #5A3E3B",
"ec c #542D34",
"ed c #74544D",
"ee c #DDDEE1",
"ef c #A27C6E",
"eg c #927770",
"eh c #9E8A87",
"dqaSanbnaSbXcXdncfcfcfcfdDbXdGdGdKdKdKdKdKdKdKdKdGdGaKbfbfccccbfaKa3bNcqbBboccbBdqakcccceeaoc4anbBcqaEboccbfbfcqaKaKcqcqaKaKaKdS",
"cXdqaSaSbnbXaodDdDcfdDdDdDbndKdGdKdKdKdKdKdKdKcqbfcqaKbBbBcceed1dHcccqbNccclccbGbWccccccbXaocXaUaneebobobBccbfcqcqaKaKaKaKaKdGd9",
"cXcXclaSaSbXaoctcfcfcfcfdnc4bBbNdGdKdKdKdKdKdKaKbBaUd1bBeeaEeeananbXdHbBakbWaEaSalbGd1dHanaobnaocAckaSeeaEbBccbfcqaKdKdKdKdKdGd9",
"cXcXdqaSbnaUbnb8ctdndndndndRc4bobfbNdGa3aKdGbPdGa3eeanc4bWdqaHd1cXaSbXaSd1dqcldqdqbBd1cXc4ckckcTa6d2alaSaUaEakbBccbfcqaKdKdKdGd9",
"cXcXbWbWcXanbXb8brcfcfdDdndRdRaoandHakbfbBccbNdGbNeeaUdqbscDdqbGaUalaUbWbYaBbEaIbWbfbfakc4aybqbEbEa6alaUaEakbBbBbfaKaKaKaKdKdGd9",
"bTcXbTdhalaSbXdRa0cta7cfdRdRdndRaobnanbXaUbWbXbBcqbockbTdTbqbEaIaNbTd2cZbqbYbqcTcZanbBdHdhdTazbmcMaIbbbTdhdEbTdqaSaHdHccbfbNdGd9",
"bTckcAa6ayclbocXcfcfdncfdRaoc4cXbnanbXeeeebnbscDdqclbscTazazdTcMcTclbYcTcMdTb9bmbEdqbTaIdTcjbmehcwaedZaQaQdZc0cwaTazdlaBaLbGaEaa",
"cDazaTdTcZbWaUbna7b8a7dnayckalc4cXbWc4c4bnbncDa6a6d2bqdTaTcMazcMcMb9bEbRcwehazdmbmdlbqb9aCc0cjd4addybpbJehazehaebJaCdtaJa8duaEaa",
"azazdTb9bEbTbXandnctdDdDdUcHdUcDd2cZcZcZayaycTcMascMazcMaTcmaTazaTascMb9asaWaedpaWaTcMbkdMd4adbaaXcjc0ataQaDadaQaXehdtcZdhbba8ea",
"asdTbqdlbYalaodRbscDaybsdUcma0cHdCdCdCdUdUdCascmcjatcjasascjcjasaTascmaTcjaebJc1aGc0aQdVdyaQaGbJaGdyb1bQbpaQc1bJdNaCd3dmbmaJdEcd",
"bEbEcAcMcMa6a6bqcTdTdTbqcTd2cTcActcMcMcMascMcMascMaTcjcjcjbOatatbObOatbOatatc1d4d4bpcNb5dyd4dNaGaCdMdVbpaDaDcnaDc6diaeaedmbmbVdI",
"boalbkbabkdTdTbqbqdTb9bEcZcZcDcTcAdUdCcMascmcMbqb9cMbOcjaTaeatc1dZdZaGdZaQaQd4adbadyb1baaddMcVcFegcydycncncnaQaGbJaCd3ehdtbmbmdI",
"aSa0babkbOcjdTb9bqbRcZaIbEbEbEbqbYaId2a6azasbSatataWaeatc1c0aCbJdZaQc1aQaQc0c0cjaGbpdydyadc1cVb2cycidododNdib7b7cFdNaCdpafafd3a1",
"bracdSdWbOasascMcMcmascMdCa6dCehb9bRbRbRbRdCaTcjc1dZc0bJdZdZdZdZaQdMd4dMaed3d3afd3ehaQd4docxdAb2cFcxcUaxcUcIa9a9a9c6docxdNdpaea1",
"dfa2bjcddSbddWbratatcjcmascMazehaWaWaeaeaWaWaeaXaXbJdiaGbJaQd4dZaGc1dNaedNdicndMdmdvaeb7b2a9edbccicxdoaxaxbcedededa9dAcxbCafcYa1",
"agdsa2bja2d9babkbSasaTazaTaWaecjcwaWaeaCc0bJbJdZdZc1aGbJaGd4dZbJc1c0bJd4aDadbQdZc0dMegcxdAcycCdgdgcCeddocia9dAdAb2b2dwcxd0bCbCdf",
"bzaucJdWbra0a6bRbqb9b9b9dTazaTaeaCaCaCaCaCc0dNaGdMaDcnaGd4cnaGc1b7b7bQbQdVb5adadb1bpdocIcCaraqebdgardVcia9a9dAb2b2b2cFegdpdpafa1",
"d9bacmd2cZcZcZdlbEcTbRb9dmdmdmehaWaeaeaCegdNdNc0bJdMcnaQadc6aGc6dMdVdBb5b5adaDdyadaOdVb1aqdVdBdbcLardVaxaOcyededcidAbebCegefbta1",
"bdcmbqcAa6dCazehaTcwaXbJdNbJaGdic1aGc1c1cFdicFb7cnaDd4cnaddMaDaDdVbhdbbhbQdMaOaOaraqb5dbb5ardbdBaqarbQcCcCaxcyeda9dAdwd0aiefbta1",
"aydhcZcAdTazcMcwcjc0c0aGb7b7c1dMc6cIbpcIcicIc6c6aDbQbQadadaObpdVdQbKcNdVaDdVdBbhbDbhbhb5bhdbdQdbcLaqaraxcybcedbFdAdwd0aibtcYbga1",
"bXbWaIcTdmaTcjbOc0aCdNdic1doc6c6d4cnbpaOaxaxcyaxaxdVcLdBb1dVaOdbbwcedPbDdybhavavbhdBbDbZbhbZbZbKdbaqcPcPcCcybcedbFdAcGdwcKbtbga1",
"bobXanalaIdtaebJb7cFcVcFc1b7cIaDbpbpaOaxdVardVcCarcPdxbKdQardVbDavdededPc9dPdecebhbhd8bwbKbZbudQdBcLdxcPcCcCcybcbFdAdwcKbtbgbga1",
"aEeeaUbndhbRd3c0aGdoc6cIcIdoc6bpaOaxaOaOcCcPcCcCarcPdgdbbKdBb5bhavdedeauceauavbhbhbxbxcecebxbubKdQdrebdxcPd5cybca9cGbIaibtbgbga1",
"eeboanbWdhdldmd3aCc1cibQcLb1dVdVdVbQardVaxcCcPcCcCdgdxdQbZbZdbdPaudedeavauaucebhceavdPbDbwbwbZbKdQaYdrcsdcaMaPbcbFcudwcKbtbgbga1",
"eeboaHaHaHaSbYbRd3aGdVdBbZbwbubKb5dVb1dgdgcPcCcCcPdxdxdQbudXbxauauacacauavaudPdPavcebDaubxbZbZbZdYaYdxdgdcaVaPbcbFcubIaibgbgbga1",
"aEaEaEbGd1aUbTa6bkaddybabDbybybydscebhdbdQdxcPcBcBdxd6bZbxavdsdsdeauavdedecedPceauceavdsavcWbxbudYecaYdrb0ddcBaMbccubIefbgc7c7a1",
"aEaEeeeeboaUckdWadbQbabaaaa2aca2a2a2aubDdPdQdgdgdxd6ecbwcWdsbjdLbja2a2a2a2cdauaudedsdscWbxdXbudJdJbUdYbHa4b0cBaMbcbFcGcKbtc7c7a1",
"aEaEeeeeboclbra1dZd4dBcJdSdSaaa2a2cedPdVc9bububZbZbZbwavdsbjdLabdLdLbja2a2a2a2dedLdLbybvcWdXbuahcOdJdadadaa4dgcCbcdAcGcQbIefbta1",
"dHaEeeeeboa7acbdehaQcLeadSaacdaucecec9badVb5bZbwauavdebjbjdLb6b6b6b6b6abdLbjbjbjbjdLbzbybvcWbxajcacEcEcWd8ajajc2dadxbFdwcKbtbta1",
"dHaEeeboayd9d9cMbmb7cnbhcdeaeadPdPb5badybhdBb5dPavdsbjbjabb6bib6bibibibibib6b6ababbzbzbybyaZaZbMbMcgcbcbcbcbagcbcvcRcBcxefbgc7a1",
"aEbGd1aldScJcHcTbEc0dMcndydQbudQdVaddVb5bhbhbDaudsdLdLabb6bibibib6abdLababc5bibic5ababababcbcbcgbvbycbagaAagbjagcbajcCd0bgc7c7a1",
"bGbGclbdcda0bsdEaBbmdpb7aDaOarararb5bhdPceavbydLdLabababbzdLbjbjdsdededsbjdLbzc5bic5c5agagcbaZbvbvbzbzbzaAagbycWb5cLedegcYc7c7dI",
"bGaUa0aabra6aybTdqbbbVehaGdycLbhdPaucWdsbydsdsbzc5abbjdecedPbDbDcececebwbwaudebjabaAaAc5agcbaZaZaZagc5aAaAagcbb5didVcxblaJaJb4cd",
"aHa7c9a0cDckbTbTaldqbTdtdmdidVbhbKcebxdXd8bxauavbyaZaubhb5bhceavdeaucedPbKbZavdedebyc5c5bzaZbyaZcbagagaAaAaAcgbhdga9d7a8duduakaa",
"dCd9dWdUckalbWalckdRdncAblcYcFcIcPaYc2dQdYc3dJajajcWbKb5dBbZbvagaAdecebwbubvagbzbvaudeaAaAagagaZaZaZcbagagagaZchcCdvcoaLaHaNduea",
"cNbDbra6ckckcfcta0a0dDbRcYbCdwa9aPcBdxb0b0a4dadJdJc3c3ecc3bZcWbvaudPbwbxceaZaAaZcWcWceagaAagaZbMaZbMcvcvcvchbuciblcoa8a8aNbGbGaa",
"dSbrdDbsa7dDctdnayaIbEcYaibIcGaFcpaPd5ddddddb0d6ecececdad6dxc3bZdPbwcEaucecWaZbvcWc8cWbMcgc8d8bubucvcgcvdkaOdZcmaJcoduaHaLaHaNaa",
"dZcHcta0bra0a7dhb4a5c7bgaibIcuaFcpcpaMd5cBcBb0d6d6ecc3c3c3ecc3dXajcWbvbxbxbvcWbuajcRcacaajc2c2drcPdxa4axd0aXctdDd2b4duakduaNaNea",
"a0a0a0cHa7cDaJb4a5c7bgcKdwcuaFaFaFaPd5cBddb0ecdac3czczahahczczahbucRcWbwbxcacWcEcScScRdjdJbUa4ddbcb2aibJbSataGcfdUc7coduakakccaa",
"b8cHa6bEa5a5d7d7d7bgcKdwcuaFaFcuaFaMddb0a4bUdac3dJczaRaRaRaRcRchchcSahbucRcScScvcvcSb3ahdJb0bcbFcuaidvaWb8ctb7cMalefbga5a5bYdhcd",
"cmdTd7d7a5a5a5d7cYefaicKcQcucGaFcBb0a4bUdadadJdJahcRchcRcac8c8bMcgcvcEchcSchchcScScacRcOdxdxbcdwcKefc7d7dtcTdCafb4dvbIc7c7cVdZdf",
"cTaJb4b4a8b4a5c7btefcKbIcQaFd5apbHdFdFdJahaRcEc8dQbZcvaRbuajbubZbxcEbMcgbMcEcEc8c8c8dJbAdzaMbFbIbgc7d7d7blbVbVd7aJcocYefc7cYcYa1",
"aBb4cocoa5c7bgefcKcKbIcud5apbHdkahaRcEcvcgcvc8cRececchaRaRahdJdxdQcabMcgc8bMcvbMc8cvcvc2dka4aFcKbgc7d7d7blblcYaXbVbbaJafd3dvdva1",
"a8b4a5c7efaicKbIbIcud5apb0bHdkcrbMcgcbcbcWc3d6d6ecc3c3d6d6ecdaecc3aRchcvajbMagaAcbcgcvb3dkapcpbIcKefbgc7c7c7dpc1cZbnbsdUaIaIaIdI",
"aBa5c7aibIcQaFaFaPd5cBb0bUcOcRc8bMbMc8d8bAbUdadaecd6d6d6d6ecc3ecdaczaRbLchcScbaAaAaAcgdOdkapcpbIaibIcQbtefbtbgdvcZbYb8dDcDbTaBcd",
"dEblbIcQdwd5cBaMd5apdkcOamdOdOd8ajajdXbAbAdJbUdJahdJczczdFaRbLczaRahdFahbLcScgaAaAaAcgcrcsaMaMcuaicKaFcKbgcucQbtblbmbSbsdRalaSea",
"blcKcudwaMapcBapdzbUawbAbAcOdjcrdOdOcEcrcOcOajahcRdObLcRcRb3b3chcSb3b3chb3cScScvcbagcgamapcpcQcucubIcucpbtbCbFdwefdpaXaJdUcHbsdI",
"egdwcQdAdzdgcsa4dYdzaYa4dYc2bAbAdjdjajajajcrcrdOdOcEcrcrdOb3cRcacEcScEcEdOamcRdOb3cScvcSdFddaFbIcQcpcpddbtcYcGaPcudwafbYbsbsckcd",
"bCcQcQbFaxcscsdrcsdccsdzdYdzdzdYc2bAdXcrbAbAajcrajcrajajdOc8cOajdOajdOb3dOcrcrcOahdFdkdFamdFddaPcuaFapbHcubIbIcBaPegaBaUbXbXbXaa",
"dwcQb2b2a9aYebcycydccscscscsdrdzawawawdQdYbAbAbAbAbAbAdjcrcEdjawdjbAbAdOdOamamamdjdkbHbHbHdkdFapddcBa4dkdAd5cucud5a5aLaHaHaHbXaa",
"bCdwb2a9aVaxcycIaxdcdccscsdrdraYdrebdcdgdzdzdzdrcLebcLawc2bAbAawdYdza4dYdjcramamamamcOamcOcOdFa4ddapdddzaVbFaPdwdpa8a8a8aLbYaza1",
"dNb2edaVcycFcidcdrcscscscsdcdcaVaxaVaVdcdrebdcdycicUbQedaxebebdrdzdrcscsaYc2djamamb3b3amb3cSb3bHddaPaPd5aVdwbFegcoa8cocoa8btcUdf",
"cVdoa9edc6cUdycUaVdcdcdccya9cUcUcUa9cicUcicUcUbcbcaVbedvcFdocUb7doaOc6c6aVdraYdYcOamb3dOdjb3cvdkddcpcpaMb2dpblcoa8a8aJbgc7cuaFdf",
"bEdpcVa9cIcUcIcicUcUaVcic6cycUcidobea9cVegafc6cyaVbcega5aCdvdpcVd3aCb7dibmdpb1awcOcOamambAbAcSb0bccpcpdwdvcoa8a8cob4d3cKefaFbFdf",
"aBbEd3cFc6cIcVb7aeafcUcyc6cFcVbJatc1c6dMbJdmbecyaPdAbCblafegdicFdNafb9c0cwb4dmcydzdOamamdjawamcsaVcydwdvb4cob4aJaIbYafbIcGaPaPdf",
"d2cTbVbVcFaGdidtdtcVcVbediaedmbqcmdWd4bpdybec6edaVcpaidpbOc1addycndib9b4dtdNegbeciaYb3dOcOc2amaqdccUafa5b4aJcZckaoc4cTd0cubFaPdf",
"cAd2bYdmd3dpaWdmdpb9aJdtaGcjb9cTaTcmcHdWbpciaxcsa4csa9dNdWbdbababac0ehdmbld3cxbedoaOdYcOawebb1ciaxcIdtb4d2a0a0ctaobnaoc0cucucudf",
"ayaybqbmbVdmdNdtcocobmazcwcwdlbRazbOcJadcUdcdrdYdzapaVd4cJdSdWbrdZasbmehegcYa5a5dvb7dgcsbQdVaxcicVcYbVbYbsa0cHdDdnc4bsbkb2cucudf",
"alaldhbbaBbmb9aBbbcTazbqbqazcMdldldWbpb2bFdca4dkdzd5cIatbdaacJa0cDbYdEaJbEb9dtbVb4b4dpdwcUdrdOawciefdtcAdDa7dWdWdDc4cDdydAb2b2df",
"cXalbYdEbEaeaTehdTcZbbaLaBdhbYdEbEdpbCefcKdAdccsaMbFaWcDb8dWdWa7bTbbaLaLaLaLaBcZbVaJcYbCa9aYdOcra4aFb2dWbda0bsaoclaUa6bDdyb2b2df",
"clbTaBbEdtaeehcTbYaBclclaBbYbEb9dpbIbCbIcGcubFaMdcebdWctbsdhbWaHbGaNaNaNaLaNaNaNaHbbbEbCcUebcrdObHcpcQbDdSaoandqdqbTbreacNb2dwdf",
"ayaIdhaJaJbEbYaBclaLaSclbTdhbEasb7edaVddapd5csdzbDeacJcHd2aIdEbbaLaHaHaHclayaybsdUd2cAcVcsawdYc2dkd5cQdAbDdSa7bTdEckcJaaeab1bedf",
"aIbEbqdEdEbYdEaLclaLaNaLaIaIb9bOd4ebawawcOdzdzdjbDcJdWa7dlcZbYbYaBaLaHaNclcmbkbdcJa0bOd4b1bAb3dzapaPaFcQcsdfcJctd2cDdSd9eabDd4df",
"cMdUcMd2bEbqd2dhckalbTdha6cAasbkdydrdjbAcrawawcreadSbdb8dUa6cAcAcZdhdEaBdhatdWcJdSbrdZadebcrc8awdzd5aPaFaYdfdSa0dCdUd9eacdcdbdbz"
};
