/* XPM */
static char *south[] = {
/* columns rows colors chars-per-pixel */
"128 128 81 1 ",
"  c gray10",
". c #1B1B1B",
"X c gray11",
"o c #1D1D1D",
"O c #1E1E1E",
"+ c gray12",
"@ c #202020",
"# c gray13",
"$ c #222222",
"% c #232323",
"& c gray14",
"* c #252525",
"= c gray15",
"- c #272727",
"; c #2A2A2A",
": c #313131",
"> c #323232",
", c gray20",
"< c #343434",
"1 c #353535",
"2 c gray21",
"3 c #373737",
"4 c #3C3C3C",
"5 c gray24",
"6 c #3E3E3E",
"7 c #3F3F3F",
"8 c gray25",
"9 c #414141",
"0 c #494949",
"q c gray29",
"w c #4B4B4B",
"e c #4C4C4C",
"r c gray30",
"t c #4E4E4E",
"y c gray31",
"u c #505050",
"i c #515151",
"p c gray32",
"a c #535353",
"s c gray33",
"d c #555555",
"f c #565656",
"g c gray34",
"h c #585858",
"j c gray35",
"k c #5A5A5A",
"l c #5B5B5B",
"z c gray36",
"x c #5D5D5D",
"c c gray37",
"v c #5F5F5F",
"b c #606060",
"n c gray38",
"m c #626262",
"M c #6D6D6D",
"N c #6F6F6F",
"B c gray44",
"V c #717171",
"C c #727272",
"Z c gray45",
"A c #747474",
"S c gray47",
"D c gray48",
"F c #7C7C7C",
"G c gray49",
"H c #7E7E7E",
"J c gray50",
"K c #818181",
"L c gray51",
"P c #838383",
"I c #848484",
"U c gray55",
"Y c #8D8D8D",
"T c #8E8E8E",
"R c #909090",
"E c gray57",
"W c #929292",
"Q c gray58",
"! c #A0A0A0",
"~ c #A2A2A2",
"^ c gray69",
/* pixels */
"fjjfuuww244844r88www444wrrwr8f282%&4wfwj8jrjjfjfjvvM4242224wruvww4wu2222&8%222%%&284224428r4224r2r824848282228>42222>2&&%&%224>4",
"vrjrjrruf4rrrufrrurrrjfrw4jrfw842&4fvvAbjbMrfbJAjMBvjbf4u4BfrbBjbfjrj222224>44r8rr4vbfw4rvfMbfrwrrfrfff4frjrw2u2r4r2&%%%44uwufwu",
"ubffrrrurwfwuur4ur8w48jjr4rrrf242%2JbjfAjbfvjvBjbBvAAAAvfuffvbBvTTbPBj4224442u4juvjv4bPvBbffBvwMfMbvfBvvbjwBMJvwurw42&&424wwfvfr",
"bbfuvrfrfwf>wwu4f8rurwu8rrfuffr22&2wbbvbfbvfbvPjJbbfAjBjJuvrffPTMbbfAuu224jfurMrMfvbr8rrjfMJBbjvffffjrvMrrvjrfvbv4vu4&%uvvurfubj",
"rjwfwvuj44wr4juwur44ur88uw4rujr22&2JjjffubffAvBffvAvrvMBjujfjrBvvBvfAf22&2vfrPAvfAvfvrurj4rrfrrfrvbvwbfruffrrBffuju48&2jMfrrrujj",
"wjvujjwuuuurr4uruurr44ur4rwwufj82%wJPbBffBvvBvfjAffBBbBfvfAjjfvBjjBvff4824J4fvvffbvfvjrrwfBAvjrujufvjfvffjjvffvjfrjw2%4rPvwrffbu",
"wfvwfrrrrrwfrrjjjw8wwrwjwrrfrrw4&&&AvvvAjjvjuvfvwMvfMvBwrrfBvbrBjvvjvA44&4jvvjjbrfufvrufuJrvjrbvrfvjjvwbBBffufwvwr8u>%8Br4wu4Bur",
"Mfjrjwwuu4444fvub842uuf8u8rrrf422&2JvfvbrbBjfbBuvbbbPMPvAwfjvfAbBvfvMf8422RMvjPjbjrbvvruM4Avvrjrr4j8brjfjbfrurvbvjJw2&u8wwu4uujv",
"fv8vuj8jrrrruuurr44uwr8ub4ruwfr&%%2AMbvAffrrfjjfbBjvbfbfuubbfBjjuvbuvff222IMfbwfjfrufurfrM8urffrruuufjrbfvwvuMffbwjj2&4vufwwfrff",
"fffuv448ffu4r4r444r844wuuf4ujf82&24PvrffjfjjvffbBjjfbfvfbv4wfuvbvrbfAvv22&JrAbBvfrurfurru8bvvrjbrfvujwfwvwfrjjAvvwfu2&4frr8rrrfu",
"rrwju24rwj44444rf4488ur44rwuju2>22&vrfbvvrrvvBbfffwvjjwbrrjMfjbBjjwvbbv82ubw4vvbvjfjruj2bjrjvu8fjfuuwf4uuvffuruBjjwj222j2u44ur4j",
"frrwjwj2fuw2urfjjfu4w44uff4rwu222&4AvfvfvjMjbfuffwuvbvvffjvbbvfjvffjjMw22rMjvrjjjBjjvurjbujrvurwujuufwjjjvjujvvrvwwM424ruurwuwru",
"w4wr444fw>2uujffrwr424rf4uf2br22>%rPjbjffvffj4fjrrrjrvjvwjjfufwjPfjvwr4228Mvjruujuubrrfjjfffwvju8urrwuuvfurrbrjwufvv&2244u248r2r",
"jwu428fjr4ujvjjrvuf448w2r4rruw228&4fbbvvjffjwfvr4vfvfffffvbjvruBbBvvjrw22uvvfjvbArvrfuffBwwffwvfjfMfjrbufbjjjrjfjjvr2%>fuwu44rwu",
"j424484r4wrfrujjvrr4w4284ujurr22&22j4vbvuvrjfrvfwrwrwjjjj4vwuu4jffvfur222rMwfb4buvjfjrrbjr4M4fvvbj4bwb8w4rrjfvvbubbw%2&u4>24424f",
"uu44wuwurwjwrru4rub4u244w4rrrv284%rAfbfwwfjrBbfvbubffrwjfuvvu4wujfvffwu222v8frfrvfuufAfrrvruvrjuBrfwbujuurbufjbujrvu4&2fw2wrr4ur",
"f4482wjw2r4rr24wfujr4w8444wwrb2&&22fjvfuwjbwrfBvfvfv4fbvrr>u8u8frurf2bu%2244848frfrfrbjfrfvruuwfjwfuff4jurr4wu4fvjrj>&2u>rw42r2f",
"28rrr4uwb8uwrruwuu484w84wwvuwr422%4jfjfjjjBfvwjjPujrfjjjfffur8rrj2rjufr24228urrjvfbfjjfjffffff8wjuruu4fuuuwrrujufrjw4&44jjuwu4u2",
"2fw4rfuf4rfj4ruwubfwu424urjf442%2&244brfrAbvbbbbvfrbufuj4w4r4r8bfrjrrf4>%4448ufwrvrbvbfffMrjjfwujv4jur2f4u8j4b4rwufr2%>484wu4uu2",
"222222228242222rwuw4r4ruw28242222%2&2222244uw8w4r4w8w4u4BMufrjruwwu4rr2&2r8rjjbrjrrwwrbubrbbBjurfAbfvru4juuufjw4ruuu4&22r244222>",
"&>%2&&%2%2222222%%22&222%2&2&2%2&%&2&&22222&2222224422224juf4842&282222>%222>r4482422u4w2fjrfr4w2jvr2844442824222422&&2>222&&2&2",
"&>2222%2&&2%222&2&22422&2&>2222&2&&2&2222222222222422&4%22822222222%2&2&&&222%%&2&22222&2&2242222224%2222&2224842>2%2&%2&&2&2&2&",
"8jwvM4bfjrfvuvrr44&;&&&&&2&222%22w2248242w4882242222&2&%%&&&or2482>22>&&222&2>222222&2%2&&&%o%%&%&&&&o&%&%&o&%24r22222%224&ufju4",
"RfPMJJIABRPRJRIPf42&>22>furrjrbrj2u4ru4rbrf4u4u4uurrru4w822%vvBvrBuwu4f4r4j>uuwruurrM4rrrww242uwr2224222224244uwfuw4w442juuuMPbQ",
"ffJvPrbvjuAMbvvvQb%&22u2j>bff4wjjfAMbvAbrbTuvvvb4bPfjjj442244PbJQBPJMMBbBMvvbbvPPJRvAfrfrjrrfrrfjjf482&2&4wuujvJBBjuJvMBubvJbJjv",
"ffujffMfrfvwffjfJr424rBMBAMvPfvMfuufvjvwjfvufbfjvfrjvruAr42fRbPMBBjwfrjrr4rrrffuvwvwfff4rvAvfrjrwfvwvvw224rfBAbvufbu8fu88rrrbufj",
"vbubvvbfw4rfrjwu4b>22uPBvjABBbjjrujuff8ufjrbrj2burwbBbfjfw&rPfvAbbjffvrfrrw22u4bfvvjfru84Mjbrjjjfjwjjuf44r2BjBwjjfu4rujuwr4bfjvv",
"vjbbufvBbbbAvf8w4u2%4r^BvbMbjvvbMwvvvfvubju4rvfufBfjjjjjfr2wjBvjbvvjMfjjvujuu8fbvbvffuwwvjfuvjjfvwffruf>>rfwMMfwfffru4uwu4rrbvff",
"vvuvffffbvbvff4428222fPfrBfbfvvvwbvvjbjbBf884rvjjfbvjfjj842vbBuujj4wrr4wfwurwr2rfBvJ888wwfffrbfbffbffrj4&4rfvfbjufjur4rru2rjffjb",
"vfvfwwvJjjfvvuur4A2&84BbjMjfJbAvAjbbfujjvvbjfbfwvrjfjbMAr844vPfrufbbfbjjwuwubur>u4jjf24rffbwfjjffvBrfjf2&4vvvbjrffjr42fru8u4jjjv",
"jvwbrffffbfffju8wr2%4wBbvAvbbbJbfBfbfjbvufwfjjjAvbjbfffJvj>vAvujjbrbff2fwuwuuf4u4r4fwr84jfbMjMfAfbrjfrww22rBfrwbjufjwr4w44wrfjff",
"fjfuwffjjfjufjfuuu4&88bbPfMBurfBJj4fMMPfbjffvMwjTAPvjjfvB88RrvbvAjfv44w4wrrr4rr44rr4f884brAffbvMfjjrj4vj22bwAbjffbrrbfurjffrfffu",
"ffbjjBjMjvvvrrwwuu>28rBbfvvbfvjjvvAjAvfu4ufv42ujrMbfwrffvf>rfjjbfj4uurw48r8rwr8wjr4u4r4rrvrfrfbbjbffrfw842fbvjfjrrrrwfuuwrufjAfv",
"BvvvvAAvffjvwwj2rr2%84JvBvbuvvAvvbAjffjfrufMfvfrvjfrrf4fv42jAfjvjrb4jujrw4rwrfjjfr2rrrfrjbbrfjvfffrfjrf>22Brj4ffjuvrjbf8rubjbfvv",
"jjjvbvfffvffubrwuww>2>AArffbrbrBBjjbfbfjwvDwbbffjvrjff4fv82fBfbfffurfj4wrurr2uMfbbf448ufbvjvjfjrbjffufw422rj4vrfrwjffjfr4urffjfv",
"jfuwbbMbvffbuvjrwu4&42MjfjbfffbffjBffBMjjbjfjbwjjfbfvrvrr>>rAjbjuffuuw44w4rrvAJABvbv44fjffvvjuffjfrffrf282Auufbwfjjff4jfvrujwwjf",
"ujfrwfjfvfvfwujbwfr224MBvffv4fwjffjAjAbbfjfwujbfjrfvjww4w22rfbjfrvujjf4u248fwff8fvwwrrujvvbjjfffjvvfrff422uf44rfrfwfr8wr8r4uuffw",
"fjjujrvufvvjjuujruu%2>uvfjvwvfjjfjjubbbAwffffrbrv4jffrAvu824bjBbwffrjjb4wrwjrrrrfjv442rufjjbbffrbwfj4vw4%2ffwfbfu4jbfruru84wurbj",
"rf84vBwuujrvAbrrjfr22uwuujwfuvffwfuBfvvfjbjjwwjfffjfjfff422wjbrjrjjfuufuwu4jwwfwfuw44wwr4jrbwurjrrwrurrw&2fujuff4jwjwf4jrrrj48rw",
"bfvbvffjbjjuBwbfrfv222fvffvjBfffvrjfvMbfvfbfvvrfffvubbjju222Mfufrrvjf4r4wru84u44jurrb4fbvbjufjjfffubjwuu2%2jw4urrjrru4ru44rfbjff",
"4u4wfvjAwuf8ruwu442>%244jrrfurffufjjfjffjvfr4fAjfvwvfjur22&22fbbjj4j4j4frfuwruwf2u8u4urj8r8fwvwjffffrrj2222ujjrjruww4444284ju8uu",
"2%24>228428242222282&228w2uffwj248u4r8422422224jffjrfr422&2&42br848884fr424u2422222r4444222&28ruf48w2j4222224ur4w24%224%22>24>22",
"2222&>22222>22&22&%2&2&22222&2222222%22822%222242222&22&&&&%2>2222%2%2%2&2222&&%2222&222>2&&2222%>&&%2&2&2%2%2&2222222>>%22222&2",
"2&22222222222222&%2&222%2&>2222222&22%2%242BBf424428urrMBMv4r82&2%% &&&&&&&&%%2%224uu8428rvw2224uwjrb4wfjvv242222%%&22&%2&222222",
"rr8>2uuruwruuw4w4u24822&%&&2&22&&%&2%&2u4vvfvJM4ffwbBJrPMjwMMrfvuujrr48ur4u42&o&8jfjburj4r4j4j8rrBvfvBvPfvbrurv448&&2rur4444>wrr",
"PfbMIvAfbBPMfbjBbjwfrrurvwrfvuf84442%22fQP~JMMbIbMPIJJRrMuAbfbvbMbbPvTPPPwuvu&%4jrBRPPPjbbJvu4uMBPJPb4frjjBvrvvfjf2%rrujvfvPJvbP",
"fbffwvMbfvfujjurfMvPAbwbJbuBTIAAMr4&%22PJRPRbbBujvvM4Bbuuvv4j4ubjbbvvrvjfBjB4r22rQvbAfvrbfjwru4fAfbfufrvrvrfrfjbv4228RAIIMfjjjvv",
"ffjrffujvfjrfjfuu2bujufjjwjwfwfrrju422uvQufjvvBfjbuffrburjvbjurrfrjuurfrbjruu42jBwvvbvvwwjvrrwrufbjufrrfvwuwfMrwwB42Mjvwjvjrjufr",
"44jfjrrjrfjuuvrujfvbfrfwrfuufjfw4uj2%42JubuMubvvfufBbbubffMf4jfM4jrurujjujrj2882bBjvffMvujr24wrvjf4jwrwfrrfrjwrjrf2&wfrfu4ufrv8w",
"wuujb8wrfjfbffjujjrfbrjrrrjrrwffujj>224fMjffbuvjuBvrjujbvjrfjvwuvjrfjjjfbfuw2244bvrfvwufjrrfrffvjfjrfjvjjfwrjrjfjf42Duwuuuuuvur4",
"jfffrffvbruurbfffrufub4jwfjj442ruwf22w2MufbfjjuubbrBrfff4jvjfv4jbbrfuf44jffr24%urvjwfAff4frjrbfvwj8r4bjuruvfrbbArr42fvrfwjuujfjj",
"wfrvrffbbfbffjjrfwbffjfjffjrrjuffuv22r8~jbvfuBjjjjvfbrjruruuAffffruwu4jurMur4222BBvvffbbfrvfvbjfrrrwjuf4rrjrfjwjvj22Mrjujfj8vwju",
"fjuujufMrbrfrfrjrfjfrfuwfbffwvbfjfu2%44vrrbrurrBbrvfruur8fruufrrjfwwrrruu4rb42&j8vvff8wjrbjjrfrjvwwfwwrjjrMjrfjvvM>&8rMfwfrw4wfj",
"frrufrfruffbfjrrfjfAfbvfjjvfvfurvwf>>44vMrwfvjbffuf4fffujwfuurwjuwfwfubjjjubr224MvbffffwMjfvvrrrjrffjwffjufrvffrru2%Mfvff4u8uwrw",
"uufffvwfrbwffr44rfwwfv4vjvffjjjjrfB2>u4rvvuuburbuvufjbrffruuuwuwBfvrrrrfrjfv42&rJw48wfffrfvj8furrfrrwjjjfrffjrffwj224BBfu8u44frr",
"uwurAvrrffjjujfwjfjffwjrjwvfwrfujru2888ufujbfjfjb8Mvjjfruuruuwuvwubwvjbrrrfvr>24bwjrrrfwvjjrffvrbffrjfjjbrbwujfjAj4&rrwwjuu8rrjw",
"rrbrwwwwrjjufufurwffrfr4rrfjuuuwjfb224wjbrbjjfruwufvfbvruuvrjuuuwufrjurvv4ju22%2fuuuuffwjBjjfrfw8rrjrjrMjffb4wff8M2&uf4vu44wuvru",
"rwjuvjjfjfffvjvrrfffvfjjjwuuv8uuffv228jvvbvjvfjwjrfvb4wufufjuufwufbfuufuvr48w%%ruujvbwvjfffjfbfffffrjfvbf4frf4wrfv4%wfuwru8uwujw",
"48uw2j4wfvwrjfrjuwffwj4fjwwbrrrwujr2%>>jAr4bfjjf4j8wwvbbwMvbrjujujuuuuMvj4j2422&>jrfrjrwrAjrbffjjjbjrjufuvfrjj4fuv2&4rr8ju2r8u2r",
"u8uurr84jbrrBjbvufrjjffrjjjur8frfff2224jvjvuAvfuu8ffjvuvvfbuuu8ujwfur84ufjfr42%2rfbfvjvBbbfjvbbbvffjwfBffvwfj4uuAf2&4ffrurr4ju4w",
"urfuujrrrffjwrffwuwwwfjrwrrruv2fjj22&8>r4vfffMvffvrfjvwrfvjvuvBvv4ufjbfuvjrj22%&2fjvvvbMfbfffffvbAjf4Bfufffb8rjvwj&224ruffubufrw",
"fwvrfffr4fvjfubbfufuvfffu4Bfwrfjbwr2>2428ur4rjrrufuvBjjbr44uuuvBjuu28uu4wrf42&&%48ujAbvvBjjbffrfr4jrrfjjfjffjfjub42%24r4r4urrfwf",
"482428%2222224244r242u4wuwr44wfr8>22&2&222&&2w4>82>&842222222&&2&42w22&222&%&2%%2222&2222222&2&&2222&2>424422>48222%&>%2&2;22224",
"2&222%&2%&22222%222&>22&2%&%22222&2&&&&2222242222%2&2&%%2>22322%222&%%&&2&222%&%&%222&%&&%&2w22>&%2%&&&&222222&o&%&%%%2&2&&&2222",
"&%%2>222u44r22&&&%%2&%%&%&2&>&&&&2&2&22&&&&&&%&2&2&2&%%&&&&%&&&22&%24&2222&2%224&2&2&24rruABAbffj4u4w822&%%% &&2&&%2%%&%%&&2&2%2",
"MvbbPPMAPbIfr24>2&4j4fvwbfwbvrjvbfrrfvuu8ruwr4jrr4bfjwwu2442848%&%8v4MfrBfurAfA4PvMPJMRAPMTIPARMPABMMfv222r4vjrj8w84rwfwu2ruffbA",
"vvurfbfu4u8jBfw2&4jbBMwf4ru4Aru28fvfw44jMvburruj4wwjuuw844228u4w%%2PbvjM4ujbvMbMBbJbvBbfrfPvvf4brAjujbu>2wujbwjjub4uwrfAAMfvwfbA",
"rjvfjBbrbvrjAjr22urBAj4rwruwjfrrf4wjvrb>v%244244w4rrr4r88wuruBu422uIMMfjPurfvBbBBMBvvAjjbBffvufjvvPbMBu4>2MAwfjjf8uwrrj4rj4vbfjw",
"bjfjwfufjfffrf24&2vwrwjwwjjrrrfu4fujfr2u2uru24wuw44u2r84242u42w222bBjffvbvbArwjjjjjwffwffAwfjrrffvffbB222rfrjwurfuwurr4vfwrwjfjB",
"uuvfwBfjfwrjffu2%8Purufuwrwrffjrwffrrru42j84ruffj8urw24r244uf4f&24jAvuffjuvvMAJjfffffjrAvvufuuwvvjfMvj424wBuurjrbjfwbjrfbjv4jbur",
"brjbrffvrfjvfvr2%4wfbrujffffwjrjurrj4444wu8r4w844w8r2r8444uur8j2284BjruvvjbfbbfvjfufjvvAvrvbrjbjjbvfbu2224Mbvrfjrf4rfu488urjjfwb",
"fjfvvbffjfjuBfu22ubBbjjrfvwrjjjfrrrrb448uwwrr4r2uwrru28448wrMbMr8%rfvbwvffuuvAjjbbfbjvbuvrbujj8uvrffbvfr48bbujwbffvffjfrrwffvwjf",
"uvrbbjffjjjvfbu2%uwrruruuu4frjwfuurr4r424u4rwrrw284f4224uu482jf4%24Bfvvjjjrvffujrfbjfbvjuvfjjfwujvjbfjw422vbrffffjrjbffrfruvfrvj",
"jrffuvjbvuvArjv%28bjrujwr8wffrfwjrf8828442vru4r4jf8r44urrwvwbrr2r>ubArMbfjMbfjbuvjjf8ubrjjrffrMrfujvvbw44rvfIfvvjjfjuwrfrrfwjffw",
"rjvfwjfjrwrb4j42%2Mffvjjrf44wfrjjfw22r284u24r4w4wu4rrvffwjjufbr2224vfvrbvbuv4j4fvbrvrfvvjffrrjuwfujrMj4w2ujvfbrjrfrfruruwfwrrvjj",
"ujffjff4fjjvfwu224Bjvvvrf4w4u8r8224uvu4wuuw4rrj4fwwuf4vwfufuubT2w24bvvPjfBbwrffuPubwfrvffjjfffffbrvjMvv24rffjfvwjrrfujfufrjfffju",
"ju4vfuuvvrffju42o2fffbfjrwrr8r4uwruj44rurrrfrwuf4f8frrwfrfujfjA22&2bjfrfuvbBrfvuufjffjrjjurrrfujjfujfrf224vbbfjwufjjrwwrruujb4uf",
"vwj4urbfvjvrfwr>&2jjvjjrfwjrffww4rbrfrjff4frjrfj4rfrujwjffwrw>T22&2BffbvbrjJvfb8rrMjjrfujfjrfurfurujvjj244bvjuvjffbrjffjrjjrrrjv",
"juwjwjjfffjfju44&4ffffuruw4rj4rjurrbwjfr8r4urjwwurwwjjfjffjrfjv22%2jjjvbfbfjfrjvuvujfjffuwufrMfrjf8f4r4224vrjjwvfwfjjfuwujrjjjwv",
"b4jufjjvwfvfbff2228fvrfrbwrrwwrwwfwufrjurwfruur4rrwwjrjwffffjrr22&8wwjjMffbvbrbvvfvuuwfujrAvf4vjbffwfju2>4vrjujffwvffjjujjffufrv",
"8f4rwjrbjffjjur>&&248r4urfwwrwfj8urffwwrw4uw4wwrrffrwrfj44wfw4>%>&2jrfrvjvfuwjrrrurvrujjrwjuuw8ffvw48u42&>wuubfvrjffrwrvwuwwr4fr",
"f4fubvrjjjvurr42&22wrrfu4jvffffffrfujwuwr4uwr4jujuwffwju44j44222%&2wjffwjfbubffur4jMfurrjjur42fvBjjM84r2&2ffrvbjjvfwrjb4uwvvrfuf",
"4wjvjfjjwufjru&822284urwuj4rbv4ubufujfjfrfuf8r>rwj44wjfu442422%%%&22ru>884w44Bjj2484844ru42428&2%888&2&2%22r4r442r24&244rfrfjfuw",
"2>2282244282222>>2&222228&w22%42222%&24&2&2>22&222222%22222&2>%2222222224222&&2%2&>22&222&>222222>222&2&2&2&%2>2222>222>22282>22",
"222>2222&228&&&&%%o&&2%2%%%&2>&>%2&&22&2%2&;&&22&&&2&;&&%&&&&%&&&&&&2222%2222222&224>222%2&>&22%&%&>%2&;&&&2&%%2%%&2&%2222%>2222",
">&22&%22rjjrjrrrfBMBvubrjffvjrw2884&%%%%%&2MfBrbbjbjfjvbbjbuvffub48>4222488>2&%&&&&%%&&&2&&24>42222>8r424222>4ruw4w8r842r>&&2%22",
"wwubJjfPAAbTvffMBPrvvBBPvMbAMrBMQPruju%%2rBJBbv2JvuBfvJjvBfBjvfJrAfBbvfAbRMf2r%&2u2ju4wu2r%uru4j4fMfrvujBruj2rruuvuu8rjrrvrMjjww",
"vfAMbJbrBvjPbjfbPbAwv4vuBjufMbvBAvrw2r4&wvbIBufvPuAvBJvfrfMubvjjjurfvwvfBBAAuu2&28bjfub4MrbBBMvPjJIPvwJPRvMfMBbrAfJPPbRbubAfMBjf",
"rurrfrbvfwujjrujwr8j8f4uw44u8wrbrfvjr2&&8MBrruffjfffwuMbvbrvffrfrffvu44vffMbj44&4uJbjBwrrr44f4jwuvbfrjuf8vfruvrrrrfrf44f8jrjrfwj",
"frj8bjv4fjujfv44fr4wfwrfr484rrffBvbAju4%>RfvbfburrMMbjMBwvbjjfj4jjbufjjfufvfB24%4vujrfjubvfwujjrrfj4bjjruwwrjfAbbff4jvf4jrwuwrfj",
"uuwurfrfjrrbrj8uurfrurruvrr4rrurb4bvrr222uf4vvvw4vfMuuffwwfBubfjvwffwv4frfrMv22&8b4r4w4ffjrjwjjwwuruujwv8jfjfvjjbbjrurfrrrw4rrrf",
"fjwjurujfuuruwurjrrwjrurujuuuuffwrrvbu4&ufMfvfjfufbujuvfAvJfbujufvbjBrvjvrjwM42%wABwjuvffjjufrjrjuj8ffbjfufjjufffjvjrwjwjjr4urjj",
"fr8bfjrrwuffrrrfrjwjwrjurwurwwrPurrrjj2&2Mfbrfuuuuju8uuPbBwjjrrr8jufvfrvr8rrB22%2b8P2vfffvfur4jvffj8fj4b4fjjur4b8vfrwrrjurjrrwrj",
"rju4rrwuuffrrfffrwfrffrffrvrbwururfruu4%uvbvjrjfjfbfuu4wubrrujrufvBfBfururbff4424jbbA4vubrjfjfjuwuufrfjujuurr4frvjffffufwjuwfrb4",
"4buwrwwwwrwfww4jrvfjfb4fu2u84fjrufruur8&4Bjvfvuu4jjv4vAuuuffrvvfrbfjvvuvwrw4bf2%4MurwjrbAA4frruffjrrvfjvwfffbfuvbbwfffjrff844rj4",
"ufjurrwrjwrjjfjrffuuv4fvubfujurwff48rrro2jfrbwrfvfr4bbvfuv4wvfjfMwfffffjuufrj24%4vMfrwfwvjfjwwrfwbjjjffjffubvfffjruvbfrwuj4fuwf4",
"fu4r48rjwrjbubwvujrvrwfbrf4j444jwrwffr&&2wwfjrrwruuf4uffufr2urvu4u2fjrfurrwff22&8frB2vjjvv4fjvbffjfArffbruwwvvjvrw4jb4urj24r4r8f",
"bfuuu8uwwubjrfbvjubbfwjff4jjwrfruwfffr4&4fvfffuwrjfuurBwwvfvruMjfufbbrfubujfB48&4vuufwjuffjjfvfujvfjvfvufrvjwjuwfwruf8rrfwuwrwjf",
"4urr2u8buvfrufAj4rr4vuffjjjuwj8uuvwwfr8&2burffrw4u8rru4jrjufwu2fwffwburu4rrrj42%288fwrjbrff4rwfffbjfujju4rufwjbfrfwwju8wr82rru84",
"jwrru8u4vjvrfjuwb4vrjfujvjfw8wwwffvrw44%rvfuffuu42r4wufb8juBbjvrjfjjbjw4rujfj82&2rfrvrjjjrufbwvfvffrjruwrffrbvjubwrwrrbuuwrwurur",
"4wrjjf4r4r8rf4rf8rrAwwrujbrf2wuwjuuuw2222Mjfwwjr4rwfbr4rjf4wrffv4wrurrrurrrrb42%2jjbjrjrw4rjr4rjrfjur84rwjufwjjfrrrjubu8rurjfwur",
"4ufrfjf4urjwf4uwurfwwrjjbffu8wfuj444f42>8vfbffu4jjjuururvuvfbrurufruffbrfrrfu4>&2ufrjrbwjjuwjrufurfrrr8uw8uwffwfjjfufrjrrf84rfj2",
"u84r4f84fufurufur4fr8ufufr4jruuu>8w4f4222bru8j84rrwuufrfrr4uwvffurrrrrrfrwwfj4%&2rfwbj4rfb8jffujfjf44428u8wruufvrjw4wwfjfffjur8f",
"4r4jujjrAw4r44248www4uvrr88wvfvuurrwf22&22uwf2wujfjrujvrubjfAur2jju8uuvrfr44422%22rffffjfurrv4ujuvjvfAMvAbfufur4v44fubj8f8r4j4r8",
"4282r424242>2>%&&2&22484244r482428242222%%&2224r448u24r844822>%2&2r228&2&2&2&2%%&&22>4>2242224%2&22222444u>2&422&%24222w8284>42u",
"222242>>2%>22%2&>22224222&4222%2>&2222%22&2222>2>>22222&222222>%>24&2&22>&222&2&%&22&&22222222%%2&824%42&22>2&22222%2&2&2&222222",
"&%22%&&&&2&2&%&%&2&2%%%&&%%22>&&&& 2%& %&&%&%&&%%&&2&2>2&2&&22%2&&%&%2&&&2&2&%%224442222&22422%2&%&%&&%%%%%&&&%222%%%&&%%%&%&2&&",
"u4f4vrM4bffvMrr44&&%22rr8rr44wwrurwuvbfbvv8wvffvMrjubbf4uwr482%244rrr4w>rr4wjfvrrffrvwwrj4urrr4u4wu42%&2w8rrb4jrrffrj2f4j8burj44",
"jrbPjjfjvMfRJB4f2>%24rwbbvbPABffrrBvvbPIAMvbBvjjfvvrrfvjjru44&o4wurvurwwwb4jujfj4r4juwfwrrrvr48ufjwr4224MBuffvjvbvbAbjrfjvvfBvrv",
"jrfjwjfvAjbfvfP4u2>4jvBvBJBjvfbfj4fuvbbfbvIvvvbPAfbrvjv4ffbf4224wMuu42fujffffwfrw2fwf4r4bffjr8bjrrrju22jfrMrBjrurrfjjrvrr4rrfrwf",
"4fjfrjfjjfwvruuru2&4rbfPffvvjbrfrjufbPJbfvfjbbrvjjrwwurfubuB22&28u44fj2wufrj4urrww4uwwfrur4v824rruwur2>rfbffffrjjjfrffjfrjffrbfr",
"Bvvjffvvfjfjbrjjf&22rfJbjfPjvvbujwvAfujrb4Affbfbffvwfru4bufb22&2uwr44r8rfwuwfwf4r4rufrrwbrwuvf84rwrrf22ubuwfwruwjvufjffrjwurfvbB",
"jffvbfbjfjfffjjbv2244BujwfvfvfBbrv4juf4r82wBfvwMffrfrrrvjwrrw2%84wjjr4ruwwjwu4ubrurb4j4bfjfw8f4r4uw442%ujvfjru4uufrBjjff4rjjfffv",
"jjAbbfbjvbwAbBbfB&>2rrf4Bbf8vwjjfff4uurfrrvb4ffuf4Bwjwvuffjfr2%rr2juu4wfvwfrrjrfrur4jw4fjjj4j4fuw88rw244vBjjjwjrbufrf4uur4rwbvjf",
"ffrubbjfjwjbvjffu2224v4fjfufwjwvjvwjrfujff4jwfrrfjufwbrbfu4vf2&rjf424fwbrr4w4rjr8r2wwjjffvjwwj4rrjrwr22r4rwrrrrururr4jwuuujfurrv",
"Bvfuvfvjfvrjfbbrj&844rbwfjfwbjffwj4rMwrjfAvrrfjffwrrffvfujvff42wBffjufjur4j4fffrr4r8wrffjjffjrf4frurj2wurwb4fubwrufrjufrjwrwjrvM",
"ujuubrfrrfrrfjvww2>42brfrjffjjuur4wfrbfffw4jf4brubuufrfjujuf22o8jjufwrwfr4u44u8jrfurwrrrfjffrfuwurrrw22rufrjwjjrurjrjfrw4j4juffj",
"rfbAvfJ4w4frwjvfb&224vruurvuMrr4r4j4vfrrbvuvfr4rbwjfjwbjjj8fr224juwrrrrrrrw44ruwfu8ffwu4ffffjrrruwwjj&rvjrjbBwuwjj8jjfwrr8rubjjr",
"wbjBjvrrufubjvjfw&&44fffrbjfjj8r28ruuffbrffjjwwfjj8f4rfBrurj82&8uwjfuffrrufr444uujrjurfrfvffurffwj8ur22uwfrf4r4uuujujjwuur4rjfff",
"BBwuwjfffufjfvjbv2484rrfujfvfrrwjrrr44bfbjjBjwrjrfv4fwvrj4ffr22rAfrufu8rfffww244wjjfwwjfjvjujjuwrjfjf244jfBjrjffrrjjw4jrw8j8ruBA",
"8bjwrj4vrffvvrwju2222rrurwjjrw8j4rfr4jjvrjfbjf4frr44fufjrwwfw2&2fvwu4w4jfrwu2r44244u4jrfrbjffrwr88jfv22urbfrrw8wufrfr84jwr4r4wfr",
"bfjfrrfrrjwrrffvv>242rjujruwfrjwwf8ru4ruvwuufj8rjjuwu4f8uruj44%2jrrwf4ruw4r4rff4r88r4ujwuujfjfjvfwujr424jfAvvjvujvwrr8jruuruwuuf",
"fjrbwfrfrrubvurfb2&42uur4wjr4jjufufruu8w4ffwruru4jrurfwfwr8482%2rurrr44r8u8fr4wfufr24ururjrwufujrbjrr222jfrjfj4w4bwuur4rrjr4rwwf",
"wjfjbfurjrufjbjjj2>44rujvwAvfwfwj4fjjbfjb4fffwr4uwfjurrwvw8jj4%2rwrrj8frrffjj4f8rwfwr8urfwfuvrfffrjfr2&8fwruffjfu4r4rur4wuruf4j8",
"wrvvfrrjuujvbvrjj42224444fjf8ffu4rujrrwf8rrwruwu88uuurwj4ujj82&22rfwwu848uurvrjfr44r4urjurwr4fruf8uu42&2rfwrfu4w444uurjrfubu4f8u",
"M4j24&2uu2uru44242&22&222&2222w44jr8u8wrjru>42b4844>224228rf8&%222rrr48ru4r4u2jju4wjbr8wvrfrwjfrr4wr4&2&4&48444rfbu48urj8fj2484v",
"&& &&2%2&824>&&&%&%&%%%&22&&&2&&&2%&2>222222222228222%2&22%&&2%&2&222422242822&22>28222842442224222222%%%2&%22222w2424>2r2&4&&&%",
"&o2&&&%&&&%%%&&%o%&%&%%&&&%%2%%&2222222222%%&o&&%&%22&2%>%%&%&%%&2222>>&22>&2&&&2%>22222222&222%2&22&&2%%%&2222&22222&2%2&2&22%%"
};
