/* XPM */
static char *north[] = {
/* columns rows colors chars-per-pixel */
"256 256 229 2 ",
"   c #51514E",
".  c #545552",
"X  c #555552",
"o  c #555652",
"O  c #555653",
"+  c #565752",
"@  c #5C5D58",
"#  c #5D5D58",
"$  c #5D5D59",
"%  c #5D5E59",
"&  c #5E5E5A",
"*  c #5E5F5A",
"=  c #60615C",
"-  c #61615C",
";  c #61615D",
":  c #61625D",
">  c #62625D",
",  c #62625E",
"<  c #62635E",
"1  c #696964",
"2  c #696965",
"3  c #696A65",
"4  c #6A6A65",
"5  c #6A6A66",
"6  c #6A6B66",
"7  c #6B6B66",
"8  c #73746D",
"9  c #73746E",
"0  c #74746E",
"q  c #74756E",
"w  c #74746F",
"e  c #74756F",
"r  c #747470",
"t  c #747570",
"y  c #757570",
"u  c #777773",
"i  c #777872",
"p  c #777873",
"a  c #787973",
"s  c #787974",
"d  c #797974",
"f  c #787975",
"g  c #797975",
"h  c #797A74",
"j  c #797A75",
"k  c #7F7F7D",
"l  c #7F807D",
"z  c #80807D",
"x  c #81807D",
"c  c #80807E",
"v  c #81807E",
"b  c #80817E",
"n  c #81817E",
"m  c #81817F",
"M  c #82817F",
"N  c gray52",
"B  c #868685",
"V  c #878685",
"C  c #868686",
"Z  c #878686",
"A  c #878786",
"S  c gray53",
"D  c #888684",
"F  c #898684",
"G  c #898785",
"H  c #8B8987",
"J  c #8C8987",
"K  c #8C8A87",
"L  c #8E8A87",
"P  c #888888",
"I  c #898989",
"U  c #8A8988",
"Y  c #8A8989",
"T  c #8A8A89",
"R  c #8B8A89",
"E  c gray54",
"W  c #8C8A88",
"Q  c #93918F",
"!  c #97928D",
"~  c #95918E",
"^  c #94918F",
"/  c #95928E",
"(  c #94928F",
")  c #95928F",
"_  c #97928E",
"`  c #97938E",
"'  c #96928F",
"]  c #96938F",
"[  c #98938E",
"{  c #909090",
"}  c gray57",
"|  c #929190",
" . c #929191",
".. c #929291",
"X. c #939291",
"o. c #949290",
"O. c #969390",
"+. c #979390",
"@. c #9E9B97",
"#. c #9B9A99",
"$. c #9B9A9A",
"%. c #9B9B9A",
"&. c #9C9A98",
"*. c #9D9A98",
"=. c #9D9B98",
"-. c #9D9B99",
";. c #9E9B98",
":. c #9F9B98",
">. c #9C9B9A",
",. c #9F9C98",
"<. c #9F9C99",
"1. c #A19B95",
"2. c #A29B95",
"3. c #A09B96",
"4. c #A09B97",
"5. c #A29C95",
"6. c #A09C97",
"7. c #A19C97",
"8. c #A29C96",
"9. c #A19D98",
"0. c #A29D98",
"q. c #A29D99",
"w. c #A19F9D",
"e. c #A39F9C",
"r. c #A09F9E",
"t. c #A09F9F",
"y. c #A5A09B",
"u. c #A6A09A",
"i. c #A7A09A",
"p. c #A7A19A",
"a. c #A7A19B",
"s. c #A3A09C",
"d. c #A2A09D",
"f. c #A3A09D",
"g. c #A0A09F",
"h. c #A2A09E",
"j. c #A5A09C",
"k. c #A5A19C",
"l. c #A4A09D",
"z. c #A4A19D",
"x. c #A6A19C",
"c. c #AEA9A3",
"v. c #AFA9A3",
"b. c #ADA9A4",
"n. c #ACA8A5",
"m. c #ACA9A5",
"M. c #AEA9A4",
"N. c #AFA9A4",
"B. c #AEA9A5",
"V. c #AFAAA4",
"C. c #AEAAA5",
"Z. c #ACA9A6",
"A. c #B0A9A2",
"S. c #B0A9A3",
"D. c #B1AAA2",
"F. c #B0AAA3",
"G. c #B1AAA3",
"H. c #B2AAA2",
"J. c #B2AAA3",
"K. c #B2ABA3",
"L. c #B5B1AE",
"P. c #B4B1AF",
"I. c #B5B2AE",
"U. c #B5B2AF",
"Y. c #B6B2AE",
"T. c #B6B2AF",
"R. c #B6B3AF",
"E. c #B7B3AF",
"W. c #B4B2B0",
"Q. c #B7B3B0",
"!. c #B7B4B0",
"~. c #B6B4B1",
"^. c #B7B4B1",
"/. c #B7B4B2",
"(. c #B7B5B2",
"). c #B6B6B6",
"_. c #B7B7B7",
"`. c gray72",
"'. c #B9B9B9",
"]. c #BCBCBC",
"[. c gray74",
"{. c gray",
"}. c gray75",
"|. c #C0C0C0",
" X c #C1C1C1",
".X c gray76",
"XX c #C3C3C3",
"oX c #C8C8C8",
"OX c #C9C9C8",
"+X c gray79",
"@X c #CAC9C8",
"#X c #CAC9C9",
"$X c #CACAC9",
"%X c #CBCAC9",
"&X c #CBCACA",
"*X c #CCCAC9",
"=X c #CCCACA",
"-X c #CCCBCA",
";X c #CDCBCA",
":X c #CDCBCB",
">X c #CDCCCB",
",X c #CECCCB",
"<X c #D6D2CF",
"1X c #D7D2CF",
"2X c #D8D2CE",
"3X c #D9D2CF",
"4X c #D9D3CF",
"5X c #DBD2CE",
"6X c #DBD3CE",
"7X c #DDD3CD",
"8X c #DED3CD",
"9X c #DCD3CE",
"0X c #DCD3CF",
"qX c #DED3CE",
"wX c #DED4CE",
"eX c #D5D2D1",
"rX c #DED6D1",
"tX c #E0D5CF",
"yX c #E2D5CE",
"uX c #E2D6CE",
"iX c #E2D6CF",
"pX c #E3D6CF",
"aX c #E0D5D0",
"sX c #E1D6D0",
"dX c #E0DBD8",
"fX c #E0DBD9",
"gX c #E0DCD9",
"hX c #E1DCD9",
"jX c #E2E2E1",
/* pixels */
").).[.[.[.|.).[.W.[.[.|.[.[.).).).|.[.|.|.oX|.[.|.oX[.|.oXoXoX|.|.|.|.[.|.oXoX[.[.[.|.|.[.|.|.oX|.oXoXoX|.|.[.oX|.oX[.[.F.l.l.c.c.=X|.oX[.oX[.|.`.=X|.=X|.|.[.[.W.[.`.`.`.[.[.|.[.[.|.oXoX2X=X2X|.=X=X=X=X8X=X8X|.8X=X2X[.|.|.|.|.|.oX=X|.=X=XoX|.2X=X=X[.`.y.F.F.[.=X=X=X=X=X=X|.=X=X=X=X=X=X=X`.|.|.oX[.|.|.2X[.|.[.|.[.oX|.oX|.|.`.|.|.|.|.=X[.=X|.=X|.=X|.|.|.oX|.oX|.|.>X=X=X[.[.[.m.W.^ l.l.F.m.[.`.|.=X2XoX=XoXoX=XoX=X8XoX=XoXoX=X=XoX=XoXoX=X2X=X2X=X2XoXoXoX2X2X2X2XrXoX2XoXoX|.oX|.oXoXoXoX1XoXoX|.oXoXoXoXoX|.|.t.>.",
").[.P P { t.g.$.>.{ P t.>.C m.m.>.m.>.{ t.>.P.g.>.t.P.m.m.>.m.>.m.{ e.>.m.m.>.o.o.>.Q Q l.^ g.l.g.>.m.W P.o.g.c.@.l.Q P g.[.[.[.[.F.m.o.>.l.y.o.P P C c.l.P W.W.m.P.W.^ y.Q.7.`.m.m.P.c.P.P.y.y.c.m.F.m.y.F.F.7.7.F.y.F.F.y.l.F.!.F.F.y.y.W.`.W.F.P.F.F.3.F.oX`.[.[.y.l.y.7.F.l.^ P 3.^ 3.P P !.F.!.[.7.F.^ !.7.l.7.y.l.y.3.F.l.3.7.F.P ^ 7.F.7.P F.y.y.P ^ ^ 7.F.7.l.^ ^ ^ ^ F.3.^ F.7.P P l.`.[.`.|.c.l.y.Q.W.y.l.y.,.,.P >.o.F.y.P.m.4.9.l.C m.y.P.>.l.l.F.l.m.m.@.e.>.o.P.^ m.g.t.o.o.Q g.P m.g.m.l.l.{ e.>.>.>.t.{ { C |._.",
"[.W.{ $.$.{ { P C C P { { >.{ { >.P g.t.P P m.m.>.t.>.{ { >.P m.>.>.>.>.{ { x ^ o.o.P Q l.P o.Q Q @.o.c.o.4.C 4.o.^ ,.>.l.P.[._.`.l.Q >.,.>.o.l.P 9.^ l.,.,.l.^ m.,.^ m.7.F.F.m.7.y.3.l.c.y.^ y.F.l.l.y.F.7.x ^ l.3.3.y.^ l.P y.l.l.7.7.l.^ 7.F.3.y.l.F.l.^ `.=X=Xl.^ ^ ^ 7.P l.C ^ P y.7.^ ^ G F.7.^ 7.F.3.7.l.y.F.3.y.7.^ 7.^ 7.3.^ 7.P 7.7.^ 7.7.P ^ 7.7.^ ^ ^ 7.P 7.^ 7.P 7.^ P 7.7.P ^ ^ =X[.|.^ 3.3.y.l.7.y.3.^ y.o.^ >.o.Q 9.^ P l.l.P 4.P >.o.l.>.o.>.Q o.l.o.^ 4.^ >.@.^ o.P Q P Q Q P t.t.>.>.l.>.P P { { { g.>.>.P.[.",
"oXP.{ $.{ { { C C C P C { { >.x C { { { { P { >.>.g.>.P { P P P >.g.>.>.^ P C o.o.o.Q P l.m.^ C Q Q >.Q @.^ P P ^ Q Q >.,.P.|.`.|.>.Q ,.>.o.,.x o.P o.^ >.,.l.,.l.^ 7.^ 7.G 3.y.l.3.F.y.l.l.7.^ ^ l.F.l.l.y.F.l.P 7.F.7.l.l.F.P F.l.l.l.3.3.l.l.l.y.F.l.P l.W.=X=X^ ^ ^ P P y.^ P x ^ P ^ ^ 7.^ 7.P 7.F.l.^ ^ l.^ 7.y.l.^ 7.3.^ P 7.y.y.7.P 7.^ P C ^ ^ P ^ ^ ^ C 7.l.l.^ ^ ^ ^ ^ P ^ 7.C ^ ^ =X8X=XF.l.3.^ m.7.P ^ 7.^ ^ ^ l.9.l.,.Q C P ^ ^ >.c.>.P y.Q o.P P P ,.o.o.l.>.4.o.W o.o.P P ^ Q o.o.g.>.^ P l.{ C >.{ >.{ >.P P.|.",
").$.{ $.C g.P P x P P P p P P P P P >.>.{ >.>.g.>.{ { l.{ P P C P { Q m.P o.o.o.P P C o.>.o.o.>.o.>.o.^ P o.l.^ P g.C ,.^ ,.[.[.`.,.o.,.^ ^ P ,.P ,.P Q ^ o.y.^ ^ 3.y.y.3.F.^ 7.P F.7.l.7.y.^ 7.^ ^ 3.^ ^ l.y.7.3.C 3.y.7.y.P y.P 3.7.l.7.l.7.l.^ F.y.3.3.7.F.=X=X^ ^ ^ ^ ^ P P P P ^ P ^ ^ P 7.^ 7.3.7.3.7.y.7.^ y.3.7.7.3.P ^ P 7.7.l.^ P F.P C P x ^ P ^ 7.^ C ^ ^ y.^ ^ ^ ^ ^ ^ P ^ C ^ P =XoX=Xl.y.7.y.y.^ 7.l.^ 3.^ ^ ^ y.^ P o.>.^ o.l.P o.,.^ >.y.,.o.,.o.4.,.P Q 4.Q Q ^ @.x P o.o.P Q Q Q o.o.^ o.C >.P { >.P { { { [.",
"|.W.{ { $.>.{ { C P l x $.k { P { { { x >.{ P C { P { P l.{ P { P C l.g.o.P o.Q l C P ^ o.o.>.o.C o.x P l.o.>.m.^ 4.,.^ m.W.|.`.`.,.>.P ,.,.>.o.,.o.C Q ^ 7.7.F.y.^ 3.C ^ ^ 7.P ^ ^ ^ ^ ^ P l.3.^ P 3.^ 3.^ ^ 7.l.^ ^ 7.l.^ 7.^ l.7.y.7.F.y.7.7.F.7.y.^ ^ ^ [.=X=XP P ^ 7.^ l.7.P ^ P P ^ P 3.^ 7.^ y.^ P 3.F.^ C P 7.^ ^ y.l.^ P ^ ^ ^ 3.P P ^ ^ ^ C C H P ^ ^ ^ C 7.^ W 7.3.C ^ ^ 3.^ P P ^ =X2X|.W.7.l.P `.l.y.^ y.P 3.l.7.7.7.7.7.x P ,.P o.o.y.,.P Q C o.P P ,.F.P >.^ l.o.l.@.o.Q P P Q @.Q Q t.C P C P >.o.{ l.{ { P _.|.",
"[.[.{ t.>.t.{ P { k P x p P P C P x x { { P >.>.{ { >.P P { { P Q C >.o.o.P x P P P x P o.Q @.o.Q 4.Q o.P Q m.y.^ l.,.y.,.[.[.[.[.^ ,.Q y.,.o.y.^ 7.^ ^ 7.7.7.3.^ ^ 7.l.^ ^ 7.C P ^ 7.P ^ 3.P ^ x y.^ ^ y.7.P 7.7.l.^ 3.^ y.^ F.^ 7.3.^ l.l.7.^ l.7.7.y.l.F.`.=X=Xy.^ ^ 7.^ W ^ H 7.G P ^ H ^ F.P 7.^ ^ y.7.3.^ 3.3.3.^ ^ H ^ 3.C ^ 7.^ C l.P ^ P ^ 7.^ ^ l.^ ^ P 3.^ 3.^ ^ C ^ ^ 7.7.^ P x ^ 8X8XsX3.y.7.F.y.3.l.y.7.3.7.^ y.7.^ 7.3.^ ^ l.3.P P 4.>.>.P >.o.Q C >.>.^ ,.>.o.o.^ ,.,.P o.Q o.^ o.l.Q o.o.Q Q Q { >.>.>.e.{ _.oX",
"oXm.$.P $.P { { { l x P C { C C P P >.{ P P P { { { >.P P C { C o.C P P o.P P P o.^ P o.P o.Q Q 4.P >.P >.,.l.,.o.P Q P 9.m.=X[.|.^ ,.Q >.^ 7.^ ^ 7.^ 3.3.^ 7.^ P ^ 7.3.^ ^ ^ W ^ ^ 7.^ P ^ ^ ^ C ^ 7.^ y.C 7.C l.^ P l.C y.7.7.7.7.y.y.3.y.l.7.3.y.7.y.^ 7.[.=X=X7.^ W 3.^ 3.^ ^ ^ W ^ ^ ^ ^ ^ y.^ ^ H ^ 7.y.3.y.^ ^ ^ ^ ^ W ^ W ^ 7.7.^ 7.3.C ^ 7.^ ^ ^ 7.^ ^ 7.^ ^ ^ ^ ^ 3.^ 7.^ ^ ^ C ^ ^ 8X=XoXy.a 3.y.7.y.l.F.l.P 7.y.7.l.P l.m.^ ^ ^ ^ ^ ^ y.^ ,.^ Q x o.,.>.>.>.,.^ >.,.C l.P o.@.o.o.C g.>.>.o.Q P P >.>.P { { P >.P.oX",
"|.{ C C { >.P { P x C x P { C C C P P { P { C { P C C { C P C x P C Q P >.Q l P C o.o.P o.P Q >.^ x o.Q o.>.,.y.P ,.Q C o.o.|.|.[.^ P 3.^ ^ ^ 7.P ^ ^ ^ ^ y.7.7.^ 3.^ ^ P ^ ^ P P ^ P ^ C ^ ^ C C ^ ^ ^ ^ 7.^ ^ ^ y.7.3.3.l.l.y.^ ^ l.l.3.y.l.y.^ y.^ y.W x F.=X|.7.C ^ H W ^ ^ ^ ^ ^ H W ^ W ^ W ^ ^ ^ C H 7.^ ^ 3.^ ^ ^ 7.^ 3.C ^ ^ 7.^ y.C W W W W ^ ^ P P ^ P P P 7.P ^ ^ 7.^ ^ P P C ^ P =X=X=Xl.C l.^ ^ y.l.l.7.^ ^ 7.^ 7.P ^ ^ 7.^ C C ^ P P ^ 4.4.P P 4.o.Q P o.o.^ Q o.o.o.Q o.Q >.o.o.C @.o.@.P C o.>.o.o.o.>.x P P oX",
"oXP.{ $.{ >.t.{ P x P P { { { { { P >.C { { { P P P o.^ Q o.^ t.C P 9.Q o.P P l Q o.P C o.o.P C P C o.o.o.,.P ,.l.>.o.9.^ W.=X=X[.^ l.P ^ ^ P ^ ^ 7.^ 7.^ ^ 7.^ ^ P l.7.3.P y.P ^ ^ ^ C 7.^ 3.l.7.^ y.7.^ ^ 7.7.^ ^ 7.7.y.7.3.7.y.^ y.7.F.F.F.^ y.3.3.y.3.F.`.=X|.C ^ W ^ ^ ^ ^ W W 7.7.7.W ^ ^ y.7.3.3.y.y.7.^ ^ 7.y.^ y.7.7.W ^ H y.W y.7.y.3.W ^ K ^ H 7.^ x ^ ^ y.C 3.C ^ P P ^ ^ ^ ^ x C =X=X|.W ^ ^ 7.P 7.l.P l.l.^ ^ l.P C l.7.^ y.^ ^ y.^ ^ ^ o.o.9.l.^ x o.l.C Q P ^ >.l.l.o.,.o.>.Q P o.o.>.C P x o.C Q >.>.^ >.P P.oX",
"|.m.P m.P { { { { P C P x { C o.{ C P P >.{ C { P { C P C o.P o.P C o.>.o.P P a C P C o.P P x P C P >.>.P P ,.>.^ o.P m.Q F.|.`.`.^ 7.^ ^ ^ P ^ ^ 3.P ^ P 7.^ 3.7.^ ^ P 7.^ ^ P ^ 7.P 7.7.^ C ^ 7.P 3.3.P P ^ ^ ^ P 7.W 7.7.^ ^ ^ ^ y.F.7.y.3.^ y.y.3.^ 7.y.`.=X=Xy.x ^ W W C C C ^ W H ^ ^ W ^ ^ ^ C 3.^ 7.7.7.^ ^ 3.^ 7.7.3.^ F.^ ^ ^ 7.3.7.H W 3.K x W ^ ^ ^ 7.K W W ^ ^ ^ ^ ^ G P ^ P ^ P 8X[.=Xl.F.^ 7.7.7.l.y.^ ^ ^ y.^ ^ y.l.^ 3.7.7.^ ^ x ^ C P ^ ^ 9.^ Q ^ >.Q >.o.y.>.l.,.9.o.^ 4.P P o.t.>.C ,.o.C @.o.>.o.P m.P m.|.",
"[.m.{ P t.>.{ { >.C { { C { { { { P >.o.{ P P P o.C o.>.P o.@.o.o.Q o.C Q P C Q P Q P x o.^ P C P o.Q Q o.,.,.Q Q >.l.P 7.c.oX=X|.l.3.^ 3.^ P ^ 7.^ ^ ^ 7.^ l.^ y.^ ^ ^ 7.7.^ P ^ ^ ^ 3.^ P ^ P ^ 7.7.^ ^ 7.7.^ ^ 3.^ ^ 7.y.W 3.7.7.7.^ y.F.y.7.y.7.7.^ 3.7.[.=X=Xy.^ H ^ y.F.W H ^ ^ 3.^ W W ^ ^ G ^ ^ 3.7.3.3.y.W 7.7.7.3.y.3.y.^ F.7.3.^ ^ ^ 7.^ W ^ ^ ^ ^ ^ 7.^ ^ W 7.^ ^ y.7.K ^ ^ ^ ^ ^ =X2X=XF.F.F.l.F.7.^ ^ ^ 3.l.7.^ ^ F.P 7.3.^ 3.P C ^ ^ P P ^ ^ x C y.o.>.>.y.,.>.o.,.>.>.W 9.P o.>.l.o.@.P Q o.o.@.>.o.l.g.^ o.m.[.",
"[.g.P C >.m.{ >.P { o.u { { C l.C { e.x { { P P o.^ P @.Q g.P >.4.o.o.>.P C d x P C o.o.C P P P o.,.o.Q l.l.l.,.^ m.,.C ^ l.=X=X[.y.7.y.y.C ^ 7.^ ^ ^ ^ ^ l.3.C ^ ^ y.F.P 3.y.y.P ^ P ^ G ^ P C ^ P 7.y.C C ^ 3.W H ^ C ^ 7.7.3.W y.7.7.y.F.y.y.^ 7.y.y.W 3.7.=X=Xy.^ y.^ ^ W 3.^ W ^ H ^ ^ W ^ ^ C ^ 3.7.y.7.y.y.y.^ ^ 7.3.C 3.^ ^ 7.3.^ y.H H W x H C ^ ^ K 7.H ^ ^ 7.^ 7.7.7.7.^ 7.3.3.^ ^ =X=X2Xl.y.y.7.l.7.^ P 7.l.^ l.l.l.C ^ ^ 7.C ^ d l.3.x G W P C ^ ^ 7.l.,.l.P ,.c.l.,.Q l o.C o.Q P Q P l.P P @.C g.^ >.m.l.x ^ t.|.",
"P.m.$.{ >.>.g.C P C P { P C { P { { >.P { C Q >.o.o.g.o.>.Q @.>.C ^ P P P P ^ C P P >.P P o.C P o.Q Q Q o.Q y.>.y.7.3.^ ^ m.|.[.[.^ l.7.^ C 3.P ^ 7.l.7.3.^ 7.7.l.^ y.7.7.^ P ^ ^ 7.^ ^ 3.^ ^ ^ 7.^ 7.y.7.^ ^ ^ ^ 7.^ 3.7.y.7.3.7.^ y.7.^ 3.F.7.3.3.y.3.^ 7.|.=X=X^ ^ 7.3.^ ^ C H W 7.^ ^ ^ ^ H ^ 3.7.3.^ W 7.^ ^ 7.y.3.F.^ ^ ^ C ^ ^ ^ H W W W W W 7.^ W W ^ C 7.^ ^ 3.^ 7.3.7.7.7.3.7.W 7.y.2X2X|.F.G y.7.F.3.l.y.3.7.3.3.3.F.l.P y.^ ^ 7.y.^ 3.^ 7.G C C ^ P a 7.,.o.Q o.>.o.,.o.>.,.,.o.>.o.P >.o.^ o.W P @.o.>.l.>.o.o.m.P.",
"oXP.{ m.{ >.{ P { P P P P { C P x P P >.P P Q P o.@.^ P o.o.Q P o.P P o.C o.P C C o.P C P Q x o.C C o.o.Q C ^ ^ ^ 7.^ c.^ P.[.|.[.x 3.7.^ 7.P ^ ^ 7.^ 7.P 3.l.7.^ 7.^ ^ ^ 3.C 7.^ 7.^ K W H ^ ^ ^ 3.3.7.W 7.^ ^ ^ y.^ C 3.y.y.y.y.7.y.y.^ 7.y.7.^ y.3.^ 7.y.W.=X=Xy.^ ^ x 7.W 7.H 7.^ ^ ^ ^ ^ ^ ^ ^ C H H H 7.H 7.3.^ ^ ^ 7.^ 3.W y.3.C W ^ H W x W W ^ C C W G ^ 7.^ W ^ ^ W W ^ 7.^ ^ ^ W ^ =X=X2X3.W.3.y.P F.^ 7.^ P 7.7.^ 7.7.3.^ l.7.^ ^ P 7.l.P P C C P P F.^ ^ ^ C ,.o.,.C o.o.C o.o.P ^ o.^ P >.o.o.o.Q o.@.o.>.l.Q m.=X",
"eX>.{ >.>.>.P { k { P P { P P C P { P C P o.Q o.o.o.o.o.>.P ^ P o.P o.P o.x ^ P C P o.P Q Q o.P Q o.^ ^ ^ 3.7.7.^ 7.7.7.l.7.[.|.oX7.^ ^ 7.^ 7.^ l.^ ^ ^ ^ ^ y.^ ^ P 7.7.3.^ ^ ^ ^ W 7.^ 7.^ ^ ^ ^ ^ 3.^ ^ 3.y.W 7.H W ^ 7.^ 7.y.7.F.F.7.3.7.y.7.H 7.3.y.^ ^ `.=X=XH ^ 3.^ ^ 7.W 3.^ 7.^ ^ ^ ^ ^ W C ^ ^ W ^ 7.^ 7.W 7.^ 3.^ ^ W ^ 7.3.H ^ W ^ x ^ C ^ 3.3.3.C W 7.W ^ ^ ^ ^ F.W 3.W 3.y.7.C 3.=X2X=XF.x a.y.W.F.l.^ l.y.7.P l.7.y.^ 7.y.l.P 7.^ ^ ^ ^ 7.C x ^ 3.3.^ ^ ^ ^ ^ P Q o.Q o.o.,.Q ,.C l.P ,.o.>.C >.Q o.P @.o.t.o.>.oX",
"oX,.P { { P { P k C C P l P C C P P C C x o.P >.P g.o.>.P o.x Q o.o.x C P P P P C Q C C x o.Q ,.P ^ ^ 7.3.3.7.P ^ P ^ ^ x 7.|.oX[.y.^ 3.^ ^ ^ ^ ^ 3.^ l.P ^ 7.P ^ P P ^ P ^ W 3.^ W W 7.7.^ ^ W ^ y.^ W 7.^ W ^ 7.7.^ ^ 3.y.^ y.^ y.^ ^ y.y.y.y.^ 7.3.y.3.3.P.=X=XF.C ^ W ^ ^ ^ ^ ^ 7.^ ^ ^ 7.W H ^ C ^ ^ H W ^ ^ H W ^ ^ W ^ ^ x 7.^ ^ C 3.C ^ x ^ ^ 7.x ^ W H ^ y.^ F.7.^ ^ 3.7.7.^ 7.W W C =X|.=XF.^ 7.3.F.y.y.7.C F.y.l.x ^ 7.y.F.F.P P P 3.^ ^ P 7.P 7.^ ^ ^ P P ^ C 3.^ ^ W P P o.W P P o.o.l ^ >.P P P P o.@.P >.o.o.Q oX",
"oXg.{ >.{ C >.C P C x C P P P P P C C P Q o.^ >.Q Q ^ x Q P x o.P o.P P Q x C P Q C o.P o.G C m.P x P ^ 3.^ ^ ^ 7.C ^ 3.P y.oX=X|.7.l.^ 7.^ ^ 7.3.^ W P y.3.7.l.^ ^ 7.C P ^ ^ ^ ^ ^ W 3.^ x ^ y.^ W H ^ 3.H 7.^ ^ ^ 7.^ y.y.y.^ y.^ ^ 3.3.^ ^ y.y.F.y.7.^ 3.`.|.=XW 3.H ^ ^ 7.H ^ ^ ^ ^ W ^ 3.^ y.C W W C W 7.^ ^ ^ 7.7.7.^ ^ x ^ ^ 7.y.7.W ^ x W ^ ^ ^ C ^ 7.x 3.W 3.^ y.^ 3.K ^ H 7.7.W C ^ =X=X|.^ y.y.y.y.y.7.y.y.y.3.3.7.7.3.7.F.3.y.P 7.G 7.^ 7.^ x ^ P 7.l.P x P 7.^ ^ ^ ^ ^ 9.P o.P o.o.o.o.o.9.o.>.Q P ,.o.P o.4.Q g.oX",
"oX>.P { { { P x P { x g.l g.C C C ^ C P @.>.^ C Q ^ C >.o.>.P P ,.o.P o.C Q C C P >.x >.Q P 9.a G x C ^ P P y.^ P 7.P ^ C 7.|.=X|.y.P ^ ^ 7.^ ^ ^ P ^ ^ ^ l.^ ^ P P P y.G ^ G ^ ^ ^ W 7.d 7.^ ^ x 7.^ 3.y.^ C ^ 7.C 3.y.G 3.K y.^ W ^ 3.3.y.y.W 7.^ ^ y.^ y.P.=X|.F.W W ^ W ^ ^ W ^ ^ 7.7.K ^ 7.7.^ H ^ 3.W W ^ 3.7.^ W 7.W ^ 7.y.W.^ y.^ ^ ^ ^ H ^ ^ 7.y.W ^ ^ 3.7.H 3.^ 7.H y.H W 7.^ W x W =X|.=XF.y.y.y.3.3.3.W y.3.y.H ^ y.F.3.y.7.3.7.7.^ 3.y.7.^ ^ P C ^ ^ P P l.l.^ ^ ^ P W ^ o.P 4.P P Q ,.P y.,.C P ,.P P ^ o.^ o.@.2X",
"2Xm.>.{ >.P C x P P C >.{ P p x Q C >.Q P o.P 4.P Q o.a Q Q P P.P C o.P o.o.o.a P P P P ^ P ^ d ^ ^ ^ ^ ^ 3.^ P C ^ 3.^ 7.F.=X|.|.^ ^ ^ 7.3.l.3.P 7.^ ^ 7.^ ^ ^ ^ W ^ H ^ K x W ^ ^ ^ 3.3.7.^ ^ x ^ ^ 7.3.^ y.7.7.7.7.3.y.y.F.H ^ ^ 7.7.7.3.7.y.7.7.y.7.3.7.`.=X8Xy.^ ^ 3.3.^ 7.^ x 3.^ ^ 3.3.W 7.^ ^ W 7.7.^ ^ 7.7.H 3.H ^ ^ 3.F.H ^ ^ 7.d ^ ^ ^ a ^ ^ W C H ^ W ^ 7.^ ^ W ^ 7.^ x W W ^ C W =X8X=X!.^ y.7.^ 3.F.y.7.^ ^ ^ 3.y.y.y.y.^ 3.^ ^ ^ ^ x ^ ^ 7.7.3.P ^ ^ ^ 3.l.^ ^ ^ 3.G P ^ 3.^ o.P P ,.P >.o.C C o.,.C ^ o.,.@.c.=X",
"|.>.{ C { { P P P { C P P P x P o.P P P P P 4.C P C P o.o.P o.o.o.P o.>.P P G P o.x Q o.^ 7.P ^ ^ P ^ 7.7.7.^ ^ P ^ ^ G 7.7.=X|.[.^ ^ ^ ^ ^ y.7.^ ^ 7.^ W ^ W W C 7.^ W G 3.y.W ^ C H ^ x ^ W ^ 7.^ W ^ W 7.7.7.3.3.^ 7.y.y.^ y.^ y.3.y.7.^ 7.7.^ 7.^ 3.^ ^ P.8X|.7.^ 7.^ ^ 7.^ W y.7.^ y.7.^ C 3.^ W 7.^ K ^ 7.^ x x ^ ^ ^ W ^ ^ 7.^ 3.3.^ x 7.H C W ^ K 7.7.W C W 7.H ^ y.^ 7.C x W W C W ^ =X=X=XC F.^ C y.3.y.y.^ y.F.7.3.y.^ ^ 7.^ 7.y.^ P ^ 7.3.7.^ ^ ^ ^ C C ^ l.P 7.3.^ ^ P W ^ ^ P P >.P Q o.P P Q o.o.^ P ^ o.C o.>.oX",
"1Xm.>.{ >.{ P P P o.P Q P P Q P P C o.C P P P P C P P o.Q Q >.P ^ Q P o.Q G 9.^ Q Q ^ ^ ^ P ^ ^ 3.P 7.P 7.^ P 7.3.7.7.^ 7.F.2X=X=XC y.3.3.^ 3.7.7.^ ^ ^ 3.W W ^ ^ ^ ^ 7.7.W W H ^ W ^ W 7.y.W ^ W ^ ^ 3.3.^ F.^ W 7.3.y.y.y.y.y.y.7.y.7.F.y.7.^ 3.7.y.y.7.^ `.=X=XF.7.^ ^ ^ ^ W H 3.W ^ ^ ^ ^ 7.^ K y.C ^ x 3.x ^ ^ W ^ ^ C ^ ^ 3.^ 7.^ ^ ^ ^ W W ^ ^ C C ^ 7.W P.W 7.C ^ 3.^ ^ W ^ ^ ^ ^ C ^ 8X=X=XQ.7.y.7.F.^ y.3.^ y.F.7.7.7.7.F.F.3.y.l.l.7.^ ^ ^ 7.7.^ 7.^ C ^ 7.C ^ P 7.^ 7.^ 7.^ 3.^ ^ ^ Q Q y.P >.Q >.o.o.o.,.^ o.o.P.2X",
"1X_.{ { >.{ a { P P P o.P P P P P C Q o.>.Q C P C P P P P ,.P o.P P ,.P P >.G o.P 4.P P P 7.P ^ 3.C F.^ ^ 7.a 7.7.^ 7.^ x `.8X=X|.l.7.7.W 3.^ ^ ^ 7.C y.^ 7.C 7.^ ^ H W 7.^ W ^ H ^ W H W y.C y.W 7.W ^ ^ ^ ^ ^ 7.^ 7.^ ^ 7.^ y.7.y.y.y.F.y.^ y.y.3.7.7.^ y.[.8X=Xy.W ^ W 7.^ ^ H C W ^ ^ y.H 3.^ 3.7.^ 7.7.^ x ^ x C ^ ^ F.W ^ ^ C ^ W W 7.K W ^ W H ^ x W ^ ^ y.^ 3.^ 3.y.C H W ^ y.^ H W x yX=X=X7.y.W F.7.3.y.y.7.F.7.F.y.^ 7.F.y.^ y.y.F.^ F.7.7.P ^ 7.^ 3.P 7.^ 7.3.3.^ C ^ 7.P ^ 3.3.P ^ ^ ,.P ,.y.Q P o.P ,.P ,.Q o.).2X",
"1X>.P { >.{ { Q P o.C @.o.o.P P @.o.>.o.Q P o.l C o.P ,.m.Q >.P o.P Q C Q Q ^ ^ 3.G ^ 3.^ ^ P ^ P ^ ^ ^ ^ ^ y.3.P ^ 7.^ 7.7.8X|.=X7.7.7.^ 3.y.^ ^ ^ ^ ^ ^ C ^ 3.^ ^ 3.^ ^ ^ ^ C ^ ^ H 7.7.H y.y.^ K ^ ^ 7.^ y.C 7.F.7.7.y.y.7.3.7.3.y.F.F.F.F.y.y.^ y.y.7.7.!.8X8Xy.7.^ 7.^ F.7.^ 7.^ W ^ C ^ ^ W H ^ ^ y.^ ^ H W W ^ 7.^ ^ 3.W 7.^ 7.K ^ ^ 3.W ^ F.^ ^ 7.^ ^ ^ ^ 3.W 7.^ ^ 3.^ 3.W ^ 3.W H ^ =X=X=XF.W y.y.F.y.7.y.F.^ F.F.y.y.F.y.!.7.F.7.y.y.7.P 3.7.^ 3.^ 7.y.^ 7.P 3.7.^ C ^ ^ ^ ^ m.P P ^ 3.^ y.Q ,.>.C C C x Q o.Q C g.oX",
"|.{ P { P >.P P o.o.C Q P o.P x ^ Q C o.P o.Q P C W P P o.P P C P C P P P P ^ ^ P ^ ^ ^ y.^ 3.^ 4 3.P ^ ^ ^ l.^ P l.^ ^ ^ ^ =X[.[.^ 7.^ 3.3.^ ^ W ^ ^ 3.^ ^ ^ ^ W ^ ^ W W ^ ^ W ^ H W ^ C 7.^ 3.C ^ W 7.7.3.^ 7.3.7.^ ^ 3.3.^ 7.^ ^ y.F.^ F.3.y.7.y.y.7.^ 7.F.=X=X^ H 3.H 7.^ 3.H ^ W ^ 7.^ ^ ^ C W ^ W 3.W y.C ^ W W ^ ^ ^ ^ 7.x ^ ^ W W ^ H ^ W F.C ^ ^ ^ ^ y.9 7.^ 7.W ^ ^ ^ H ^ ^ H C ^ C =X=X=XW 3.7.y.7.y.7.^ 7.7.3.y.y.7.y.7.7.y.^ 7.F.7.^ ^ 7.l.3.y.3.^ 7.^ 7.3.^ y.P 7.^ 7.C 3.^ ^ P ^ x P 3.7.P ^ o.P x >.,.^ P P Q |.",
"[.{ x { >.o.>.^ P P >.Q o.P @.Q Q o.C >.l.P ^ C o.^ P ,.Q o.P C P P Q P P P l.7.y.^ l.7.^ ^ P ^ ^ P ^ ^ ^ 7.^ ^ 7.^ 7.^ ^ ^ |.!.F.7.7.^ 7.7.y.^ ^ ^ 7.7.7.K ^ ^ W 7.7.3.7.W ^ C W C 3.^ 7.^ 7.y.^ 3.y.F.y.^ 3.y.7.7.7.y.y.^ F.7.y.^ y.y.3.y.F.^ y.y.F.7.^ 7.y.=X|.^ 3.^ ^ ^ F.7.W 3.^ 7.^ W y.7.C C ^ ^ 7.^ ^ C 7.C 3.^ ^ 7.^ ^ W.W y.^ 7.3.^ ^ W ^ ^ ^ ^ 3.^ ^ 3.^ 7.^ ^ ^ ^ ^ 3.^ ^ 7.W ^ ^ =X=X|.3.^ y.7.`.y.y.^ y.y.y.y.y.^ y.y.F.7.y.W F.F.F.F.y.7.3.F.y.7.F.3.y.7.y.7.y.3.^ P ^ 7.^ 7.7.^ y.3.^ 3.l.o.C Q o.o.>.o.Q a ,.[.",
"[.m.C { >.>.Q o.C C P t.>.P o.@.P o.^ x P P P C C 4.o.P o.^ ^ o.P ^ G G P ^ P P ^ l.^ 3.P 3.P ^ P ^ 7.P P P P ^ ^ 7.7.^ P F.[.|.`.3.3.7.7.^ ^ ^ W 3.^ 3.^ ^ ^ ^ y.^ C H x H W ^ C W 7.^ 7.^ ^ 7.7.y.y.^ 3.^ y.W ^ 7.3.y.7.F.7.3.y.y.^ F.3.y.7.7.3.F.y.y.^ 3.y.=X=X7.7.7.^ W K 3.W ^ H y.^ ^ H ^ ^ ^ ^ ^ W C C W y.^ 7.3.3.^ 7.^ C ^ ^ 3.7.H C ^ W ^ W ^ ^ 7.^ 7.3.^ ^ 7.x ^ C W ^ 3.^ ^ W 7.W =X=X=Xy.F.y.y.7.y.y.y.3.y.3.F.^ y.y.y.7.P.F.y.y.y.y.y.7.y.y.3.^ C ^ 7.^ y.3.7.3.l.C 7.P 3.P C P ^ 7.7.^ ^ ^ 7.C P P ,.9.9.Q C m.[.",
"=XC { o.Q >.o.,.>.o.C o.o.Q o.Q g.C >.,.,.Q o.P o.o.C y.o.^ d Q ^ 7.^ ^ 3.^ 7.^ 3.7.P ^ 7.^ ^ 3.7.^ 7.7.7.P ^ y.^ 7.^ ^ ^ C =X|.|.7.y.^ 3.3.^ 7.3.3.^ ^ F.^ 3.^ 3.C W C 7.^ 7.W ^ 3.^ 7.7.^ 7.C W.7.F.^ ^ y.7.y.y.F.^ y.F.7.y.7.^ ^ 7.^ 7.y.y.W 7.F.y.7.y.x y.=X|.y.7.^ 7.^ 7.7.^ ^ ^ W 7.y.^ ^ ^ W W C W C ^ W 7.y.y.^ F.7.3.^ ^ ^ ^ 7.7.y.7.W ^ y.3.^ 3.F.y.7.7.7.7.^ ^ ^ ^ C ^ y.3.^ 3.C ^ =X=X=XF.F.F.y.F.7.F.F.y.7.F.F.y.7.y.F.y.y.^ 7.y.F.3.F.F.3.F.y.y.^ P l.l.^ y.F.F.l.^ y.^ l.^ y.l.^ ^ P ^ ^ 7.^ ^ P Q o.9.o.Q o.C |.",
"oX_.{ Q m.t.m.o.@.m.@.Q @.m.,.m.l.,.g.>.c.y.y.c.^ l.m.P y.m.,.P ^.y.F.7.3.y.y.F.F.F.^ ^ y.F.C l.^ ^ P y.l.F.y.^ F.l.F.^ G `.8X=X|.x ^ ^ F.W ^ y.F.F.3.^ 7.y.W.^ 7.^ H H 3.F.`.!.^ F.3.y.^ F.F.F.^ 3.7.F.y.y.P.F.y.y.3.y.3.y.F.F.7.F.7.y.^ F.7.y.F.W.3.7.^ d |.|.|.F.x ^ 3.y.C ^ y.F.^ y.^ H y.`.C ^ y.H C ^ W.!.C F.F.7.y.^ F.F.C F.^ y.y.y.7.y.y.y.^ W 3.`.7.F.C 7.^ H ^ y.7.y.F.y.F.7.3.^ x 8X=X8X^ 3.F.3.^ y.7.F.y.y.3.F.^ !.^ 7.y.F.7.F.!.`.y.F.F.P.3.y.!.W.a.3.F.F.W.P.W.F.l.7.l.^ 7.F.7.F.^ l.^ l.P 3.^ l.o.m.9.F.P o.P.=X",
"|.[.x C C x x C x a l d x 9 9 e C x x x P e G x 4 x x x a a x a G C ^ G ^ x P x x x C x x x C x x C C 4 x x x x x x C C F.[.=X|.|.7.x C ^ H 3.H C x C x W x x x x C C x W d W W ^ x C x ^ x x x x W ^ x W d C x x a W C W C C C C x C G ^ C C W C C x x d F.=X|.=X=XW W ^ x C C C e ^ d d C x x x a W C x H x d ^ x x C x C x C x e ^ C x x x a C d x d C C C d C x d x x x C x C x C C C d `.=X=X=X=XH C C C a W x d W W C W H 7.C C C 3.W C x 3.x C e C C H C W P C C P A P d C a x e x a a x G x a d C a C a C d x x G a |.|.",
"[.[.`.[.[.oX[.|.[.).|.`.[.=X[.|.[.|.[.|.).[.`.=X=X|.=X[.|.=X|.|.oXoXoXoX=XoX=X=X|.oX|.=X=XsX|.=X=X=X|.=X=X2X=X=X=X=X|.=X|.=X=X2X=X=X|.=X|.=X=X=X|.=X=X=X8X8X|.=X=X|.=X=X[.=X=X|.=X8X=X=X=X=X=X=X=X=X=X=X=X8X=X=X|.8X=X=X=X8X=X=X=X|.|.=X|.=X=X=X=X=X=X|.=X=X=X=X=X=X=X8XXX>X|.|.|.|.=X=X|.8X|.=X=X=X=X|.=X=XwX=X|.8X=XwX>X8X=X8X=X=X=X8X8X=X=X=X=X8X=X8X=X8X|.=X|.=X|.=X|.=X>X=X=X=X=X8X=X=X=X=X=X8X=X=X|.=X8X=X=X=X|.=X=X=X=X=X=X=X=X|.=X=X8X=X=X=X=X=X|.=X=X=X=X=X=X=X=X=X=X=X=X=X|.=X=X=X|.>X|.=X|.|.|.|.|.=X|.|.|.|.|.|.|.=X",
"|.[.[.|.oX[.|.[.`.[.[.`.`.[.|.|.=X|.`.[.|.|.|.|.|.|.|.|.oX|.|.|.=XoXoX=XoXoX8X=XoX=X=X=X2X=X2X=X=X=X=X=X=X=X=X|.=X=X=X|.=X=X=X2X2X=X=X=X2X=X=X=X=X=X=X=X=X=X|.|.=X|.=X|.=X|.=X|.=X=X|.=X8X=X|.=X=X=X=X=X=X=XwX8X=X=X=X=X=X=X8X=X8X=X=X=X=X=X=X=X=X=X=X=X8X=X=X=X8X=X=X=X=X=X=X=X=X=X=X=XwX=X=X=X8X=X8X=X=X=X=X=X8X=X=X=X=X=X=X=X8X=XyXwX8X8X=X|.=X=XwX=X8X=X8X=X=X|.=X=X8X=X=X|.wX=X=X=X8X8X=X8XyX8X=X=X8X=X8X=X8X|.=X=X=X=X=X=X8X=X=X=X=X=X8X=XwX=X=X|.=X=X=X|.=X=X=X2X=X=X=X=X=X=X=X|.=X=X=X=X2X|.=X=X=X|.|.|.=X|.|.|.|.=X|.|.",
").[.).[.P.oX_.[.P.[.).[.`.|.[.|.`.[.[.[.[.[.[.`.|.|.|.[.8X=X|.|.|.!.[.`.|.|.`.}.P.[.`.|.|.|.|.[.`.[.|.[.|.=X[.[.`.|.|.=X=X|.[.[.}.|.|.|.|.=X|.|.[.=X[.[.=X=X=X|.|.`.|.[.=X|.[.[.=X=X=X|.[.yXXX|.=X8X[.[.`.=X[.|.P.[.[.[.|.|.[.=X=X|.=X|.|.=X|.=X|.|.|.|.|.8X|.|.[.=X|.=X`.=X=X=X[.8X=X=X[.8X|.wX=X|.=X=X[.=X|.=X|.=X=X=X[.=X8X=X[.=X=X=X[.=X[.=X[.`.=X=X[.=X|.=X|.=X8X8X[.=X|.8X=X=X|.=X|.8X=X=X=X=X8X=X|.|.8X8X=X|.|.8X|.yX=X|.|.=X=X=X|.=X8X8X|.=X=X=X[.[.|.yX|.=X=X2X|.=X2X=X=X=X|.=X[.=X|.=X|.|.oX=X|.8X=X=XoX=XoX|.`._.|.|.",
"@.P P Q @.o.Q Q o.o.C C ,.o.Q P >.d o.o.>.o.y.x ,.m.^ ^ c.=X|.|.3.P P C 3.7.P G P ^ P ^ l.P ^ y.7.y.^ ^ 7.7.y.^ 7.^ 3.y.F.^ ^ ^ x 3.7.^ y.3.3.^ 7.^ W ^ y.^ ^ ^ W ^ ^ ^ y.W F.^ 7.y.7.H 7.P.wX=X|.y.7.H ^ 3.^ 7.G ^ C ^ y.7.3.7.7.F.F.7.^ y.7.y.y.F.7.F.F.y.^ ^ 7.7.y.^ ^ 7.F.y.H ^ y.y.^ 7.y.^ 3.7.y.3.W y.y.7.y.3.y.^ ^ y.|.|.=XW.7.7.^ 3.F.3.^ W 3.H ^ 3.y.y.^ F.W.F.F.7.!.3.7.y.y.y.y.!.y.y.!.7.`.F.y.^ F.y.7.^ F.7.3.F.F.y.F.y.F.y.y.7.F.P.y.y.Q.^ 7.^ F.[.=X|.|.y.7.^ F.F.F.l.l.^ 7.P F.7.F.l.l.l.^ P y.^ y.7.7.x P ^ o.C ",
"P >.>.@.Q o.C ^ ^ Q o.,.>.P ,.4.>.>.9.l.o.o.c.,.3.y.3.7.F.=X`.|.G P P P P ^ P ^ P P ^ ^ P 7.^ ^ 3.F.7.^ F.W 7.7.^ 7.y.^ ^ ^ 7.F.^ ^ F.y.7.^ 3.7.^ ^ 7.^ W W 3.7.^ 7.^ 3.^ 7.^ y.^ y.^ 3.7.^ |.=X=XW H ^ ^ 7.3.^ ^ ^ 7.7.W K W 3.y.y.y.y.y.3.F.^ y.a.y.F.7.y.7.3.F.3.^ F.3.^ W 7.7.3.7.^ ^ 3.7.^ y.7.^ 7.3.7.^ 3.^ 3.7.^ 7.^ W.=X|.F.H ^ 7.^ 7.F.H 3.W y.3.^ 3.^ y.y.y.F.y.y.F.^ ^ y.y.y.y.F.F.W.F.y.F.`.F.y.3.y.^ a.y.7.y.y.^ F.F.y.y.`.F.F.y.y.F.y.a.y.F.3.7.F.[.=XF.3.y.3.y.F.7.F.7.3.7.3.C ^ 3.3.3.l.^ 3.^ 7.P 7.^ ^ P ^ C P ",
"Q P o.C o.P P C P o.>.P ^ ^ Q o.y.^ >.Q ^ o.7.^ y.7.l.3.F.[.|.|.C ^ o.P ^ P W x G G ^ ^ 7.W y.W 7.W y.y.7.^ 3.H W y.^ 7.7.^ 7.^ ^ ^ ^ 3.^ C y.^ 7.3.7.7.K 7.y.^ 7.^ ^ W 7.W 7.^ ^ ^ 7.H ^ 7.=X[.|.^ 7.^ 3.^ C 7.W ^ 3.^ 3.^ ^ W F.^ F.7.F.W F.3.y.7.a.7.y.^ 7.7.G C 7.^ ^ y.7.^ ^ x 7.^ 7.7.y.7.^ C 7.H ^ ^ W 7.^ ^ y.W C 3.Q.=X|.F.y.^ ^ 7.^ ^ ^ ^ 7.7.^ 7.3.7.F.3.y.7.y.7.y.F.7.7.^ y.F.F.F.y.7.W 3.y.F.y.F.3.y.^ ^ 7.^ y.y.y.7.y.F.F.F.y.3.y.y.^ 7.a.^ y.3.^ =X|.`.F.y.^ y.3.y.y.y.^ ^ ^ 7.7.^ ^ P ^ ^ ^ P ^ ^ ^ ^ ^ ^ P ^ W ",
"P e C l C C x P P C o.Q P o.Q o.>.o.o.o.P 7.7.7.P l.^ y.^ P.|.|.P ^ P C ^ ^ ^ P C ^ C P ^ ^ K W W y.7.^ ^ W ^ ^ W 7.^ ^ ^ H W ^ W ^ ^ 7.^ ^ ^ 3.C ^ ^ ^ ^ ^ 7.^ ^ y.^ 7.^ 7.7.^ W y.C W ^ 7.>X|.[.3.^ 7.^ H 3.C ^ ^ ^ W W ^ ^ ^ ^ F.^ ^ 7.y.W ^ W y.^ ^ ^ 7.7.^ 7.y.^ C ^ y.7.W ^ ^ ^ ^ ^ y.G ^ ^ W y.7.W ^ ^ y.^ 7.^ ^ H ^ 7.=X=XF.^ 7.^ ^ ^ ^ ^ F.W C ^ ^ ^ y.W 7.y.^ 7.y.7.^ W a.y.y.7.W.F.F.^ 7.F.^ y.y.7.^ ^ ^ C y.^ 3.y.y.W ^ ^ !.y.7.F.y.^ 7.^ 3.3.7.3.C |.=XF.y.7.y.7.7.7.F.^ ^ W ^ ^ y.x 3.^ ^ ^ ^ C ^ P P ^ ^ P ^ a P ",
"o.x o.Q Q P g.>.Q Q ^ P C >.,.Q ,.P o.3.7.^ 3.7.3.^ 3.y.F.|.oX[.G ^ 3.^ ^ 3.7.7.^ C ^ H ^ ^ ^ y.7.^ ^ ^ ^ ^ y.W W ^ 7.3.^ ^ ^ C ^ ^ y.y.W C 7.7.^ W ^ ^ 3.^ 7.7.^ 3.7.7.^ ^ ^ 3.^ 7.3.^ ^ F.>X|.[.W ^ ^ y.^ y.H ^ W ^ ^ ^ ^ ^ 7.y.7.y.^ 7.^ ^ ^ ^ ^ ^ 3.^ 7.^ 3.^ ^ ^ 7.^ ^ H W ^ ^ 7.^ 3.^ ^ ^ F.^ 3.W y.^ ^ ^ y.W y.3.^ ^ P.=X=XF.y.3.^ 7.7.7.^ 3.y.^ ^ ^ ^ 3.7.7.7.y.^ y.7.y.3.^ 7.^ y.y.F.y.7.y.y.F.7.^ ^ y.y.^ ^ ^ ^ ^ y.7.F.3.7.y.7.3.3.7.y.y.y.3.y.3.y.y.=X|.`.F.3.3.y.F.y.F.^ ^ ^ 3.^ ^ l.7.7.P l.3.^ ^ ^ ^ ^ ^ 7.C ^ ^ ",
"Q o.x o.C x o.Q o.>.P Q o.Q Q o.>.P ^ ^ 3.^ c.7.^ 3.^ F.3.=X|.|.^ P ^ y.^ W P ^ ^ 7.W ^ W ^ 7.x ^ ^ W W W ^ 7.^ ^ ^ ^ 7.W 7.W ^ G 7.3.^ ^ ^ ^ F.^ ^ ^ 7.3.3.^ ^ C 7.^ 7.^ ^ 3.x 7.7.W ^ 7.W.=X=X|.^ 7.^ y.y.C ^ H ^ ^ ^ W y.W 3.y.H y.3.3.7.^ W ^ ^ ^ ^ 7.3.H C ^ ^ H 7.7.F.3.W ^ 7.3.7.y.y.W 3.^ W 7.H ^ 7.W x 7.F.H 3.^ 3.!.=X=XP.y.^ 3.y.y.^ ^ 7.^ 7.C ^ 7.y.K 7.7.y.y.^ H F.C 7.7.^ 3.y.3.F.3.3.H W.y.F.y.^ C 3.7.^ ^ 3.7.7.W y.^ y.^ 7.^ ^ 3.7.y.^ H ^ 7.y.|.=XW.W.a.a.F.F.F.F.^ 7.W ^ ^ ^ 7.7.^ ^ 3.P ^ P ^ 3.7.G 7.P ^ ^ ",
"Q P o.C ^ Q P o.P Q o.o.l.,.Q P y.^ ^ 7.^ y.^ ^ y.^ 7.7.l.[.[.=XP G ^ W ^ ^ P P ^ H C ^ C ^ ^ ^ W W y.C ^ W ^ ^ 7.^ F.7.^ ^ 7.^ 7.^ y.C 7.W 7.^ W W W ^ ^ ^ ^ ^ H W 7.^ ^ 3.y.^ 3.^ ^ ^ 7.^ =X[.=XC ^ 7.W ^ 7.C ^ ^ ^ ^ 7.3.^ 3.7.H ^ y.H W ^ ^ 7.7.7.^ y.W 7.^ ^ H ^ ^ 3.7.3.^ ^ ^ ^ y.^ ^ y.^ 7.3.W 7.^ ^ ^ ^ H ^ ^ ^ C ^ ^ =X|.W.^ C F.^ y.7.7.y.^ ^ 3.7.3.^ F.^ ^ ^ y.y.y.7.^ 3.3.y.7.7.^ y.F.^ y.y.^ 3.7.^ 7.3.3.^ ^ W 7.^ ^ ^ ^ 3.7.3.F.^ y.3.^ ^ ^ ^ 7.3.=X|.`.y.^ a.y.3.y.F.y.^ y.W 7.W F.^ ^ 7.7.^ ^ ^ ^ ^ ^ ^ P 7.^ P ",
"l P l C P o.l P P Q P Q ,.,.o.Q ^ 7.^ ^ ^ 7.^ 7.C y.^ l.7.`.|.|.P P P ^ C ^ C P ^ W W W x 3.7.^ C K H ^ H ^ x ^ W 7.^ ^ ^ H 7.^ W W C 7.C W W W x C ^ W W 7.W 7.H W 7.^ ^ 7.W 7.^ ^ ^ C W ^ [.|.`.^ C 7.^ ^ ^ W H 7.C ^ ^ 7.^ 7.7.^ 3.^ ^ y.W W ^ ^ 7.y.^ 3.W ^ ^ ^ ^ 7.^ ^ 3.W W x ^ ^ ^ ^ ^ W ^ y.W H C 7.3.3.^ F.^ H C x y.=X=XW.7.^ ^ 7.y.^ ^ ^ ^ ^ ^ 7.7.3.7.7.^ ^ W ^ 7.^ ^ ^ H y.7.3.^ C W W 3.3.^ 7.H ^ ^ ^ ^ ^ W 7.^ y.^ ^ ^ ^ C 7.y.7.7.y.3.7.^ x y.H =X|.W.y.^ ^ W 3.^ C 7.^ W ^ 7.W y.y.^ F.C 3.^ ^ P 7.^ ^ ^ P C ^ ",
"@.Q P o.C ^ Q C P ,.9.o.>.P 7.^ 3.7.c.l.^ 7.7.^ ^ ^ 7.7.P.`.=X|.W G P x ^ P y.C ^ C y.^ C x 7.^ ^ x ^ x H ^ 3.H ^ ^ y.y.^ ^ y.7.7.^ y.^ ^ 7.^ ^ ^ 7.^ ^ 7.^ W ^ C y.7.7.^ 3.H ^ y.7.^ ^ y.y.|.|.|.^ 3.C ^ H ^ 7.^ ^ W C y.K y.7.y.^ y.7.7.7.7.W 7.7.y.7.3.7.3.3.W C y.W y.W W W x H W y.W 3.^ ^ 7.^ ^ y.^ ^ x ^ ^ ^ ^ ^ 3.7.F.wX|.F.y.7.y.^ 7.^ ^ ^ 3.^ ^ 3.3.F.7.W y.y.7.F.^ C 7.7.y.y.F.7.3.7.W 3.^ ^ y.7.W C 7.^ y.C ^ ^ ^ W y.^ ^ ^ C ^ 7.y.^ x y.y.W y.F.F.=X|.`.F.7.^ 7.7.^ H y.^ 7.x y.7.7.^ 3.^ y.7.^ l.^ ^ F.^ ^ x ^ ^ ",
"P o.^ Q C >.C ^ o.o.o.>.o.^ ^ ^ ^ ^ 7.y.7.^ 7.P ^ ^ ^ y.!.|.|.|.G P ^ P ^ ^ ^ C ^ ^ W ^ ^ ^ 3.W W ^ W ^ ^ ^ H 7.H y.y.^ F.F.^ 7.y.7.^ ^ H 7.^ 7.^ ^ W ^ 7.7.7.^ W H ^ y.^ x C H W 7.W ^ W F.=X|.[.H ^ W H ^ ^ ^ ^ ^ x ^ ^ 3.^ 3.^ ^ W ^ 3.^ ^ ^ ^ y.H 3.3.3.W y.W ^ H y.7.3.W ^ W ^ C ^ W ^ ^ 3.^ ^ W W W ^ C W ^ ^ ^ W 7.7.F.=X=XQ.^ 7.H 7.^ 3.^ y.3.C ^ ^ ^ 3.y.3.^ ^ ^ ^ 3.7.^ ^ ^ C ^ ^ W ^ ^ F.y.y.7.F.^ W C 7.^ H ^ W ^ 7.W ^ C H ^ W y.y.^ y.3.y.C 3.W F.[.=XW.`.^ ^ ^ ^ 7.y.^ C H ^ ^ 7.7.y.7.F.^ 7.P P ^ ^ ^ ^ x P x C ",
"^ o.C o.P Q P o.,.>.o.,.3.^ C C 3.^ 7.^ 3.^ 3.3.^ ^ 9.P F.|.|.[.^ G ^ ^ 3.^ 3.^ ^ ^ ^ ^ d 7.^ ^ 7.x 7.H 7.^ 7.^ ^ ^ 7.^ F.W W 7.y.^ 7.F.7.^ y.^ W ^ 7.^ ^ W ^ ^ 3.7.y.7.^ ^ y.^ ^ ^ 3.^ 7.3.=X|.=X^ ^ ^ 7.^ ^ ^ ^ ^ W 3.7.^ ^ y.7.7.y.7.y.^ 3.^ ^ y.7.y.^ 3.7.^ K 3.7.3.^ ^ y.W H ^ G ^ ^ 7.^ ^ 3.d ^ W ^ ^ 3.7.^ W 7.^ H 7.^ =X|.Q.a.3.7.y.y.7.3.y.3.^ ^ ^ 3.7.F.7.y.7.y.y.3.3.3.^ 3.7.y.3.y.7.y.y.7.7.^ C 3.W H ^ C d K ^ 7.H y.^ 3.W 7.^ C x y.y.7.7.^ ^ H ^ 8X=X[.`.y.3.7.^ 3.^ ^ C y.H ^ ^ 7.^ y.7.3.7.7.P 7.P ^ ^ 7.7.7.^ ",
"P Q x C >.o.^ o.^ 4.^ 3.C y.^ ^ ^ 7.P 3.P ^ P ^ ^ P P ^ y.`.|.=XG ^ ^ 7.3.y.^ C ^ ^ W 3.W ^ ^ H 3.H H ^ K ^ ^ ^ W C ^ ^ F.^ F.7.^ W ^ y.7.^ y.C G G W 7.3.H C 7.^ W ^ W y.3.7.^ 7.y.^ W ^ y.[.|.[.H H y.^ C 3.^ W y.H 3.^ ^ W y.^ ^ y.7.7.7.y.7.^ F.^ 3.H 7.7.^ x y.W 3.^ 7.^ ^ [ d W x ^ 7.^ ^ 7.H ^ C 7.y.7.7.7.y.W 7.C ^ ^ =X[.F.^ 7.^ ^ 7.^ C ^ 7.^ 7.7.y.F.3.W y.y.^ ^ ^ 7.H ^ ^ 3.7.W ^ y.7.^ 7.y.7.y.H C C W W 3.K W H y.^ W ^ F.^ 3.^ 3.3.7.^ y.W 7.y.3.|.8XW.F.7.y.7.y.3.^ 3.^ ^ y.^ C ^ 7.^ ^ ^ P ^ F.C ^ ^ C G x ^ P ",
",.Q y.,.o.P 9.P o.o.^ ^ W ^ l.P ^ 3.^ 3.^ 3.P ^ ^ 7.3.7.^.[.>X|.P K 3.^ ^ ^ H W ^ ^ G ^ x C y.W 3.x ^ x W C C C ^ ^ ^ ^ y.^ ^ ^ F.3.3.^ 3.C W ^ ^ ^ ^ ^ ^ ^ y.^ ^ W 3.^ W W 3.^ 7.^ ^ y.^ y.=X[.[.^ H ^ 7.G 7.H ^ ^ y.7.^ 7.3.^ y.3.7.^ 7.^ ^ ^ ^ 7.^ ^ 7.^ W y.y.7.^ ^ ^ ^ ^ ^ G ^ 7.W 3.^ ^ ^ H ^ ^ C ^ W W 3.^ ^ 7.K ^ K P.=X|.7.W F.7.3.y.W ^ ^ 3.7.3.7.3.^ y.3.F.C 3.y.^ ^ 7.^ y.7.y.^ 3.^ y.W ^ ^ 3.H y.^ ^ K W x ^ H y.y.^ W ^ 3.^ 3.7.3.H 7.7.3.7.7.7.F.=XXX`.7.7.3.3.7.7.W 3.7.^ W ^ ^ y.7.H ^ H 3.3.P 7.^ 7.7.P ^ ^ y.",
"o.P >.o.P o.o.o.^ ^ ^ 3.^ ^ ^ ^ ^ 3.7.7.P ^ ^ C ^ 7.C y.9.>X|.>X7.C 7.^ W 3.C H ^ C W W ^ ^ y.^ W ^ W ^ x W C ^ ^ ^ 7.3.7.^ W W W 3.7.7.^ W x W C ^ e ^ ^ ^ ^ ^ ^ ^ ^ C ^ ^ y.^ W ^ ^ K ^ F.=X|.`.^ 3.^ ^ 7.7.^ 7.^ ^ ^ ^ ^ ^ ^ ^ 3.W H 3.^ ^ ^ H 7.^ 3.^ 7.^ ^ ^ ^ ^ y.W ^ G G W [ x 7.[ ^ 7.^ W H G W [ ^ W [ ^ ^ ^ ^ ^ [ 7.=X>XW.^ y.^ 7.^ ^ ^ 7.7.3.7.y.y.7.7.7.^ ^ K 3.7.^ ^ C ^ F.H y.^ ^ 3.^ ^ ^ ^ W C 7.C C ^ ^ H 7.^ H 3.^ ^ ^ C 7.y.7.C 7.7.y.3.7.7.^ =X=XP.W.y.^ 3.^ 3.y.7.^ W 7.^ ^ 3.x ^ 3.^ 3.^ ^ ^ 7.^ ^ ^ G ^ P ",
",.x >.P P o.>.^ P ^ l.^ 3.y.^ ^ F.^ 3.P ^ ^ 3.7.P 7.l.^ ^ [.|.|.x ^ 7.^ ^ y.W C 7.7.^ W C ^ 7.^ x C ^ 3.^ 7.F.^ H y.F.y.3.^ ^ ^ 3.^ ^ 3.^ 3.^ ^ C H ^ ^ ^ ^ ^ H ^ 7.K 3.^ ^ 7.^ ^ K ^ ^ 7.7.=X|.|.^ 3.^ 7.3.7.^ ^ ^ 7.3.3.W ^ 7.^ x ^ W ^ ^ y.3.^ W 7.3.F.W ^ ^ W ^ 3.^ x G W ^ G 7.[ y.^ 3.^ W ^ ^ y.^ [ a.7.[ [ G F.7.W a.y.>X|.F.[ ^ y.7.y.y.7.y.^ 7.^ y.3.3.7.^ W W ^ ^ 3.3.^ ^ 3.3.y.H 7.H 7.d W ^ ^ W C C ^ ^ ^ ^ 7.4 ^ ^ W y.^ W 3.^ ^ ^ y.7.7.^ ^ 7.^ y.=X|.`.^ y.3.y.^ 3.^ ^ 7.3.^ ^ ^ ^ ^ 3.^ ^ ^ 7.7.3.G 3.7.^ 7.^ ^ ",
"Q ,.o.o.Q o.l.^ P 7.^ ^ ^ l.^ P 7.^ 7.^ ^ P ^ ^ P y.3.3.l.[.|.=XH W 3.7.K ^ C ^ W ^ x ^ C 3.3.y.d C ^ y.^ 7.x ^ ^ ^ H ^ 3.W ^ ^ ^ F.H ^ W ^ H ^ ^ ^ ^ 3.W ^ C 7.W 7.H W y.^ W 7.^ ^ 3.^ W y.=X=X[.^ 7.^ ^ ^ ^ ^ ^ 3.^ 7.H ^ W H W C W ^ H 3.^ ^ ^ 3.H ^ ^ ^ ^ d ^ 3.7.^ ^ ^ K [ W [ G ^ x 7.x G 7.[ ^ 7.y.[ W ^ [ W [ 3.^ H F.8X>XF.7.7.^ 7.7.3.^ ^ 7.y.7.y.^ 7.^ ^ H W ^ 7.^ 7.^ y.^ ^ ^ y.^ 3.W ^ x H W ^ H ^ C ^ ^ W e ^ W C y.7.^ 3.^ ^ W 3.7.7.7.^ 7.^ 7.^ =X=XE.F.^ H 3.7.W 7.C y.C ^ ^ y.^ C H ^ H 3.7.C ^ ^ ^ l.P ^ ^ ^ ",
",.P C ,.>.Q ^ C P ^ ^ ^ 3.^ ^ 7.^ ^ l.^ 3.^ ^ P 3.3.3.3.`.|.|.|.H ^ 7.C ^ W ^ C W x 3.^ ^ 7.^ W 3.^ x H 3.H ^ H 7.W 7.7.3.3.W 7.y.7.7.C 7.W ^ ^ H ^ 7.^ H W 7.7.3.d ^ ^ ^ ^ ^ ^ 3.^ ^ W K y.8X=X|.W y.^ 7.^ ^ 7.7.^ ^ ^ ^ 3.^ ^ 7.^ ^ H 3.^ 7.^ ^ ^ ^ y.y.W W ^ ^ W ^ H ^ W G d [ W W 7.[ [ W [ F.H W [ 7.7.7.^ [ [ [ 7.^ ^ F.>X>XF.y.y.7.y.3.[ 7.7.7.[ K 3.F.^ ^ ^ H ^ ^ ^ 7.y.7.^ ^ ^ ^ 3.^ x W ^ e 7.^ ^ 7.C d W ^ e ^ x 7.^ F.^ ^ ^ C ^ 7.^ 3.W y.^ y.^ 3.y.|.|.`.^ ^ ^ y.^ 3.^ 7.^ y.^ y.^ ^ 3.^ ^ ^ ^ 7.y.C W ^ 7.P 3.^ 3.",
"o.o.o.>.Q 3.7.^ P ^ ^ l.^ 3.^ ^ W ^ ^ ^ ^ 7.P P ^ 7.^ ^ 7.|.|.|.^ W ^ W H ^ ^ ^ ^ 7.^ ^ W F.^ H ^ H d e x W x W ^ 7.y.W ^ F.x F.^ 7.H ^ ^ ^ C W ^ ^ C ^ C C ^ ^ x ^ ^ ^ 7.^ W ^ ^ 7.x ^ W K |.|.[.7.^ H ^ 3.7.^ ^ y.^ H ^ y.^ ^ ^ C W 3.^ ^ 3.y.^ 3.H ^ 7.^ 7.y.a.y.G [ ^ K [ [ ^ [ W 7.3.[ W ^ [ ^ 3.7.[ 7.[ W ^ a.^ ^ H W y.=X>X}.y.7.[ 7.a.y.^ [ 7.7.7.y.7.^ ^ ^ C x 7.7.^ y.C y.7.7.H 7.^ ^ ^ ^ C C ^ y.W H H 7.W ^ ^ ^ C 3.W.^ ^ C ^ 7.x 7.C 7.^ ^ ^ 3.C ^ [.>XE.F.7.^ ^ y.7.7.7.7.W ^ W 3.^ x H W y.7.y.3.W 7.^ ^ P P ^ ^ ",
"l.o.o.Q >.7.P ^ ^ W ^ ^ P ^ ^ ^ 3.P 7.7.^ P ^ C ^ ^ P y.y.[.|.[.^ x ^ W ^ C y.H y.3.7.^ 7.C ^ ^ ^ ^ C 7.7.C H C ^ d H ^ H ^ 7.4 3.^ ^ ^ y.^ ^ ^ H x ^ 3.7.^ ^ 7.x y.3.^ ^ ^ 7.^ 7.^ ^ W ^ 7.8X=X|.^ ^ 7.7.^ y.^ 7.^ ^ y.y.W ^ C ^ H 7.7.W ^ W H C H ^ ^ G [ [ 7.[ [ [ W [ W W [ ^ d [ 7.W [ 7.W ^ W 7.[ 7.[ [ ^ ^ 7.7.[ 7.^ y.=X8XF.y.[ y.y.7.[ F.W 3.7.y.y.^ ^ 7.^ y.W ^ 7.^ ^ y.H ^ 3.H x ^ 3.3.7.^ ^ ^ 7.C ^ W a x ^ ^ 3.^ y.7.^ ^ 7.^ 3.y.^ ^ 7.^ 7.^ ^ ^ y.=X|.Q.^ y.^ 3.^ ^ W 7.7.7.^ 3.C W ^ W y.y.^ ^ C ^ ^ ^ P ^ P P ^ ",
"o.^ o.o.Q ^ P x P 3.a y.l.C 7.^ 7.^ 7.^ P 7.K P ^ 7.G ^ ^ F.|.|.W ^ H ^ 7.^ 7.^ 3.K ^ 3.^ ^ C H W ^ x W C 3.W ^ x H ^ ^ ^ ^ H ^ ^ ^ ^ K W ^ C H ^ W H ^ W ^ ^ H ^ ^ ^ ^ 3.^ ^ ^ ^ 7.^ W W ^ =X=X[.^ 7.7.^ ^ 3.3.H y.3.y.K 3.3.W a ^ ^ ^ C 7.^ ^ W G x ^ K [ ^ 7.W 3.[ G K [ [ ^ ^ ^ K [ W 7.^ ^ H 7.[ 7.^ ^ ^ ^ ^ [ ^ W G [ [ >X|.!.[ 7.7.^ 7.7.[ ^ H 7.7.7.7.^ [ K [ 3.^ ^ 3.^ x d ^ W W W ^ ^ y.3.^ y.W H x ^ ^ 7.W F.^ ^ 7.7.H 7.y.7.^ ^ W ^ ^ 7.7.y.W C ^ y.|.|.F.^ 3.^ 7.^ W C W 3.^ ^ ^ 7.^ x ^ ^ C 3.W ^ W ^ ^ ^ P ^ x P ",
"^ o.4.^ P P P P P ^ ^ ^ ^ W 7.^ 3.^ ^ 3.7.P x ^ ^ 7.7.7.a.|.>X|.^ C 3.^ 7.3.W W 3.^ ^ ^ 7.^ ^ ^ ^ H ^ W ^ C y.^ ^ ^ ^ ^ W W y.3.W W 3.W ^ ^ ^ ^ ^ 7.^ ^ ^ 3.7.W y.W y.^ 7.^ x ^ 3.^ 7.^ W ^ 8X=X|.W 7.3.7.^ 7.^ y.y.^ ^ 3.^ ^ ^ 7.K 3.7.W C W x K W ^ [ [ W W 7.7.K [ 7.W K 7.W 7.H [ [ W [ ^ W F.^ y.7.a.[ 7.^ [ 7.y.7.W G y.>X>X!.F.7.y.7.7.[ 7.^ y.[ 7.[ 3.K F.3.a.x 7.G [ C ^ ^ ^ H W ^ ^ y.y.7.y.7.3.H y.H 7.7.F.^ ^ 3.3.3.F.^ ^ 7.7.^ 7.W 7.3.y.^ 3.^ 3.7.8X=X!.y.7.y.y.^ ^ ^ 7.^ H ^ ^ W W ^ 7.H 7.^ ^ ^ 7.x ^ W W ^ ^ ^ ",
"^ Q P 7.P C ^ 3.^ 3.C 3.^ ^ ^ l.^ C ^ 3.^ P W ^ ^ ^ 7.o.^ |.|.|.7.W ^ C H ^ C ^ ^ ^ W ^ ^ 3.W H ^ H C C ^ W ^ ^ W 7.^ x 7.7.y.7.e 7.^ C ^ C ^ ^ ^ 7.W ^ ^ ^ ^ H 7.y.3.^ ^ W ^ 7.^ y.H ^ C F.=X=X|.^ ^ ^ y.y.C ^ ^ 7.W 7.y.7.C 7.7.^ W x 7.H C W ^ K ^ W [ F.W H ^ ^ W ^ [ 7.G ^ ^ 7.[ W [ 3.7.3.7.K F.W a.[ [ ^ 3.7.3.^ W G F.=X=X!.y.y.[ 7.F.[ ^ 7.[ 7.G y.7.7.^ [ [ ^ y.7.^ W 7.^ W y.F.3.^ ^ ^ 7.y.C ^ 7.^ ^ y.3.3.^ W y.7.3.7.3.y.3.7.7.^ W W ^ 7.3.^ 7.^ 3.=X=XP.F.y.W ^ ^ ^ 3.^ ^ W ^ ^ ^ H W ^ ^ 3.7.^ ^ ^ 7.C W ^ H ^ 7.",
"^ ^ W P ^ P ^ ^ ^ ^ 7.3.l.^ 3.^ ^ 7.3.3.y.7.3.^ ^ 7.9.9.9.|.|.|.^ C ^ ^ 7.^ y.^ ^ W 3.W W ^ 7.^ ^ ^ ^ 7.7.^ ^ ^ y.W 7.^ ^ ^ ^ 7.7.7.^ ^ ^ H 7.3.^ ^ W ^ ^ ^ x 7.7.W ^ C ^ ^ ^ ^ 7.y.^ C F.^ =X|.|.^ ^ 7.3.y.3.7.[ ^ 3.[ W ^ 3.^ C ^ 3.K ^ W y.W 3.x ^ ^ 3.[ ^ ^ ^ ^ ^ ^ ^ [ 7.W y.7.G ^ 7.^ 7.^ [ [ [ W W [ 7.[ 7.[ a.^ H K y.=X>XF.7.7.7.y.F.y.7.7.y.7.^ [ [ [ W 7.7.[ ^ ^ 7.[ G ^ 7.3.7.7.3.^ y.7.^ 7.F.^ 7.y.^ 7.7.^ 7.3.3.C 7.3.F.C 3.W ^ W H 7.^ 7.^ 3.W y.8X=XF.H 7.y.^ ^ ^ 7.3.^ ^ 3.W ^ ^ y.^ C y.7.3.H ^ W W ^ ^ 3.7.3.",
"o.^ C P ^ ^ ^ P ^ P ^ 3.^ 3.^ P P 7.^ 7.W ^ 7.7.^ 7.^ y.W |.|.|.^ ^ ^ C ^ 7.^ ^ 7.^ W W K 7.H ^ K ^ W ^ W ^ ^ ^ W 7.H ^ ^ y.^ ^ 3.^ ^ ^ C ^ ^ y.H 7.H ^ ^ H C W ^ W 7.7.^ ^ 3.3.7.7.^ ^ C 9.>X|.[.^ o.^ ^ 7.^ [ G 3.^ ^ H ^ ^ ^ C C 7.[ [ G 7.^ K 7.[ ^ G 3.W W G ^ ^ y.W K ^ ^ 7.7.W [ G 7.G W [ [ ^ `.W [ [ [ [ y.[ [ K K y.|.XXF.7.[ 7.7.y.7.3.[ 7.7.7.7.[ 7.x [ ^ y.[ [ [ 7.H K K 7.K ^ 7.7.^ W ^ 7.^ ^ ^ 7.3.3.3.7.W 3.^ ^ ^ ^ ^ 7.^ 3.^ 7.H C ^ 7.W 3.^ 7.|.=X!.7.W y.3.^ ^ W ^ ^ W ^ W K C 3.W W 7.^ ^ y.W x H ^ C ^ ^ ^ ",
"^ P y.^ G ^ ^ P P 7.7.l.l.P l.^ 7.F.7.^ ^ ^ F.3.^ y.^ ^ F.[.>X}.^ W H ^ ^ ^ ^ C ^ ^ W x 7.7.^ H C ^ ^ 3.7.C C 7.y.3.^ ^ ^ ^ ^ ^ d 7.y.7.3.x y.C H 3.7.3.3.^ 7.y.^ y.F.^ ^ y.H ^ 3.7.7.3.y.a.>X|.|.3.7.7.7.7.7.^ ^ [ ^ y.^ H 7.W ^ y.F.[ [ ^ ^ W 7.7.[ W [ K [ y.7.^ 7.y.3.[ 7.^ ^ [ 7.y.^ ^ ^ 7.y.7.F.F.F.x [ y.[ 7.[ a.[ [ y.|.8X`.y.7.F.y.F.W 7.7.F.y.F.7.7.[ 7.y.F.F.F.7.^ K [ [ 7.^ 3.3.y.7.F.3.y.3.F.^ ^ 7.^ y.^ y.W 7.y.W ^ ^ F.y.y.3.y.^ 7.y.^ ^ ^ 3.y.F.=X=X[.W.F.y.y.7.x ^ 7.7.^ ^ y.7.^ C W 7.K W C W 7.^ W C 7.3.3.^ ",
"P ^ 7.^ ^ P P P C 7.^ 3.P 7.3.3.^ 7.F.3.^ ^ ^ 7.^ 7.^ 7.^ [.|.|.^ ^ ^ H W 7.^ 7.^ ^ ^ ^ ^ ^ ^ ^ ^ ^ ^ W 7.^ ^ 7.^ W W 7.^ 3.^ ^ 7.^ 7.^ ^ W ^ C ^ ^ ^ 7.^ 7.^ ^ 3.^ 7.^ C x ^ K ^ ^ 7.7.^ ^ |.=X|.7.^ ^ W ^ W ^ W F.^ ^ ^ 7.G 3.^ ^ [ [ x 7.G ^ ^ G ^ ^ 7.^ W 7.^ 7.^ W [ 3.K [ H ^ [ 7.W 7.G 7.y.7.^ y.^ [ [ W ^ y.^ ^ ^ [ ^ |.>XF.y.7.7.7.[ 7.^ y.7.F.y.y.7.a.^ 7.^ ^ 7.H x [ 7.a.W G W ^ 7.7.G 7.H ^ H 3.C 7.7.F.y.y.^ ^ 9.7.^ y.7.7.7.^ y.^ ^ F.^ ^ H 3.H 7.[.[.F.y.y.7.7.7.y.7.^ ^ W 7.^ ^ y.7.^ y.o.K H ^ x 7.^ ^ W 3.^ C ",
"^ ^ ^ ^ 9.9.W 3.^ 7.7.7.7.^ ^ ^ y.^ ^ W ^ ^ ^ y.3.^ 7.^ ^ `.=X[.W W ^ ^ y.^ ^ ^ ^ ^ W ^ 7.^ ^ ^ y.^ K 3.^ ^ 3.W 7.3.7.W 7.^ W ^ y.7.7.^ ^ ^ W ^ ^ ^ C 7.7.y.7.W 7.^ W ^ ^ C ^ H ^ 3.7.^ o.x |.|.|.^ W [ [ 7.^ G y.y.[ [ y.y.[ [ 7.W K W [ W 3.W [ ^ [ W y.7.^ H y.7.7.7.[ [ 7.^ 7.[ y.G 7.7.7.7.^ ^ 3.[ 7.7.^ K ^ y.^ W 7.G ^ >X|.F.7.7.y.y.y.y.F.F.F.a.F.y.F.7.7.y.7.^ [ [ y.[ F.^ 7.7.7.7.7.3.y.F.y.W ^ y.F.H y.y.y.^ 3.7.7.a.y.^ F.C y.W F.^ 7.3.^ ^ 7.^ ^ x |.[.F.7.y.7.y.H F.y.3.^ 7.y.7.^ 7.^ ^ x 7.o.o.^ y.^ 7.^ W ^ 3.7.",
"^ 3.l.P y.F.C F.y.l.l.^ E.F.K F.W y.^ ^ 7.3.K F.^ ^ W x `.=X=X=XH ^ x 7.C F.7.3.^ F.H ^ 7.y.d ^ y.F.^ K y.C ^ y.y.F.W W y.y.^ 7.d `.H y.7.x F.^ y.7.^ W F.3.^ C 3.y.H ^ 7.7.^ ^ ^ 3.^ W x |.=X8X|.C W y.7.7.[ [ F.!.y.7.7.F.F.^ H W d 7.!.!.x `.y.F.^ 7.G !.F.y.G 7.y.!.F.F.y.F.^ 7.x !.y.!.y.y.G F.K G y.3.W 3.y.3.F.G G G |.=XwX`.u y.F.F.H `.F.`.F.7.3.`.y.F.x a.y.7.y.F.d 7.F.`.^ F.G !.7.3.F.F.[ F.!.!.W y.!.W 7.y.^ P.7.F.7.C ^ y.y.F.y.F.y.x y.y.y.7.x [.=X8X`.4 3.y.7.y.y.y.y.^ F.F.C F.W 7.C y.^ F.W 7.F.3.3.^ ^ F.F.^ ",
"x a C x C x C P C C x x d x x C C x x x C W W W ^ 7.^ ^ [.[.|.|.|.7.y.^ 7.K 7.^ ^ W x C C x W W C C C C W G W ^ C C x C C C W C W C ^ C W C W C C x C C C C ^ C C C H C C W K ^ K ^ 3.7.[.|.|.|.|.`.7.7.^ 7.^ [ W G H G G G G x G H W W G G W x H x G W W G G x W G K x x G G G W G W G G G ^ G K G K W G x ^ W K G ^ ^ ^ !.|.>X|.`.y.[ y.7.W G [ [ ^ G ^ G x x G x G G ^ x ^ x W x x d x x x x x G H G G x G G G x H x x x x d C C W C C W W H W ^ ^ 7.^ ^ `.|.|.|.|.7.^ ^ y.C ^ W x C x C x x x x x x x x C d x x C d C d x x ",
"[.=X[.|.[.|.|.|.|.|.[.[.|.|.[.|.|.=X|.|.[.=X[.|.=X8X|.=X=X=X=X8X|.=X=X=X=X=X=X=X=X=X|.=X=X=X=X|.|.=X|.=X|.=X=X=X=X8X|.8X=X=X|.|.=X=X=X8X=X8XwX=X=X=X=X=X|.8X>X>X=X=X|.>X|.>X|.|.=X=X>X8X>X8X=X8X>X>X|.wX>X=X>X8X=XwX=X>X>X8X|.>X>X>X>X>X>X>X>X>X>X8X>X=X>X8X=X>X=X8X>X8X>X8X8X8X>X>X>X8X>X8X=X>X>X>X=X>XXX>X|.=X>X8X>X8X>X8XwX8X8X8X=XpX>XyX=X>X>X>X>X8X>XpX>X>X>X=X>X|.>X|.8X>X>XwX|.8X>X=X|.>X8X8X>X8X8X8X8X>X>X>X>X=X|.8X|.=X=X=X|.=X|.=X|.[.=X|.=X=X=X8X=XwX=X8X=X=X|.=X=X=X=X=X=X=X|.|.[.|.[.[.[.[.|.[.|.|.[.|.[.[.[.[.|.=X",
"[.[.|.|.|.|.[.|.|.|.[.[.|.>X=X|.2X|.|.|.=X|.>X=XwX=X8X=XwX=X=X8X=X=XyXwX8X=X8X=X=X=X=X=X|.=X=X|.=X|.=X=X8X=X8X=X8X=X8X8X8X[.|.[.=X|.8X8XyX=X8XwX8X8X=X=X8X=X8X>X8X=X8X>X8X>X=X>X8X8XwX=X8XyXyX8XyX>XyX8XyX8X8X>XyX8X>X=X=X>X=XwX8X>XwX>X8X8X=X>X8X>X8X>X8X8X>X|.>X>X8X8X8X>X>X>X8X>X>X8X8X8X=X>X8X8X8X>X8X>X>X>X8X8X>X>X8X8XwX8XyX8X8X=XpX8XyX>XwX8XpX>X8X>X8X>X8X>X=X>X8X8X>X>X8X>X8X>X8X=X8X=X>X>XwX8X8X8X=X=X8X>X=X=X>X|.>X>X8X=X=X=X8X=X=X=X=X=X=X=X8X8X8X8X8X8XwX=X8X8XwX=X8X=X=X=X8X=X=X=X=X[.|.[.=X|.[.[.=X[.[.`.[.[.[.[.",
"|.oXoX2X=X2X8X=X=X8X=X2X2X2X=X=X8X2X2X8X=X8X8X8X8X8XwXyX8XyX8X8X8X8X8XyX8XyXyXwX=XwXyXyX8XwX8X8X8X8X8XyX8XyX8XfXyXyX8XyX=X=X[.|.[.8XyXhXyXyXyXfXyXyXyXfXyXfXyXyXwXyXpXpXpXpXyXyXyXhXyXfXfXfXyXpXyXhXhXyXyXyXpXpXyXhXhXhXpXpXyXfXyXhXpXpXyXhXyXyX8XyXyXyX8X8X>X|.|.=XpXhXpXpXyXyX8X8XpXyX8XpXpXyXwXpXyXyX8XpXpXpXyXpXyXhXyXhXpXhXfXhXfXfXhXhXfXfXyXyXyXhXwXfXpXpXyXfXyXhXyXyXyXwXwXyXyXyX8XyX>X|.|.|.>XyXpXfXfXhXyXfXyXfX8XyXpXfXyXhXyXyXyXyXyXyXyXyX8XyX=XyX=XyXwXyXpXyXyXyXyXyX8XyXyXyX8X8X=X8X=X=X8X=X=XwX8X8X=X=X=X8X=X=X=X=X",
"[.F.^ ^ 7.P ^ ^ ^ G P ^ ^ ^ 7.^ a.7.^ y.y.H F.y.F.3.7.y.F.^ 3.y.7.^ F.y.y.^ 7.y.y.3.y.7.y.7.3.7.^ 7.y.y.y.^ F.W y.y.^ 7.F.|.=X|.|.7.^ H ^ 7.7.H W ^ ^ ^ 3.^ 7.y.^ 7.y.7.7.[ 3.^ y.y.a.y.F.y.7.7.7.[ F.y.y.7.[ W K ^ [ [ 7.7.y.^ [ 7.7.7.W 7.7.[ 7.7.[ W ^ 7.|.>X>XF.F.[ y.7.F.7.7.7.W a.7.7.a.a.y.7.y.^ 7.7.[ 7.7.7.H y.W 7.[ [ W [ a.7.a.F.F.3.^ a.y.W [ a.[ 7.^ 7.7.W 7.^ 7.7.^ 7.y.^ [ [ y.>XwX>XF.G 7.^ F.F.^ 7.^ ^ [ ^ W 7.^ 3.7.7.7.^ ^ 3.7.^ ^ 3.7.7.y.^ y.7.y.7.^ y.y.^ F.3.y.7.^ 7.y.7.F.3.7.7.y.7.^ ^ ^ ^ 3.7.^ ^ P.[.",
"[.!.^ 3.7.7.^ ^ P P 3.^ ^ ^ 7.^ 3.y.7.^ ^ y.y.F.y.y.^ 3.C y.y.7.^ 7.y.y.3.W 3.y.7.y.F.F.3.^ y.7.3.7.H y.7.y.F.F.^ 3.7.F.F.3.[.|.`.^ ^ ^ ^ ^ y.W H W ^ 7.W ^ [ 7.F.7.^ [ 7.y.y.y.y.F.7.y.^ 7.3.F.7.3.[ y.W y.7.F.^ 7.7.y.W ^ [ 7.^ [ ^ 7.7.[ [ y.H W 7.3.7.^ `.|.|.F.a.F.y.F.y.F.7.^ y.F.y.3.7.3.7.7.7.7.[ 7.7.7.[ y.[ [ ^ ^ ^ ^ [ 3.7.[ 7.a.3.!.7.^ ^ 7.3.y.[ 3.7.^ H y.7.[ 7.y.[ ^ [ y.3.W 7.|.XX>Xa.3.^ 7.y.F.y.y.7.F.a.[ y.[ G ^ ^ [ ^ [ y.7.^ ^ ^ y.7.^ 7.^ W W ^ ^ ^ ^ ^ ^ W 7.^ y.3.7.^ 3.y.3.y.^ 7.^ ^ ^ ^ ^ ^ y.7.7.!.[.",
"[.7.^ ^ P 7.^ x C ^ ^ W 7.x y.H ^ ^ 7.^ ^ ^ F.3.F.7.^ 3.^ ^ 3.^ 7.W ^ 3.^ ^ y.3.3.^ y.7.y.^ y.^ y.W 3.7.7.7.^ ^ y.3.a.F.F.F.`.`.|.^ ^ ^ ^ ^ 7.x W W ^ ^ 7.W 7.[ ^ ^ 7.7.7.[ y.7.y.K y.[ F.7.y.7.G 7.F.^ 7.[ W W 7.^ 7.7.^ W y.W 7.H ^ ^ 7.W y.7.^ [ ^ [ ^ ^ !.=X=Xy.y.7.y.7.3.7.7.^ y.^ 7.y.F.^ y.^ y.^ y.K 7.[ 7.W y.[ ^ ^ ^ 7.^ 7.7.^ 7.7.7.y.3.^ 7.^ ^ ^ 7.^ [ 7.7.[ [ W 3.^ y.^ 7.[ W 7.7.|.>X}.a.3.3.y.F.a.a.7.y.y.y.W y.a.7.7.^ y.[ K ^ 7.^ 7.7.^ ^ ^ 3.H x W 7.^ y.^ ^ ^ 3.7.7.7.^ ^ ^ ^ F.C F.7.W C x C ^ H 7.C 7.^ 7.[.",
"`.F.^ P ^ ^ ^ ^ P x C ^ x y.W K ^ ^ H K ^ ^ ^ y.W 7.W ^ 3.7.3.^ 7.7.7.x 7.y.3.y.^ y.^ ^ y.7.7.7.^ 7.^ W ^ 3.3.3.7.y.7.3.^ F.|.|.`.^ ^ 7.^ 7.7.^ W y.G K ^ [ ^ ^ [ 7.K ^ [ a.7.3.[ y.7.7.7.F.y.[ ^ y.[ ^ ^ y.^ 7.[ ^ ^ 7.^ ^ [ ^ ^ 7.7.[ W G ^ [ [ K [ ^ W ^ [ >XXX7.y.7.y.F.y.y.7.y.[ [ [ a.7.7.W [ [ [ 7.^ W 7.y.3.^ 7.^ [ 7.3.^ y.y.7.3.y.7.[ ^ 7.^ [ W ^ ^ ^ W 7.[ 3.W W [ 7.7.[ 7.7.^ 7.[ >X|.|.^ d 7.7.a.7.7.7.[ 7.y.y.y.^ [ 7.[ ^ [ H H y.H 7.^ H ^ 7.^ 3.x y.W 7.^ 3.^ W H ^ ^ 7.^ ^ 7.W ^ F.3.^ C W C ^ W C ^ ^ W ^ F.[.",
"=X`.7.l.7.7.7.^ ^ C H W ^ ^ 7.^ 7.W H W 7.^ W W 7.W ^ ^ 3.7.7.^ 7.W 7.y.^ ^ ^ ^ 3.^ 3.y.^ 7.3.7.3.W ^ 7.7.7.W 3.7.y.y.7.y.[.=X`.[.^ [ [ 7.^ ^ 7.7.7.^ W 3.7.7.7.W W 3.W 7.[ [ ^ ^ ^ [ 7.F.y.7.[ 7.^ 7.[ 7.[ W 7.[ [ 3.^ y.^ [ 7.y.H 7.[ 7.W ^ W [ 7.y.^ [ [ |.|.XX^.F.y.F.y.y.y.y.7.a.7.F.a.7.y.y.[ y.7.7.y.y.7.7.[ 3.[ y.7.a.a.y.^ y.[ [ [ 3.7.7.y.^ [ 7.7.3.7.7.^ [ W 7.G 3.^ ^ 7.7.7.[ 7.3.>X>X|.F.a.y.G F.y.a.a.a.3.H 7.y.3.W 7.[ [ 7.^ W ^ ^ W y.^ ^ F.7.^ W W 3.F.W ^ 3.7.7.7.W ^ ^ 7.7.7.y.^ 3.y.^ C W W ^ ^ y.3.a.^ [.|.",
"=XW.P l.P P ^ C ^ ^ W C C ^ ^ H ^ W W y.^ 7.^ 3.3.^ ^ ^ ^ 3.^ W ^ H ^ 7.3.^ 7.^ ^ 7.W 3.3.^ 7.3.y.7.^ 7.^ W ^ ^ ^ y.^ ^ 3.`.|.|.`.^ W K F.y.W 7.^ y.[ [ [ [ [ ^ 3.7.7.7.[ 7.F.[ W 7.7.F.7.7.[ [ W y.[ [ 7.7.^ W [ K [ ^ G 7.[ y.[ [ W [ ^ y.^ [ [ [ ^ [ 3.7.^.>X8X}.F.F.a.F.F.F.^ F.[ y.[ y.^ 7.7.y.7.y.[ a.y.7.K F.^ 7.7.y.[ [ ^ y.[ F.7.7.y.7.[ y.7.7.W a.W F.H 7.7.3.3.^ ^ W 7.^ ^ 7.[ [ ^ 8XXXXXF.7.F.7.3.^ y.y.^ [ ^ 7.[ [ F.7.[ 7.u 3.G 7.3.[ [ [ H C ^ C x ^ ^ F.H 3.3.^ ^ ^ 3.W ^ W ^ y.x 3.^ ^ W ^ x W W 7.C H y.^ F.=X",
"=X^ P x 3.7.^ ^ ^ W ^ G 7.W W W ^ ^ K K 7.^ ^ ^ 3.^ ^ ^ ^ ^ C ^ 3.^ 3.7.y.3.y.^ 7.7.3.3.y.3.7.^ y.^ ^ 7.y.7.y.^ 7.3.y.7.7.3.XX`.[.G 7.7.^ ^ 7.W 7.7.W [ 7.7.[ [ 3.G 7.^ [ 7.7.[ 3.[ 7.7.^ y.y.W 7.7.[ W 7.K ^ W [ W [ 7.W ^ 7.[ a.[ [ G ^ ^ 3.3.[ 7.^ 7.W 3.F.=X>XF.7.y.F.[ F.y.y.7.7.7.a.3.7.[ y.3.F.[ F.^ 3.^ a.y.7.^ y.[ 7.[ F.7.a.F.7.^ y.W [ y.[ 7.7.[ 7.K H [ y.[ 7.7.7.7.y.W [ [ [ 3.W =X>X|.y.W 7.7.y.y.y.a.7.[ y.[ ^ ^ 7.^ [ 7.7.G y.G [ ^ 7.^ ^ 3.^ W C C H H y.7.^ x ^ ^ 7.3.7.^ 3.F.7.^ 3.^ W ^ ^ 7.7.W 3.^ G H ^ |.",
"[.!.^ ^ 3.3.^ ^ C ^ C x ^ W C ^ ^ 7.^ 7.W ^ x ^ ^ ^ ^ ^ H ^ W ^ C ^ ^ W 3.^ ^ 7.H ^ ^ 3.^ y.^ 3.^ y.^ ^ 7.^ 7.3.^ y.7.3.[ !.|.|.`.^ W ^ ^ W K ^ ^ G 3.G W ^ ^ ^ ^ 7.[ [ [ 3.W ^ 7.[ ^ 7.[ 7.[ 7.[ [ K [ ^ [ [ 7.W d W [ H ^ [ K H ^ 7.G G 7.^ 7.W [ ^ 7.^ [ F.}.XXF.^ 7.^ 7.[ 3.[ F.7.3.W W 7.W 7.^ y.[ [ ^ [ 7.G 7.7.7.[ 7.[ 7.x y.^ F.7.y.[ y.^ 7.^ H H G ^ ^ G 7.^ 7.^ F.3.y.7.7.[ ^ W W K |.>X>XF.3.7.[ F.7.^ ^ y.3.3.y.[ [ x 7.7.y.7.[ [ [ 3.^ ^ y.G C W H H ^ ^ ^ 7.W W W C ^ W ^ ^ 3.3.y.3.7.^ ^ C ^ G ^ ^ 7.7.3.W ^ W.|.",
"=XW.^ 7.^ 7.y.^ C ^ ^ ^ ^ W ^ 7.F.3.3.K ^ 3.^ W y.^ H ^ W H ^ ^ 7.^ y.^ y.^ W 3.^ W ^ ^ 3.7.P.y.^ ^ 7.^ H ^ d ^ 7.a.y.F.a.F.8XXX[.3.7.W 7.[ K x 3.[ 7.3.^ ^ 7.^ 7.3.7.[ 7.[ [ ^ 7.[ 7.a.7.F.3.^ 7.x a.7.7.^ 7.^ [ G 7.[ [ K 7.W 7.^ W 7.[ W x ^ 3.G y.y.y.G 7.>X>X3.y.7.7.3.y.7.y.G F.7.y.W ^ F.y.7.7.y.y.7.W [ a.7.7.[ y.7.7.[ ^ [ 7.y.[ 7.F.a.[ [ x 3.7.W [ G ^ ^ 7.H a.7.[ [ y.[ 7.7.7.^ G =X>X>X[ 7.[ [ [ 3.y.W y.y.F.[ y.7.^ [ [ ^.7.G ^ [ W ^ 7.[ [ K G ^ ^ ^ 3.y.^ C y.W ^ ^ C ^ x ^ W ^ 3.H ^ 7.^ ^ 7.H ^ 3.7.^ 3.W W.=X",
"[.F.^ ^ y.y.^ W ^ C W 3.^ H ^ H C ^ C y.^ ^ H x ^ 7.W ^ ^ ^ ^ ^ ^ ^ ^ W ^ y.^ 7.3.3.^ ^ 7.7.7.^ W ^ H ^ 3.^ ^ 3.^ a.[ 7.^ F.=X|.|.7.^ W W 7.^ G G K G W K [ ^ ^ [ ^ W [ [ [ ^ ^ 7.7.K y.^ 7.G 7.x ^ 7.^ 7.[ ^ 7.H G K 7.^ ^ [ 7.W G ^ G W [ W 7.H ^ 7.3.[ [ !.=XXX^.y.y.K y.[ 7.[ 7.W H 7.y.W W a.7.7.y.7.^ 7.W y.^ ^ 7.7.^ 7.^ 7.3.7.7.y.F.7.3.[ [ K ^ 7.^ ^ [ 3.^ [ [ [ W 7.[ [ 7.^ 7.[ y.[ >XXX>XF.y.^ ^ [ G y.7.H W [ x x W ^ y.^ [ G [ ^ 3.^ ^ W W K W K H C C ^ ^ y.F.W 3.W y.y.7.7.^ 3.y.y.y.C 3.^ ^ H ^ ^ ^ 7.y.H ^ F.[.",
"=X^ F.W y.3.^ ^ ^ ^ ^ ^ ^ ^ C W ^ W F.7.y.^ H W ^ W W W 7.^ ^ W W ^ 3.^ 3.^ ^ ^ 7.7.7.^ ^ ^ H ^ ^ ^ 3.3.y.7.7.[ y.F.7.^ 7.F.=XXX[.[ [ H 7.^ y.[ H W G ^ 7.7.y.[ ^ ^ ^ ^ [ 7.3.7.W 7.7.7.y.^ ^ [ y.7.7.[ W ^ [ ^ H 7.[ 7.W ^ ^ ^ [ W ^ [ 7.7.y.^ W ^ 3.[ 7.7.^.=X=XF.y.W 7.y.F.7.7.y.7.^ 7.3.^ G [ 7.[ [ ^ ^ 7.^ 7.[ 7.7.^ 7.W G G F.y.y.7.[ F.G [ 7.[ 7.^ ^ [ [ 7.^ [ [ [ 7.y.y.3.[ 3.7.^ 7.7.=X=X|.^ 7.F.G y.7.^ 7.3.7.[ [ [ [ ^ y.y.7.^ F.^ ^ 7.y.^ d [ G G G ^ ^ 7.W 7.^ ^ ^ ^ ^ ^ ^ 7.^ F.^ ^ ^ F.y.7.^ ^ W 7.^ y.7.^ y.^ |.",
"F.F.^ ^ ^ 3.7.W C W y.7.^ ^ W 3.x 7.7.H y.W W W ^ ^ W H ^ y.^ ^ 7.^ ^ 7.^ 7.W 7.^ F.^ 7.^ y.^ ^ W [ [ 7.W F.y.W y.F.y.F.a.F.>X8X[.W [ [ 7.[ y.[ [ [ W ^ W [ [ [ [ 7.[ 3.^ ^ 7.[ W 7.^ 7.[ 7.W W W ^ y.y.y.[ G 3.H ^ ^ G G G ^ x y.^ 7.W y.[ y.y.a.a.[ 7.W [ !.|.|.F.y.7.[ y.F.7.W ^ [ F.a.y.[ y.[ a.y.7.u [ G 7.[ y.[ y.H ^ 7.^ G [ 7.7.7.F.^ ^ x 7.7.W G H [ x G [ [ 7.[ [ [ 7.W ^ 7.^ [ y.^ 8X=X>XF.7.y.^ G y.3.G [ y.^ G ^ [ 7.7.7.^ ^ y.x K 7.y.x ^ x x G 7.x K W ^ ^ y.K ^ G ^ G ^ H y.C ^ W 7.^ F.^ W x 7.W 3.7.7.^ 7.F.P.",
"[.F.y.F.W ^ 7.K W ^ C ^ ^ ^ y.3.7.^ F.^ 3.^ 7.3.^ W ^ ^ W H C W 7.3.y.^ 7.W y.y.3.^ W 3.a.^ y.7.[ y.7.^ 7.7.7.y.F.[ y.3.F.^.8X>X}.K [ ^ y.^ [ [ K [ ^ 3.[ W [ 7.7.[ 7.[ 7.7.F [ ^ y.3.[ [ [ 7.y.^ [ F.[ [ H ^ G x ^ ^ W [ [ ^ 7.F.y.7.7.7.3.^ [ [ [ 7.^ 7.W `.|.|.7.[ 3.y.y.^ F.y.^ [ 7.7.[ a.3.W F.y.^ a.y.3.^ 7.G [ [ 7.[ [ ^ [ W 3.7.y.^ F.^ W ^ W ^ [ H ^ W 7.7.7.[ 7.[ 7.7.[ K 7.7.H ^ 7.8X8X>XF.[ 3.7.^ 7.[ [ [ [ y.^ 7.[ x y.y.y.^ G 3.W ^ 7.y.W K W [ G ^ W G H y.H F.^ ^ ^ 7.^ ^ ^ 7.y.y.W 7.W ^ W ^ ^ ^ 3.7.C F.y.F.[.",
"=X7.^ y.^ 3.W ^ H ^ C 3.3.^ C ^ ^ ^ H 3.^ W 7.7.^ 7.^ ^ ^ ^ 7.^ ^ 7.^ 7.7.3.C W ^ a.^ ^ y.^ 7.7.3.y.7.7.7.y.7.7.7.F.[ 3.7.`.=X=X[.H W 7.[ y.[ 7.K F.7.K ^ ^ [ ^ [ G W ^ [ ^ [ 3.K a.^ 7.7.7.^ W G y.[ [ G 7.7.H ^ ^ G y.K W ^ u W 7.x [ W y.W y.[ [ ^ F.[ F.!.>XXXa.d y.W y.y.7.y.y.[ 7.[ F.a.7.^ y.3.y.[ 3.[ [ K W 3.[ H G [ 3.[ H y.7.y.^ [ [ [ 7.^ G ^ W 3.W 7.^ H ^ W ^ 7.[ 7.7.[ ^ ^ 7.[ 8X>X8X7.y.7.F.^ y.G y.7.7.7.7.W [ 7.[ y.7.7.G K [ W [ W H G G x [ 7.[ ^ ^ ^ 3.7.^ W ^ ^ ^ C y.W ^ ^ 7.x ^ W a H ^ ^ ^ 7.7.7.^ ^ =X",
"8XW.^ W ^ ^ y.^ W ^ ^ 7.^ W C W 7.^ ^ ^ W ^ ^ ^ ^ ^ ^ 7.3.W 3.^ ^ 7.^ y.7.^ y.W ^ 3.3.^ 7.7.7.7.7.^ a.y.7.7.F.^ F.F.7.[ F.7.>X|.|.^ 7.7.G ^ 3.y.^ W ^ 7.[ [ ^ W [ G 7.H ^ [ 7.7.[ 3.7.F.7.[ 3.^ ^ [ [ ^ G ^ G H d ^ ^ 7.[ W W [ 7.^ G ^ 7.7.7.[ 7.7.3.F.^ ^ F.|.|.y.y.3.y.3.[ 7.[ 3.7.^ 3.y.W 7.y.[ y.7.F.W y.[ 7.^ 7.^ [ [ 7.^ 7.^ [ 7.7.^ 7.[ x [ ^ 7.^ [ [ G y.W 7.[ 3.^ y.7.7.^ y.7.7.G 7.>X|.=XF.[ y.y.7.7.a.G 3.W ^ ^ [ [ y.G ^ 7.3.[ W K 7.^ G ^ G x ^ H ^ G [ W 3.y.^ ^ ^ H ^ W ^ ^ ^ W ^ C ^ H 3.H ^ 7.7.3.^ ^ ^ ^ !.8X",
"=X7.W ^ ^ H ^ 3.W 7.C W H ^ C ^ 3.7.^ ^ ^ W y.H ^ H ^ 7.H ^ 7.y.7.^ 7.3.C y.W ^ ^ y.[ a.^ y.7.y.7.y.y.F.7.y.[ y.[ 7.H 7.y.7.|.>X[.y.x 7.K ^ ^ ^ ^ 7.^ a.[ [ W G W [ [ y.G ^ 7.W K W [ [ W [ ^ G x ^ y.G y.H W [ x ^ H W G x G [ [ W G 7.y.7.^ ^ 7.[ [ [ G 7.F.[.XXF.F.[ [ 7.7.y.y.F.7.^.7.y.7.y.7.F.7.7.W 7.^ 7.7.x ^ ^ [ K 7.W ^ ^ ^ 7.7.^ 7.y.7.F.W 7.[ W W W ^ ^ [ 7.[ F.[ a.y.y.^ ^ [ 7.H >X>X8X`.y.^ 7.^ 7.G W H ^ ^ [ G F.7.[ 7.W [ G W G W 7.^ W W W H x G G ^ x ^ 7.W 7.^ ^ x W y.3.W W W W 7.^ C ^ W C ^ 7.H 3.^ ^ ^ =X",
"=XW.7.7.H ^ ^ W ^ W H ^ x ^ H C ^ C 7.H 7.^ C ^ 3.W ^ W ^ ^ 7.3.y.7.H 7.7.3.7.^ 7.^ F.7.7.7.7.y.7.[ 7.y.7.7.K [ [ y.y.^ y.[.=X|.|.H y.K 7.H 7.^ [ G [ [ W 7.7.^ x [ ^ ^ 3.^ [ 7.[ y.7.7.[ 7.^ [ 7.[ ^ H y.W x x ^ 7.^ 7.K d [ G [ [ ^ W [ [ ^ ^ 7.7.7.7.^ W !.>X=X!.a.3.7.3.3.^ 7.y.[ 7.7.y.7.F.7.7.F.^ F.W y.[ [ ^ y.3.[ ^ 7.7.7.[ 7.[ y.7.y.^ ^ ^ 3.7.[ [ 7.W y.3.3.7.7.7.7.[ ^ 7.y.H [ ^ ^ 8X>X>XF.3.F.[ 7.[ [ 7.3.G ^ [ 7.3.^ ^ [ [ a.W ^ W [ ^ [ G W W ^ 7.^ H ^ 7.3.^ ^ ^ ^ G ^ ^ 7.x ^ W W ^ ^ F.3.H 7.3.H H ^ W y.^ `.=X",
"=X3.W ^ ^ 7.W C ^ y.W ^ H W C x ^ W W W ^ ^ H 7.^ ^ ^ ^ 3.7.^ 7.y.y.7.3.7.y.y.^ ^ y.^ F.y.K 7.[ a.[ 3.y.7.7.7.[ ^ 7.7.y.7.!.XXXX`.[ [ W W 7.F.G ^ 7.[ 3.[ 3.[ 3.G [ G [ ^ W H ^ [ y.7.a.7.W ^ ^ ^ ^ ^ 7.[ G W W ^ [ [ ^ [ [ W ^ ^ 7.^ ^ [ ^ [ x ^ y.[ [ [ ^ F.=X[.|.7.y.G F.F.y.3.[ y.y.3.[ 7.[ [ F.7.7.7.y.[ 7.7.[ ^ 7.[ y.7.x 7.W ^ 7.7.3.[ 7.^ 7.^ W 7.[ W 7.^ ^ ^ a.y.G 7.[ ^ 7.[ [ ^ [ [ >XXX8X`.H 7.y.7.7.^ F.^ 7.7.7.[ ^ ^ ^ ^ [ K K W ^ 7.^ W H ^ [ [ 7.H W G [ 7.^ ^ W W 7.H W C ^ x ^ ^ ^ W 7.^ ^ x 7.W ^ ^ ^ ^ ^ 7.8X",
"=X7.7.C 3.^ ^ 3.^ H ^ ^ 7.x ^ K ^ H ^ C 7.^ ^ C 3.^ ^ ^ 7.W 7.^ 7.y.y.W 7.7.y.^ y.^ ^ 3.7.7.F.y.y.7.y.7.7.^ 7.[ 7.^ 7.7.3.F.|.XX[.[ W 7.y.7.7.7.H ^ ^ 3.3.^ ^ W 3.[ 7.[ K W [ x ^ ^ 7.^ 7.7.^ 7.y.G [ ^ 7.[ W [ W x ^ H ^ K ^ W 3.^ 7.[ [ 7.7.[ W 7.[ K [ y.F.>X=XF.y.[ a.[ F.7.[ [ 7.[ 7.a.F.7.a.[ y.7.7.7.3.[ 7.3.7.7.y.[ 7.3.7.[ [ 7.[ 7.y.G ^ ^ 3.7.[ [ [ W H ^ 7.^ 3.W F.[ a.[ 3.W K [ K >XwX>Xy.^ 7.7.K [ [ 3.[ 7.y.y.y.7.7.^ ^ x 7.x G W 7.G ^ G 7.^ [ [ 7.G ^ [ ^ [ 7.C x 7.^ ^ 7.d ^ ^ 3.W ^ ^ ^ C ^ ^ y.^ ^ ^ W ^ y.|.",
"|.`.C 7.W 7.H C C H x H ^ ^ ^ ^ W ^ W ^ ^ ^ C x ^ ^ ^ C ^ 7.7.^ ^ 7.^ y.^ 3.3.y.3.[ [ 3.y.[ y.3.^ [ y.3.[ 7.3.^ ^ 7.[ 7.W F.=XXX}.^ ^ W [ a.F.3.K 7.K W W 3.[ [ G [ 7.7.G ^ 7.^ x x G ^ [ 7.7.[ G ^ W 7.K [ G [ [ 7.^ G W ^ W 7.W 7.7.H W ^ W 7.W 7.[ ^ ^ 7.F.>X|.^ y.y.7.y.3.7.^ ^ 7.[ [ 7.[ y.7.7.[ y.[ F.[ a.[ W 7.a.[ 3.7.[ 7.y.[ [ [ 7.[ 7.W [ W G [ ^ [ ^ K y.y.7.7.^ ^ 7.7.[ W 3.W 7.G 8X|.=X^ 7.7.7.7.[ H ^ W x 7.y.[ a.3.7.[ 7.^ ^ y.7.W G G ^ ^ ^ K 7.[ x G ^ W [ G x W C W W W 7.^ 7.3.^ H W W x ^ ^ ^ H ^ W 7.H `.=X",
"yX`.^ ^ y.W 7.^ ^ ^ W y.^ H ^ ^ y.H 7.^ 3.W y.7.^ ^ ^ ^ 7.^ C H 3.3.y.y.y.^ y.7.7.W 7.3.y.3.F.F.y.7.a.F.F.y.y.3.a.7.7.[ y.F.8X=XXX[ 3.3.3.7.W [ ^ ^ 7.[ ^.K W [ a.W ^ W W G 7.x G G ^ ^ y.W [ [ 7.[ [ [ [ ^ [ 3.7.[ 3.G [ ^ ^ ^ W H ^ [ y.[ a.[ ^ W ^ [ [ ^ `.>XXX`.F.a.y.[ W 7.7.7.y.3.y.F.y.y.y.7.y.[ y.y.y.7.[ 3.y.7.7.[ ^ [ 7.[ ^ y.[ [ ^ [ 7.[ [ K ^ ^ 7.3.G y.3.[ y.7.7.3.[ [ y.a.^ y.3.8X8X|.!.y.7.7.[ W 3.x 7.^ 7.^ 7.a.K y.^ 7.7.^ [ G 7.G 3.^ [ K 3.7.[ W ^ H ^ H ^ C ^ W ^ ^ ^ F.7.y.^ ^ 7.^ ^ C 7.K ^ 7.^ 7.^ ^ [.8X",
"=X7.7.^ 7.^ ^ ^ ^ 7.H ^ 7.3.^ 7.K H ^ x ^ ^ W ^ W G W y.7.7.W 7.^ 7.7.C 7.7.7.y.a.y.7.a.7.y.y.F.y.3.y.7.[ y.7.7.a.a.7.y.^ H =X|.>X7.[ K ^ 3.^ 7.W W ^ W K 7.[ [ 7.7.[ G 7.^ W x W [ ^ H H y.W [ 7.^ [ [ ^ 7.^ ^ H [ [ K G ^ 7.W [ [ 7.W y.W 7.^ ^ 7.K 3.K G y.8X>X!.F.a.[ F.3.a.y.F.7.^ F.a.7.y.H F.3.F.a.y.[ 7.^ y.y.y.7.7.[ [ 7.[ ^ G y.[ 7.G W [ 7.7.3.G 7.3.7.7.[ [ 7.!.W ^ ^ 3.7.^ 3.^ 7.8X8XyX7.F.^ [ x 7.^ 7.7.7.7.y.7.7.[ W H ^ W [ W [ [ ^ [ W [ [ K [ W 7.H H K H H H H e H ^ ^ W y.7.7.x ^ H ^ ^ 7.y.H 7.^ 3.^ y.3.8X",
"2X3.W ^ 3.^ W ^ 7.C ^ ^ x ^ ^ ^ 7.^ 7.3.7.^ 7.W ^ W 7.W 3.W 3.^ 3.7.F.y.y.7.7.y.^ 7.y.a.F.^ y.7.7.y.[ [ y.3.F.y.[ y.7.K F.F.8X>X>X[ 7.W 7.^ y.G [ W ^ W y.H [ 7.3.W ^ [ 7.^ ^ H ^ [ ^ G [ ^ [ 7.[ [ [ W ^ ^ ^ W 7.7.7.^ H W W [ [ [ G 3.^ ^ 7.^ 7.d [ [ ^ 7.!.8X>XF.y.7.3.y.F.7.y.y.^ ^ y.3.F.a.^ F.F.^ y.3.F.^ 3.7.y.y.y.W ^ y.[ [ y.7.^ G ^ G [ 3.W 7.3.3.7.[ 7.^ K [ 7.^ ^ 3.3.^ K H 7.^ y.8X8X>X3.y.7.3.y.7.7.7.K 7.[ 7.7.7.[ ^ F.W ^ H 7.^ ^ 7.^ x 7.[ [ x H W W K 7.^ ^ G ^ ^ C W ^ K 3.7.^ C C C y.W 3.^ 3.W 7.^ ^ C y.=X",
"[.`.H 3.^ 7.G W W ^ W ^ ^ 7.W ^ H ^ ^ 7.^ ^ ^ 3.^ 3.^ 7.3.7.^ W 7.y.3.y.7.3.7.y.[ y.7.[ y.7.7.a.y.F.y.7.F.a.7.^ 7.y.H y.W y.>X|.>X7.W 7.[ [ 7.^ G K W [ G ^ ^ [ ^ ^ [ ^ ^ [ 7.^ G [ W ^ W [ W y.7.[ [ [ 7.[ [ [ ^ W [ 7.H ^ [ G x [ 7.[ W ^ y.[ ^ ^ 3.^ ^ ^ !.>X>Xy.^ F.F.7.y.K [ 3.a.7.y.y.y.7.^ [ 3.y.a.a.3.3.^ W y.y.y.a.[ y.y.^ 3.^ ^ ^ G ^ ^ [ ^ ^ W y.[ 7.d 7.^ y.^ y.^ 7.^ y.[ 7.[ K [ 8X>X=X[ [ K 7.^ [ W W 3.^ ^ 3.W [ ^ 7.[ 3.^ 7.W [ H 7.W [ W [ W H G [ W K ^ 3.^ ^ x 3.W ^ ^ ^ ^ 3.W ^ W ^ ^ 7.C W K W 3.^ ^ ^ W.[.",
"[.^ x ^ 3.^ 7.^ ^ K H W W H ^ ^ 3.F.3.y.7.F.7.^ ^ C 7.7.3.7.3.7.y.3.^ F.y.7.y.W 7.y.y.y.y.a.F.y.G F.F.F.y.y.7.y.F.y.y.y.y.y.>X`.|.H 7.[ ^ [ 7.G [ [ W 7.y.^ y.^ K [ ^ ^ 7.W 3.W ^ W ^ ^ 7.W 7.y.^ 7.F.7.3.[ W [ 3.3.3.3.7.^ a.7.7.^ W [ 7.H ^ 7.[ W H [ ^ 7.y.|.>XG F.3.7.y.F.7.G F.a.F.^ y.F.F.F.^ a.[ [ [ `.^ 7.^ 7.y.y.7.a.[ y.y.[ F.7.[ W [ W ^ 7.3.F.W 3.7.7.7.7.^ y.[ 7.^ H 7.[ W [ 7.[ >X>X=XF.y.^ G 3.7.7.[ [ K 7.^ y.y.y.G ^ y.F.K [ [ [ 7.y.^ [ ^ 3.x K u ^ [ [ G W H ^ ^ ^ ^ ^ y.^ 3.7.^ ^ ^ 3.7.W ^ 7.^ 3.^ ^ d 7.[.",
"|.C ^ ^ ^ 3.K ^ W C W ^ H ^ ^ W 7.7.3.W 3.W 7.y.^ ^ 7.y.^ ^ 7.y.7.y.W 3.y.^ 3.y.W y.^ y.y.7.y.y.y.F.y.3.7.7.G y.7.7.[ y.a.x [.`.!.^ ^ ^ 3.^ [ H x W G y.^ 7.^ W K [ W G W W W ^ G K W W ^ ^ ^ W ^ [ ^ ^ W 3.[ ^ ^ 7.G ^ ^ 7.[ ^ 7.W [ W ^ 7.^ W K [ G [ [ [ y.|.`.y.y.y.^ 3.[ F.y.a.y.a.7.F.y.y.y.3.[ [ H F.F.7.[ ^ ^ F.a.a.3.7.W y.[ y.W F.7.^ G 7.^ 7.W 7.^ ^ a.[ ^ y.^ 7.7.G 7.F.7.7.W x [ >X|.}.7.a.[ 7.^ ^ 7.7.W 7.7.y.^ ^ ^ ^ G 7.[ W x [ W x ^ ^ 7.y.H H ^ [ G W G ^ H ^ ^ ^ ^ 7.7.3.W 7.^ C C 7.^ ^ ^ W ^ ^ ^ ^ ^ ^ x |.",
"=Xy.^ ^ 7.3.3.7.^ K ^ ^ y.^ y.y.y.7.y.y.y.7.y.^ ^ 7.3.7.F.F.F.7.F.7.7.F.F.7.y.F.F.y.y.F.F.F.F.F.y.y.y.F.a.7.y.[ y.^ F.[ F.^.>X|.>X^ [ 7.^ ^ 7.y.^ ^ H 7.7.7.7.F.y.K [ W G W [ 7.y.[ ^ [ ^ 7.7.W y.^ 7.y.7.7.y.7.W W W 7.y.[ 7.3.^ ^ [ [ ^ H F.W [ y.[ [ [ W F.8XyXy.7.7.F.y.y.3.F.7.y.a.y.y.y.y.F.7.y.F.F.y.W y.F.F.F.y.a.F.y.7.[ 7.^ y.y.3.y.[ [ H 7.[ ^ [ 7.^ 7.3.[ W y.7.y.[ 7.y.[ W W [ [ =X=X|.a.[ ^ ^ 3.^ y.7.[ H 7.[ K ^ ^ y.y.[ [ W 3.W 3.[ ^ 7.y.7.W [ W [ 7.x ^ ^ ^ 7.7.^ 7.^ 3.K 7.3.^ 3.^ x ^ ^ ^ ^ 3.3.y.7.7.^ F.|.",
"[.|.d C x x a C e 4 < d 4 e d e 4 4 4 9 e x W a < 4 4 4 4 a x e e d a e x e 4 4 4 4 u d < u 4 u * 7 < u 4 d x u 4 d x G !.>X>X=X|.7.x x d d d d u d d d 4 4 d u 4 u u d u u 4 d d 7 4 u u u 4 e 4 < 4 4 4 u u u 4 4 4 d 4 u 4 u 4 4 4 4 4 u d u * 4 d u e [ =X8X>X`.x x G G d d 4 u 4 G 4 u 4 d u u u x d d 4 d x u 4 u u d u 4 < < * 4 4 u u d e 4 4 d u 4 4 d d u 4 < 4 4 4 4 4 < < * * 4 y.|.|.>X=X[ u x d u 4 u 4 x x d u u d u < 4 u u 4 4 7 u < u u 4 4 x < u * < < < 4 4 < u < d e 4 < 4 a d 4 4 4 e 4 a x a a x C x [.|.",
"|.|.[.|.|.[.|.|.|.`.[.!.`.!.[.[.`.F.[.`.[.W.`.`.`.!.`.W.[.`.`.`.`.!.`.F.W.!.`.!.`.!.`.`.`.`.}.}.`.`.[.[.[.[.|.[.XX|.>X|.|.>X>X=X>X`.>XXX|.|.|.|.|.|.|.[.|.`.[.`.`.`.|.|.[.`.[.!.[.[.[.[.`.!.!.!.`.!.`.F.!.`.!.`.`.`.`.!.!.!.[.`.`.!.`.`.[.[.|.|.|.=X>X|.>X|.>X>X>X|.|.>X>X|.|.[.[.`.[.`.`.!.`.!.`.!.[.[.`.`.`.`.F.F.`.F.!.!.!.!.!.!.!.F.!.!.`.`.^.!.`.`.F.F.`.F.F.!.`.`.!.`.|.`.[.`.[.[.[.[.|.|.>X>XXX|.|.|.|.[.|.[.|.`.`.`.}.^.!.!.`.!.`.F.[.!.`.`.[.!.!.!.!.F.F.F.!.!.!.F.!.!.`.!.`.!.F.F.`.F.F.F.F.F.F.`.[.|.|.|.|.[.|.[.=X|.",
"[.[.[.|.|.|.[.[.`.[.[.[.|.|.=X=X|.|.[.=X=X8X|.=X|.=X=X=X=X=X|.=X=X|.|.=X=X|.>X|.|.>X=X>X[.>X>X=XXX|.|.=X|.=X|.>X|.>XXX>X>X>X>X=X>X>X=X=X>X>X>X=X>X8X>X8X=X>X=X>X>X=X>X8X|.8X>X=X>X8X8X8X>X8X=X=X>X>X=X>X=X=X>X>X>X>X>X>X>X=X>X>X>X>X|.wX=X>X>X8X>X>X>X8X8X8X=X8X>X>X|.wX,X,X|.>X|.|.|.>X|.>X[.>X>X|.|.|.|.>X>X>X>X>X|.>X>X=X>X8X=X|.=X>X>X>X>X8XXX=X=X8X>X=X>X8X>X8X>X>X>X=X|.>X=X|.>X8X>X>X=X=X8X>X>X>X=X>X>X>X=X=X>X8X>X>X=X>X>X>X=X>X>X|.=X>X>X8X=X>X>X>X>X>X=X>X>XwX>X=X>X>X=X=X=XwX=X=X|.=X|.=X|.=X|.>X|.=X=X|.|.=X[.=X[.|.",
"=X=XwX>X8X=X=X=XwX8X8X=X8X=X8X8XyX8X8X=X8X8X8X8XyX8X8X8XyX=X|.|.=X=X8X8XyX8X8X>X8X8X8X8XyX8X8X8XyXwX8X8XyXwXyXyXyX8XwX8XyXyX8XyXhXpXfX8XhXyXyXyXhXyXhXyXwX8XyX8X8X8X8X8X8X>X8X>XpXpXwXwX8X>X>X|.>X>X8X8XyXwXwXwXhXyXyXyXyX8X8X8XyX8XyX8XyXyXfXyXhXyXfXfXfXyXhXyXhXyXyXyXhXpXwX>XyX8XyX8XyXwXyX8XyXwXyX8XyX8X8X>X8XwXyX8X8X8X>X>XXX|.8X=XyX8X8X8XpX>X8X8XyXyXyXyXyXyXyXyXyXyXyXyXyX8XyXyXyXyXyXwXpXyXwX8XyX8XyX8XyXyXyXyXyX8X8X8XyXyXyXyXyX8XyX8XyXwX8X8XwX8X8X=X>X|.>X8XyX8XwX8XyX>X8X8XyXyX8X8X8X8X8X=X8XyXyXwXyX8X8X8XyX8X8X=X",
"9.y.7.3.`.W.!.F.F.[.|.!.[.`.W.`.F.y.F.F.`.F.7.`.P.F.F.F.8X8X|.|.|.F.F.y.[.F.y.`.y.F.F.y.!.F.F.}.F.F.[.F.!.`.!.7.F.`.!.!.|.!.F.F.F.`.!.!.^.}.`.XX}.|.`.[.=X}.}.`.}.!.}.!.|.`.F.F.[.[.`.`.!.pX>X>X|.|.F.[.[.!.`.F.y.`.!.F.XX!.F.|.!.}.|.|.|.>X`.!.|.|.!.F.}.|.`.`.`.[.`.`.`.}.`.F.!.[.XX`.`.}.F.|.`.`.`.`.!.XX`.F.`.|.`.^.`.`.8X=X>X=X>X}.}.=X|.}.XX8X}.XX[.[.F.}.[.>X}.>XXX>X|.F.|.}.^.F.|.>X|.`.F.|.>XXXXX^.8XXX|.[.|.XX}.>X>XF.[.|.[.|.[.>X`.F.F.`.|.XX}.`.|.8X>X>X|.pX!.XX>X[.[.|.}.}.!.`.Q.`.[.`.`.|.W.!.`.P.`.=X[.Q.F.P.`.`.",
"^ x ^ ^ C ^ y.^ ^ C x H ^ K ^ ^ ^ ^ 7.^ ^ C ^ H ^ ^ ^ H 7.|.=X[.3.H y.^ 3.7.K 7.7.7.[ ^ ^ ^ 7.[ 7.7.y.7.7.W ^ ^ ^ [ 7.7.x W y.^ ^ ^ F.7.7.[ [ 7.7.^ y.y.7.[ a.7.y.7.a.7.y.W a.a.7.y.3.^ 7.^.8X|.|.W ^ ^ 7.7.F.W 7.7.[ 7.^ 7.7.7.F.[ F.F.7.[ 7.y.^ y.y.7.7.K [ W ^ W [ 7.[ 7.^ y.7.7.7.a.F.7.a.7.7.[ y.^ 7.W 7.a.7.7.F.a.a.[ !.>X8XF.F.7.F.y.F.y.y.y.a.a.F.^ y.y.^ 7.F.F.a.7.7.y.y.[ 7.y.y.7.a.[ F.7.y.W 7.7.^ 7.F.7.[ 7.3.3.7.7.7.y.7.7.y.7.3.7.y.^ 3.7.^ G [ F.>X|.!.F.y.7.F.F.7.y.a.7.3.3.^ ^ ^ 3.3.W ^ ^ W 3.^ 7.^ W H y.^ ^ ",
"x ^ C W x ^ 7.C K ^ ^ ^ ^ W ^ W ^ ^ ^ W ^ ^ ^ 7.^ ^ W ^ 7.=X|.=X7.W 3.7.7.W 7.^ ^ 7.W 7.^ y.7.7.[ W [ 7.[ [ ^ ^ ^ [ [ [ G G ^ y.^ y.7.7.7.[ [ 7.7.a.[ 7.[ y.3.^ 7.a.7.F.y.^ 7.[ [ y.7.7.7.F.>X=X>X7.^ 7.7.a.y.7.[ 7.7.y.y.7.H 7.K 7.7.y.7.a.7.W 7.y.^ ^ ^ 7.W [ ^ G [ ^ [ y.^ 7.^ W [ F.7.y.7.y.[ F.F.F.y.y.[ 7.y.F.y.F.[ F.!.>X>X^.y.y.a.F.K F.[ 7.y.7.7.3.7.a.7.7.W a.7.F.^ y.W 3.K 3.[ 7.^ F.3.y.7.7.7.^ 7.^ ^ 7.[ y.7.[ [ 7.W [ 3.a.y.y.y.^ [ y.[ 7.H [ H 7.|.|.y.y.7.F.y.7.7.7.7.[ ^ ^ 7.7.3.7.W H 7.7.7.^ C W ^ 3.^ y.H ^ ",
"G ^ x 3.^ C ^ C x W C x ^ x ^ C H x ^ W W C 7.W ^ W W W ^ `.=X=XW ^ ^ y.^ [ y.y.^ 7.[ [ 7.7.^ W W 7.W W ^ W 7.^ ^ [ 7.[ [ [ H W [ W [ y.7.7.[ ^ G 7.[ 7.y.^ y.W ^ 7.y.7.y.3.7.[ 7.[ y.3.F.7.>X[.>X[ 7.^ a.[ a.7.7.W 7.^ y.7.3.7.[ ^ y.^ 7.[ 7.W y.^ 7.7.W W [ K G ^ 7.3.y.y.7.^ 7.[ [ [ ^ y.^ 7.y.y.7.^ y.a.7.[ y.[ F.7.y.y.[.8X>Xa.7.y.F.^ F.F.F.[ a.[ 3.^ 7.a.G 7.7.7.F.K 7.7.y.d [ [ [ y.^ W W ^ ^ W 7.y.7.^ 7.G ^ 3.7.7.3.[ [ [ [ y.W 7.[ 7.7.[ 7.W ^ [ 7.3.>X|.F.d y.F.7.3.y.W y.W G ^ W y.^ ^ ^ 3.a.W y.C ^ ^ K ^ ^ H ^ W ",
"^ W ^ W C ^ ^ H H W W ^ C ^ C C W ^ C W x ^ H ^ ^ H ^ H y.>X|.XX^ 7.^ ^ 7.7.7.^ [ [ W ^ ^ ^ [ y.[ W 7.^ G 7.[ [ H W G G d 7.G y.^ 7.^ [ 7.7.^ ^ ^ y.[ 7.^ y.7.[ 7.^ 7.^ 7.7.7.y.[ a.[ 3.W F.>X|.|.y.7.7.7.F.F.[ [ 7.[ y.7.y.7.a.y.a.7.G 7.^ 7.[ 7.y.[ y.^ 7.^ G [ 7.W 7.[ 7.^ 7.^ W [ 3.W !.7.[ 7.y.7.y.^ y.^ y.[ F.y.7.W y.F.=X=X!.y.7.F.3.F.7.^ 3.3.3.G y.y.W [ 7.[ [ 3.y.^ 7.^ ^ ^ 7.G 7.H y.7.y.7.^ 3.7.W [ 7.[ [ 7.^ ^ [ W G 7.7.y.^ 7.a.y.7.[ 7.[ [ 7.[ F.|.=X!.F.[ a.7.7.a.7.3.[ G 7.^ ^ ^ 7.W 3.^ y.^ ^ ^ 7.^ ^ ^ x ^ H ",
"W ^ ^ W ^ ^ K W ^ H 7.^ ^ H 7.H ^ C ^ H ^ x 7.^ ^ x 7.^ F.=X8X|.a.^ y.7.y.W y.[ a.3.7.[ ^ ^ 3.[ 7.W [ ^ 7.[ 7.[ ^ G ^ x [ W 7.^ [ ^ y.[ 7.^ ^ y.7.7.7.7.7.a.^ 3.[ [ 7.3.7.^ 7.K 3.7.[ y.3.F.wX>X>XW y.3.y.y.3.7.^ [ y.[ F.^ 3.7.[ 7.7.!.y.y.F.[ 7.7.y.7.y.[ ^ ^ y.[ 7.7.7.^ ^ 7.[ y.7.[ 7.7.y.7.W ^ y.a.y.y.F.G y.K F.7.y.y.`.|.>X!.!.F.a.y.y.W ^ y.7.7.3.7.7.y.F.7.7.[ 7.7.W y.7.H 3.7.^ 7.^ [ 7.3.y.[ 7.7.a.G [ 7.7.7.^ y.7.^ [ 7.y.7.y.7.7.[ [ 7.7.[ y.[ y.!.=X|.[.!.y.y.F.[ y.^ 7.7.[ [ 3.^ 3.^ 7.7.y.7.3.^ 3.^ ^ C W H ^ ^ ",
"H W W C H x W C ^ ^ ^ H ^ ^ ^ H ^ W ^ C W ^ 3.^ ^ ^ C ^ y.8X=X=XF.C ^ 7.7.^ [ a.[ y.7.7.3.7.[ [ [ [ H [ G ^ W [ W ^ W ^ 7.K 7.G y.y.[ y.7.[ x 7.W 7.7.y.[ y.[ 7.7.y.^ ^ 3.y.^ y.7.^ [ [ 7.`.>X=X|.a.[ [ 7.[ 3.7.[ 7.7.[ W y.W 3.F.7.W F.y.7.y.K 3.7.y.7.a.y.W y.3.W 7.W 3.7.x ^ ^ W ^ W y.y.[ 7.^ y.[ 3.K a.7.a.3.y.3.7.3.7.^.|.8X`.F.F.W y.y.K 7.y.^ y.^ y.^ [ y.y.7.7.W [ 7.W G 7.[ ^ [ 7.G 7.W 7.y.7.d F.7.7.x y.3.a.[ F.[ F.7.y.[ F.K 7.7.7.[ a.3.y.[ y.^ !.>X>X`.^.y.F.F.^ y.7.^ 7.3.7.K [ y.^ 7.y.7.y.^ ^ H x C H W 3.H H ",
"W C ^ ^ ^ x ^ C C C ^ H 7.^ W H ^ W C W ^ 7.W ^ ^ H C W ^ [.=X|.3.7.7.^ y.y.[ [ 7.[ y.^ [ [ [ [ 7.^ ^ ^ [ [ ^ ^ [ [ ^ G K W 3.^ 7.7.W [ 7.^ W [ [ ^ ^ G 7.3.[ 3.W [ [ [ [ 7.F.7.7.^ 7.^ 7.W >XXX>XW 7.7.^ [ y.7.3.7.7.[ W 3.y.[ K 3.[ a.[ 7.y.^ y.3.7.W 7.7.7.^ [ [ y.[ 7.7.G ^ ^ H 7.^ [ y.y.W [ ^ 7.7.7.7.7.7.7.7.7.7.7.K y.|.[.F.y.y.F.y.7.3.y.7.7.7.y.7.7.3.3.7.7.y.[ 7.7.y.a.7.7.^ y.7.7.^ [ 3.3.y.y.[ 3.[ 7.[ 7.7.^ 7.[ 7.7.3.7.^ [ [ a.3.y.^ H y.^ ^ 7.3.8X=X`.K y.7.F.y.7.^ 7.7.7.7.7.W y.^ y.3.^ y.^ 7.^ W ^ H ^ ^ ^ W ",
"W 7.^ ^ C ^ W C x x x x C W W C x W C C C ^ 7.^ H W W W ^ =X|.|.^ H 3.7.[ 7.3.7.W ^ ^ 7.[ 7.[ 3.W ^ W W [ ^ 7.H y.W ^ x W ^ 7.^ G 3.[ 7.^ 7.[ [ [ K [ ^ 7.^ K 7.[ [ ^ ^ W y.H [ [ 7.7.W 7.F.|.>X[.W [ [ W 7.K 7.[ [ ^ y.[ [ ^ [ W 7.W 7.G y.[ [ 7.y.[ [ [ 7.[ H 7.[ [ F.H ^ ^ [ W K G ^ ^ 3.[ [ H [ [ W [ y.y.7.[ y.y.7.[ 7.!.>X[.F.y.F.[ y.[ 7.^ 7.y.y.^ [ [ 7.[ 7.^ W W y.W [ ^ G ^ ^ 7.7.[ y.G y.7.y.H 7.[ 7.[ 7.[ [ 3.F 7.[ ^ 7.3.^ 3.7.W 7.G H [ [ [ [ y.!.|.>X!.F.^ [ ^ 7.[ 7.7.7.^ [ 7.^ 7.^ ^ 3.^ 7.^ ^ W 7.W ^ C H ^ ^ ",
"H C W C ^ W x C C x ^ ^ ^ H ^ C ^ C 7.x H W C ^ y.3.W H 3.=X=X|.7.C F.y.3.[ 7.G 7.y.^ ^ H [ [ W [ ^ 7.[ ^ [ G ^ W 7.H G W y.^ ^ y.W 7.7.K ^ 7.^ [ [ [ [ y.7.y.y.F.y.7.7.^ [ [ y.y.y.a.7.7.F.>X|.|.^ 3.a.^ 7.7.y.7.7.W y.7.F.H 3.y.[ 7.[ F.7.7.F.F.[ 7.W y.[ G ^ y.G 3.G 7.7.[ W [ [ 7.7.H F.7.a.`.7.a.[ 7.3.3.7.F.7.F.y.3.7.`.>X|.W F.y.F.3.7.[ 7.7.F.^ [ ^ 7.[ 7.^ 3.[ 7.[ ^ 7.7.^ ^ H y.y.y.W x 3.y.7.3.7.[ 7.7.7.W 7.[ 7.7.7.3.W [ [ [ 3.3.y.y.^ 3.^ [ a.^ F.8X=XF.d [ 7.y.3.7.^ [ [ H [ ^ 7.7.y.^ 3.7.W H C W H ^ ^ ^ W x ^ ",
"^ ^ ^ C C H ^ x C ^ W C ^ C ^ W W W ^ ^ ^ ^ ^ ^ W ^ W W F.=X=X|.7.7.^ y.^ ^ 7.W [ [ ^ 7.[ W 7.W [ K ^ [ H W ^ d ^ ^ [ [ H [ W W F.7.W 7.G [ [ 3.[ a.W 3.7.7.7.G [ ^ W [ [ [ 7.[ W [ [ [ 7.y.|.>X>X7.[ K 7.[ 7.^ 7.^ W y.3.7.y.7.7.7.y.7.^ 3.[ y.7.F.[ y.G y.W ^ x ^ K [ G H 7.7.^ [ ^ 7.[ [ 3.[ [ 3.7.7.7.3.7.3.y.y.y.y.[ ^ y.8XXXF.a.3.7.F.y.y.a.3.[ a.a.y.[ 7.W 7.K 7.^ 3.W 7.7.7.[ W [ x [ [ ^ 7.K y.^ 7.^ y.W W ^ ^ [ [ [ [ ^ [ W W [ 7.^ W ^ 7.7.3.^ ^ W F.=X|.F.F.W y.^ 7.[ [ 7.7.7.y.[ y.y.y.^ x ^ ^ ^ ^ ^ 3.^ ^ W ^ H ^ ",
"^ 7.H ^ ^ H C W H W W W H W ^ W ^ 7.7.^ 7.^ 7.^ K ^ ^ C W =X|.[.7.y.y.^ F.7.y.y.y.[ ^ ^ ^ y.W [ ^ W ^ W [ ^ ^ x [ d [ 7.y.H 7.[ 7.W 7.K 7.^ H y.[ 7.y.y.7.^ 3.^ [ [ 7.^ 7.[ ^ [ [ 3.[ 7.7.^ >X|.XX3.F.[ 3.a.F.[ ^ 7.y.^ F.7.7.7.a.3.3.^ F.[ y.7.y.[ a.7.7.[ y.^ ^ [ W [ [ 3.K ^ G 7.7.7.7.F.7.7.7.[ F.7.a.3.3.7.y.7.a.^ 3.7.`.>X>XF.a.F.F.[ F.7.y.F.y.7.7.7.y.[ ^ 7.[ [ 7.^ y.G ^ G [ [ W [ [ W 7.7.y.7.^ 3.^ W y.7.7.3.3.7.7.^ 7.3.7.K [ 7.^ 7.7.y.y.y.^ ^ 7.a.=X=XF.[ 3.7.3.y.y.y.7.[ ^ W 3.7.3.F.y.7.3.^ 7.7.7.^ ^ ^ H ^ H 3.",
"W C C C C ^ H x x C W ^ ^ W W ^ x ^ W ^ W ^ C W ^ W W ^ y.>X|.[.7.y.a.y.F.7.7.7.[ 7.W F.W [ W W [ G 7.3.W y.y.G + x ^ u W [ G 7.7.W ^ 7.y.G W a.^ [ ^ ^ y.7.W ^ ^ [ [ a.^ 7.^ y.7.7.W ^ 3.F.XX[.[.G 7.y.y.7.y.a.^ W y.F.y.y.[ F.7.7.y.!.y.F.7.y.7.W W ^ W [ ^ 7.[ W G F F.F.[ 7.G [ ^ ^ y.y.[ F.y.y.y.F.[ a.^ 7.7.y.y.7.^ 7.`.>XXX7.y.7.y.F.H y.[ y.F.y.y.7.G y.H ^ [ [ W [ y.^ [ 7.* d * x 7.x ^ [ [ y.7.F.y.[ ^ ^ 3.W [ 7.^ ^ y.3.W 7.^ ^ ^ y.^ 7.^ y.[ y.G }.|.|.!.F.F.y.y.7.[ y.W F.[ [ G [ ^ y.7.G ^ ^ ^ ^ W W y.y.H ^ W ^ ",
"H W ^ C W d C ^ H C ^ ^ 7.C y.x ^ ^ y.W ^ 7.H ^ W C ^ ^ 7.>X8XXXy.7.7.[ a.3.[ F.W a.[ [ K ^ F.^ 7.7.y.^ [ [ 7.[ x G [ [ K W y.7.W ^ ^ ^ ^ [ W x ^ [ [ ^ 7.^ 3.y.y.[ a.[ 7.[ ^ [ ^ ^ W ^ K y.XX|.|.y.7.7.y.[ 7.7.a.7.[ a.^ y.y.y.[ 7.3.7.!.7.y.[ [ [ [ a.W ^ 7.a.y.[ 7.[ 7.a.3.[ 7.[ ^ 7.3.[ y.7.7.^ [ 7.y.[ ^ 7.F.[ y.[ ^ 7.F.>X>X!.y.7.a.y.[ 7.7.7.7.y.7.a.7.y.H y.F.y.F.3.[ 3.^ x 7.G W G 3.[ y.[ 7.3.3.[ y.G 7.^ H ^ G 7.^ 7.y.H [ 7.^ ^ 7.7.[ G F.y.W 7.[ F.>X>X!.!.y.7.7.[ 7.G y.7.[ 7.3.[ 7.x 3.^ a.3.7.^ C ^ ^ W ^ ^ C H ",
"x x C C C C x H C ^ W ^ H ^ H W W W C ^ ^ ^ C C W ^ H ^ 7.8X=X|.a.^ [ a.7.y.y.W 7.7.^ ^ y.^ 7.W 7.[ [ 7.[ ^ x W [ W ^ W [ W ^ W [ [ ^ G ^ y.G [ ^ 7.x G W [ W ^ W [ [ G [ 7.K ^ [ [ [ 7.7.y.|.>X|.[ ^ K 7.^ F.W K F.K 7.7.y.7.^ y.7.7.y.y.y.3.[ [ [ G y.7.^ 7.7.^ [ ^ ^ [ [ [ [ ^ ^ ^ 7.[ a.^ ^ y.^ [ 7.7.7.F.G 3.3.[ G 7.7.!.8X=X`.7.7.W F.[ 7.3.y.7.7.7.F.7.^ ^ y.^ 7.3.[ ^ G y.H ^ W ^ G x y.3.^ y.[ [ 3.7.W W [ [ W ^ 7.[ 7.7.y.[ 7.[ [ [ y.K y.3.7.[ W [ F.=X8XF.^.[ [ 7.7.^ 7.7.7.W 3.^ 7.7.y.7.y.^ ^ W W C ^ ^ H C C W x ",
"C W C W W W H H C W W ^ ^ ^ C W ^ ^ ^ ^ y.W ^ W 7.^ ^ W y.|.wX=Xy.3.3.H ^ ^ 7.G G 7.^ y.7.7.^ H 7.^ W ^ [ [ G K ^ ^ H y.W ^ G G G W ^ 3.7.7.^ G [ W 7.W G [ [ H ^ ^ [ [ [ ^ ^ F.F.[ [ [ x F.>X>X|.7.[ H 7.y.7.y.y.y.7.7.[ 3.y.3.y.7.y.y.7.7.y.7.^ 7.[ ^ y.7.7.[ 7.^ 3.^ 7.H y.[ [ 7.^ 3.y.^ y.7.7.7.7.y.y.7.y.^ y.K F.3.y.^ !.|.=XF.y.^ 7.7.y.a.y.G y.y.y.7.7.7.7.7.a.7.7.K K [ 7.W ^ 7.7.[ [ ^ y.7.[ 3.[ [ y.[ [ G 7.a.7.y.y.^ y.y.[ [ y.K K 7.y.3.F.G y.y.W 3.XX|.F.7.7.y.^ 7.7.y.y.y.7.7.^ ^ ^ 3.7.7.3.^ ^ W y.G H 7.^ ^ H W ",
"C ^ x W x C ^ H ^ C e ^ W C C 7.7.y.^ W 7.W 7.^ C ^ W x ^ |.=X8X^ ^ ^ ^ 7.7.y.[ 7.^ W W [ W ^ 3.^ y.y.W G G H ^ ^ ^ ^ [ W 7.[ 7.x [ [ K [ [ y.^ 7.a.W [ W ^ x 7.3.7.[ y.K 7.^ 7.W [ 7.W ^ y.>X>X|.7.^ ^ [ y.[ y.7.x [ a.7.y.y.7.7.a.[ F.[ W y.^ ^ W [ W F.a.[ a.[ 7.3.d 3.7.[ G [ y.W y.[ a.y.^ y.7.[ 3.F.F.3.7.[ 3.7.7.7.W F.8X|.F.7.y.y.3.7.7.[ a.y.7.^ G 7.y.y.^.3.7.[ [ [ 7.[ [ x K W F.[ H ^ ^ W y.7.y.F.7.^ ^ [ W x 7.^ [ 7.y.x ^ ^ y.[ ^ ^ 7.[ [ 7.3.7.y.>X>Xy.d [ F.7.^ ^ F.G y.y.[ [ 7.[ 3.W 7.C y.x C C H ^ 7.C ^ ^ K ",
"x C C x C C W ^ W W C ^ d H ^ 7.7.^ y.^ ^ C ^ W ^ C ^ ^ F.=X=X=XF.W y.7.[ y.[ 7.[ [ ^ H ^ [ 3.[ 7.W [ 3.H W x W W ^ ^ ^ [ W W W [ [ [ [ 7.^ W 7.y.3.7.[ ^ 7.7.H K 7.y.[ 7.W [ 3.[ [ [ [ ^ 7.wX|.|.^ 7.y.K 7.7.7.^ 3.[ y.F.[ F.y.F.7.F.a.F.y.[ 7.7.[ [ W ^ 7.^ a.F.7.y.[ 7.[ 3.3.H ^ ^ 7.7.7.^ ^ 7.[ [ 7.7.7.7.7.7.7.7.y.7.[ ^.>X>X`.F.7.y.7.y.F.y.F.7.y.F.y.y.y.y.3.a.F.[ G ^ ^ G [ [ [ 7.[ [ ^ d G 3.7.y.7.W ^ ^ W ^ 3.y.^ y.3.7.3.7.3.[ 7.y.^ 7.x F.a.H ^ ^ y.|.|.F.F.7.x y.7.y.^ y.y.y.7.7.^ 7.H y.y.^ 3.7.W W W ^ ^ 3.H ^ W ",
"C W C W C H ^ W W ^ C ^ ^ ^ ^ ^ ^ 3.^ ^ ^ ^ C W H W W H 3.=X=X=Xy.7.G 3.7.[ [ W 7.y.W ^ [ [ [ 7.[ [ [ W ^ 3.[ W W [ ^ 7.[ [ x K 3.^ [ ^ 7.^ 3.[ y.y.W y.7.G [ ^ G a.K ^ ^ ^ y.^ 7.^ [ [ G y.>X>X`.y.^ ^ 7.7.y.3.7.[ [ 3.7.7.3.^ 7.3.7.7.3.7.y.y.7.3.a.y.y.7.7.y.x 7.7.y.y.^ W G [ 7.[ y.[ F.[ W [ [ ^ y.7.7.y.a.[ F.F.F.^ 7.!.8X}.[.7.7.y.7.F.y.7.F.3.F.y.W [ y.a.y.7.3.^ 7.7.^ y.^ G 7.H [ [ [ G x [ G 7.3.7.y.^ 7.[ [ [ G [ ^ 7.7.^ y.^ 3.7.7.[ 7.7.7.7.[ [ y.|.=X!.F.[ y.7.7.[ [ a.y.[ y.H 7.[ ^ W 7.^ ^ W W ^ 7.H ^ C ^ ^ ^ ",
"H C x ^ C ^ K x e ^ x ^ 7.C ^ 7.7.W H y.y.W ^ x ^ H ^ W C [.8X=X^ 7.F.[ F.[ 7.7.W 7.3.7.F.W [ 7.7.[ ^ ^ [ ^ [ [ W [ 7.y.y.x ^ G 7.[ ^ G ^ H 7.7.W 7.[ [ 7.^ W ^ 7.[ [ W 7.^ 3.^ 7.7.[ W [ ^ >X>XXX[ 7.[ 7.[ y.y.7.y.[ 7.F.[ y.7.7.7.y.a.y.7.a.[ 7.^ 7.7.7.7.y.^ ^ [ y.y.y.^ [ 7.^ y.y.W a.W 7.W [ [ a.7.y.7.7.^ F.F.y.^ 7.y.y.wX>XF.y.7.a.a.[ y.y.a.7.[ 7.a.7.7.7.7.^ ^ 7.[ 7.^ y.H W W 7.y.G x x H K y.G [ H F H 7.x W [ W ^ [ y.7.^ 7.7.^ [ [ [ 7.a.[ G x [ 7.wX>X7.x [ K 3.^ y.y.y.7.3.[ y.7.W H y.^ ^ C ^ W ^ H H ^ W W C W ",
"x W C ^ x C W C H W H C x W H ^ ^ 7.7.K W ^ x ^ C H A W y.=X=X=X3.y.[ K [ ^ K y.G ^ G [ ^ 7.7.[ x ^ W ^ K K [ 7.W 7.[ 7.^ 3.^ d x [ ^ 7.G ^ [ a.^ 7.[ y.[ [ ^ 7.7.^ 7.^ [ ^ ^ 3.^ 7.[ [ W F.=X>XXXy.7.[ ^ 3.3.^ ^ x ^ [ [ a.W 3.3.y.y.[ ^ y.7.K [ 7.^ y.[ 7.3.3.7.7.7.F.7.7.y.^ [ y.7.7.[ a.[ y.G ^ 3.7.[ 7.7.7.W F.7.y.[ ^ F.8X|.7.y.F.3.[ [ 3.^ 3.[ 7.a.7.7.y.y.F.7.^ [ ^ y.x ^ ^ W y.[ 7.W ^ ^ W [ ^ W y.[ 7.G [ G G H ^ W ^ 7.y.^ ^ H y.[ [ W 7.3.7.[ 7.^ `.>X>XF.y.7.y.7.G 7.7.3.7.3.K H [ ^ H ^ ^ W 3.^ ^ x ^ ^ ^ H ^ W ^ ",
"^ C C W C C x C ^ ^ ^ x ^ 7.F.^ ^ ^ 7.^ 3.^ 7.W ^ ^ ^ ^ y.=X=X|.7.7.7.7.7.^ W ^ [ W ^ W 7.^ 3.3.7.W [ ^ [ W 7.[ [ [ a.3.^ ^ ^ ^ W ^ [ W 7.^ [ ^ 7.7.y.[ 7.[ 7.^ ^ ^ [ [ 3.7.7.G 7.^ [ K 7.y.8X>XXX[ a.[ y.^ 7.7.y.y.7.y.F.7.3.7.[ ^ W [ ^ ^ 7.W 7.^ 3.y.7.[ y.a.7.y.a.7.a.7.F.^ 7.7.7.7.7.y.3.^ 7.W 7.^ y.[ y.^ y.y.3.y.[ ^ F.=X>X!.7.y.7.[ [ 7.[ y.y.y.y.7.y.y.y.7.y.!.y.y.7.^ 7.^ 7.7.a.3.7.^ ^ H [ [ ^ ^ 7.[ W ^ [ [ G [ 7.H F.K 7.G ^ ^ [ [ 7.[ y.7.[ 7.3.W 8X=X`.H [ [ y.7.a.7.F.^ [ [ ^ [ 7.^ [ W ^ 3.^ W ^ C ^ H ^ H 7.^ ",
"C ^ ^ x C x C ^ C C x W W 3.^ ^ C H x ^ C ^ C ^ ^ ^ ^ W ^ =X|.=X7.[ ^ y.7.W W d ^ W [ [ x W ^ ^ 7.^ x [ [ 7.^ ^ 7.y.F.^ [ 7.7.W W 7.^ [ ^ 7.7.^ ^ 7.[ ^ x ^ 3.W 7.^ y.W W [ [ [ ^ y.^ [ [ y.>X|.|.7.W 7.7.7.7.[ W y.K [ W y.3.y.^ [ y.[ ^ [ 7.7.[ y.[ ^ y.y.[ 7.7.[ a.7.[ y.7.7.7.W G y.y.F.7.7.y.G 7.^ [ y.7.[ a.a.3.y.^ F.W 8XXX}.3.7.7.y.y.y.7.7.[ 7.[ 7.y.7.7.a.y.F.y.y.y.^ ^ y.y.7.[ H [ ^ [ y.y.a.W [ ^ ^ H ^ [ 7.d y.[ y.K 3.K [ K [ y.W W 7.G y.7.y.y.y.>X8Xy.^.y.7.3.y.3.y.7.7.K y.7.7.[ F.7.K y.7.^ x W C 7.^ x 3.H H ",
"W C W C C a W C H C C C ^ C 7.^ ^ W ^ W W ^ ^ C ^ ^ W C ^ =X8X|.7.[ 7.^ 7.3.7.[ G [ [ ^ 7.7.7.W 7.^ 7.3.y.W 7.^ y.7.7.^ [ [ [ K 7.[ 7.^ [ G G [ ^ ^ G 3.7.[ [ [ y.G [ G W ^ [ F.3.H ^ W ^ F.>X=X>X7.y.3.y.y.7.[ [ 7.[ [ y.[ y.7.K 7.7.y.7.7.7.7.7.7.y.^ y.y.y.7.a.y.y.y.F.y.F.G y.y.y.7.y.7.y.3.y.y.7.[ y.3.7.7.y.^ 7.^ 7.7.^.8X8XF.y.7.y.y.F.y.y.3.7.3.y.F.y.7.[ [ 7.7.a.W y.K 7.F.y.[ ^ 7.[ 7.7.^ y.H 7.7.u ^ ^ G [ 7.W 3.[ H 7.[ 7.[ ^ [ y.3.[ 7.7.^ ^ y.3.F.8XwX`.7.y.y.3.7.y.y.7.7.[ 7.7.[ 7.G 7.7.3.7.^ H ^ W ^ ^ ^ ^ K C ",
"x x C W H C W ^ C W C H y.W d ^ C W W W C 7.7.^ W ^ x ^ W =X|.|.x ^ [ 3.[ 7.[ K [ W G 7.^ W ^ 7.x [ G W [ ^ y.[ H 7.W 7.[ [ [ 7.G ^ 3.7.^ W 7.^ W ^ G [ y.[ [ ^ [ 7.^ ^ [ 7.7.F.[ 7.^ ^ ^ y.>X=X[.7.7.7.7.a.7.3.G y.[ y.[ 7.3.7.7.y.3.a.[ a.F.7.[ [ ^ [ y.y.7.F.x F.F.F.F.[ y.F.^ y.3.a.3.7.3.y.[ 7.7.7.W 7.7.7.7.y.7.^ 7.7.[ XX|.^ a.y.7.7.^ y.7.G 7.y.^ ^ ^ y.[ ^ ^ 7.[ [ y.y.F.F.7.7.^ 7.H y.[ 3.[ y.[ 7.x W W y.H y.[ a.7.7.W y.W [ 7.7.7.^ 7.^ [ [ a.F.[ K >XXXF.3.^ ^ y.y.^ W ^ W [ ^ [ y.[ W [ 7.^ ^ K G ^ 3.W ^ ^ 7.H C ",
"7.W x x C x C C ^ ^ W C x H K 3.7.^ ^ x W C o.^ H ^ F.^ 7.=X|.[.3.^ ^ ^ ^ H 7.7.G [ [ y.^ ^ 3.7.a.[ y.[ G W 7.^ 3.[ ^ ^ F.y.[ [ 7.[ [ 3.H K W ^ F.a.W K G [ [ [ y.a.7.[ 7.[ ^ [ [ G ^ ^ [ y.8X=X|.y.y.y.y.3.F.7.y.7.7.a.y.y.y.y.7.F.y.^ [ 3.F.[ F.7.7.3.y.y.F.F.F.F.y.F.F.y.y.F.`.y.F.F.!.3.y.7.a.y.[ F.3.[ F.[ F.7.[ 3.y.y.F.}.=XF.y.a.[ 7.7.7.3.y.y.[ W 3.F.y.3.y.y.7.F.y.F.[ y.F.a.3.!.[ y.W F.F.[ 7.K G ^ G 7.F.y.7.^ W y.y.y.^ ^ ^ G [ F.K ^ ^ 7.[ 7.7.y.F.`.|.F.F.a.7.F.y.[ [ 3.[ ^ [ y.y.y.y.^ F.W.y.3.^ ^ ^ ^ W x ^ 7.W ",
"C x C C H C H C x ^ x ^ C x 3.^ W K H W H ^ 7.y.^ ^ H C x |.[.[.K ^ [ [ [ [ [ [ G W W W y.^ ^ [ 7.[ K [ ^ 7.7.7.^ G W 7.7.^ G a.7.7.7.[ W [ ^ ^ ^ W W [ ^ ^ ^ F.7.7.[ W W ^ W [ [ G [ H ^ W |.!.[.3.7.7.7.7.y.^ ^ ^ ^ [ a.F.y.y.y.[ 7.[ ^ a.F.3.[ 7.W y.F.F.^ [ F.y.7.F.F.^.[ a.y.W 7.a.a.y.y.y.7.y.^ 7.7.y.[ 7.7.[ 7.^ 3.H W XX[.F.y.[ 3.7.y.y.7.7.[ ^ 7.F.y.[ 7.y.7.7.G a.7.a.7.7.[ 7.7.y.7.[ ^ 7.[ 7.y.y.[ [ G ^ 7.^ [ y.^ y.7.G 7.[ ^ 7.W ^ y.y.W 7.7.y.7.H XX[.F.!.F.a.y.a.7.y.[ [ F.y.y.y.7.^ ^ 7.^ ^ 7.W W ^ H C C x W 7.",
"C ^ ^ x K C 3.^ C C ^ ^ ^ y.C 3.^ ^ W C W ^ W ^ H ^ ^ H F.=X=X=X^ W 3.G [ W G [ H H W W y.^ F.7.F.y.7.[ 7.7.y.W 7.^ F.^ F.3.F.W G 7.[ [ [ 3.F.^ [ [ y.W 7.y.7.^ 7.F.^ G ^ 3.y.[ 7.y.[ 7.3.F.>X=X>X^ [ W [ [ a.7.^ 3.y.3.F.F.F.F.a.y.F.y.F.F.F.F.[ a.!.F.y.y.F.!.y.F.!.!.^.F.`.^.x y.!.F.a.F.y.F.F.y.F.7.W 7.y.y.G F.y.7.y.3.}.8X8X7.7.y.7.[ y.F.[ a.a.F.7.y.y.a.7.7.F.F.a.y.G F.|.y.F.F.7.3.7.y.y.^ y.F.7.y.y.F.^ u 7.7.y.F.y.!.7.7.^ [ [ [ y.^ F.^ ^.F.7.H y.`.wX>XF.y.a.a.7.y.y.y.7.F.y.F.F.F.!.7.y.[ C ^ ^ y.y.3.y.H ^ d W ^ ",
"d H x d H x x e a C x a d x x C x ^ a x x W d x a x x x [.>X|.|.^ x x x x W x x G x x G x H d G G G d [ W G d ^ W x x x ^ x x x d ^ x x [ x W G G d ^ G W ^ G G W ^ x W G W x W x x x d G |.|.>X|.G d d G K x x W G x [ G ^ y.G u [ G [ ^ ^ [ [ W ^ 7.^ K [ [ [ H 3.^ 7.[ G x G W d [ 7.W [ [ 7.^ ^ G G K W W G d x x x d ^ >X8XwX|.x d G d G ^ H G x G G [ K K G d d G ^ ^ x G x [ G 3.x [ x G ^ 4 d y.G G u x G 7 u G G H x ^ ^ x G W G W x x x d G G x d W 8XXX>X`.d H W W G ^ G ^ [ H [ x d G W u W x W C C W d x C x 4 e d ",
"[.`.`.[.[.[.|.[.[.[.|.[.|.|.=X|.[.[.|.|.|.|.|.|.|.|.=X|.=X=X>X>X=X|.>X|.=X|.=X[.=X|.>X>X=X>X8X>X>X=XwX>X=XXX>XXX>X>X>X>X=X>X>X>X>X>X=X>X>X>X>X>X=X|.=X>X>X>XwXXX=X|.>X|.>X|.>X>X>X=X>X>X=X>X>X>X>X|.=X|.|.>X8X>X=X>X>X>X=X|.>X>X>X|.>X>X|.>X=X=X=X|.>X|.}.=XXX>X>X>X>X>X>X>X>X>X>X=X8X>X>X[.=X|.>X>X>X=X>X|.8X>X>X>X8X>X8X=XwX>X>X>XwX>X>X>X>X=X=X>X=X=X>XXX=X=X>X=X>X=X=X=X=X>X=X|.>X>X>X>X>XXX|.|.>X|.>X>X=X>X|.|.|.|.|.|.|.|.XX|.=X>X|.|.,X|.=X[.|.>X>X=X=X=X=XXX|.[.|.[.XX|.[.[.|.XX[.|.|.|.|.[.XX}.[.[.|.|.|.[.|.`.|.[.[.|.",
"[.[.[.[.|.|.|.|.|.|.|.[.|.>X=X|.=X|.=X=X=X=X|.=X=X=X|.=X=X8X=X=X=X|.,X|.>X>X|.>X>X>X|.>X>X8X>X=X>X>X>X>X=XwX>X>X>X>X>X=X=X8X>X>X>X8X>X>X>X8X>X=XwX=X=X=X=X>X>X>X>X=X|.>X>X>X|.=X>X>X=X>XwX=X,X8X>X>X|.=X=X>XXX>X=X>X|.>X>X>X|.>X8X=X=X>X=X=X>X=X>X>X>X>X>X8X>X>X>X=X=X>X=X8X=X=X=X>X>X>X=X>X>X>X>X>X>X8X>X>X>X=X>X8X>X>X8X>X>X>X>X>X>X>X>X>X=X>X=X>X>X>X=X8X>X=X|.=X=X8X>X>X8X>X>X>X=X=X=X>X|.>X>X>X>X=X8X=X>X>XXX,X|.XX|.|.|.>XXX>XXX=X,X,X[.=X>X|.|.>X|.=X>X>X|.=X|.|.|.XX=X>X|.|.[.XX=X>X|.>X[.|.[.|.=X[.|.|.|.[.[.|.[.|.|.=X",
"=X=X8X8XyX8X8X8X8XwXwXwXyX8XyXyXyX8XyXyXyXwXyXwXyX8X8X=XyX8XyX8XyXyXfX8XyXhXfXhXfXyXfXyXyXyXfXyXyXyXyXyXyX8XpXyXyX8X8X8XpX>X=X[.|.yX8XyXyXyXyXyXfXhXyXyXhXpXpXpXhX8XyXyXfXyXyXyXyXwXyXyXyXyXyXyXfXyXfXyXhXhXhXhXjXhXhXyXyXyXyXyXhXyXyXyXhXpXpXyXyXyX8X8XyX8XwX|.=X=X8X8XyXwX8XyXyXyXyXyXfXyXyXyXfXyXyXyXhXyXhXyXhXyXhXhXfXfXyXyXyX8XyXpXfXyXhXyXfXhXhXyXhXpXpX8XyXyXyXyXhXyXpXhXhX8X8X>X8X8X8X|.=X|.>X=XyX8X8X8XpXwXwXwXpX8XyXpXpXyXpX8XyXyXyXyXhXwX8XyXfXyXyXyXyXyXwX>XyXyXpXyXpX8X8X8XyXhXyXyXyX8X8X>XyX8X8X8XwX=X=X=X>X>X=X|.",
"y.7.F.^ W.y.^ ^ 3.C ^ y.7.y.F.`.W.!.F.3.P.F.y.`.W P.7.`.[.F.F.F.`.F.F.F.y.`.F.`.7.=XF.F.}.^.^.!.`.y.^.F.`.`.3.`.`.`.F.!.F.hXXX|.XX|.7.y.^.^.F.y.y.F.3.F.^.3.[ a.F.^.`.y.y.`.7.!.y.[ K F.!.|.`.^.}.y.F.7.[ >XF.F.!.}.!.!.!.>X[.`.`.[.!.y.y.=Xy.y.|.|.!.y.y.`.yX>X>X>X`.F.7.`.F.y.y.[ !.y.!.!.3.!.!.`.F.`.F.!.y.!.[.F.y.y.`.XX^.^.^.`.[.!.F.F.=XF.F.`.}.=X^.XX|.|.|.[.[.`.F.XXF.y.F.`.}.}.^.`.XX>X|.>X>XwXF.`.[.[.`.XX`.^.!.`.`.F.F.`.`.[.`.`.!.F.`.|.[.7.F.[.`.|.!.[.!.!.!.!.!.XX^.}.[.`.F.F.}.`.F.!.!.|.F.W.[.a.F.Q.[.`.W.`.3.[.",
"[.F.^ ^ 7.y.^ y.^ ^ 7.^ ^ H 7.7.^ 7.y.7.y.^ F.F.F.3.F.y.a.y.y.y.7.[ y.F.7.y.F.F.F.y.F.F.y.7.a.y.y.3.a.y.y.[ F.7.7.y.7.y.7.`.}.|.}.^ [ [ [ 7.y.[ ^ 7.a.y.^ 7.y.a.3.7.F.7.7.7.y.[ 7.3.7.y.y.7.y.F.a.F.F.7.7.y.7.y.y.7.^ 7.y.y.F.[ 7.7.y.^ 3.[ y.^ ^ 7.F.7.[ x `.>X=X^ H 7.^ H 7.^ [ ^ [ 3.7.W y.3.y.^ y.a.y.[ y.y.F.7.a.[ 7.[ 7.7.[ 7.^ 7.7.[ y.G a.7.7.G K [ y.7.3.y.7.7.y.[ [ 7.7.7.3.y.7.x 7.8X=X|.y.7.7.K 7.y.7.F.y.y.y.W 7.7.[ 7.[ W y.7.7.F.7.7.y.7.7.[ ^ [ 7.W y.7.y.7.y.7.[ 7.y.^ y.7.[ [ y.7.7.[ y.W W ^ y.^ y.7.^ ^ P.[.",
"[.!.^ 7.3.^ ^ ^ C ^ ^ ^ ^ 7.3.W 7.y.7.y.y.y.x F.7.3.y.3.7.7.^ y.[ y.7.y.3.[ 7.7.[ y.^ y.y.7.7.7.7.y.7.7.7.y.F.y.7.F.7.[ y.`.>X>X|.^ G ^ 7.7.^ W [ 3.[ a.y.7.^ 3.7.3.a.y.y.[ [ 7.7.7.[ F.y.F.7.y.7.y.7.F.a.y.3.^ 7.3.3.7.^ y.[ 7.^ ^ 3.y.7.3.7.[ ^ K 3.7.W 7.`.=X>Xy.W 7.[ 3.[ [ W [ G y.^ ^ [ 7.y.[ 3.F.F.F.7.y.7.a.y.F.^ y.^ [ W 7.[ F.[ [ y.[ 7.7.^ 7.[ 7.[ y.7.7.a.a.7.7.7.3.^ 7.y.F.[ 7.^ =X>X>X7.7.[ 3.y.^ 7.7.7.F.7.^ 7.y.y.7.3.7.7.y.F.[ 7.7.[ W W ^ [ K 7.7.7.y.^ 7.7.^ 7.^ ^ 7.[ a.7.a.[ ^ [ F.^ y.^ H ^ ^ ^ y.7.7.!.[.",
"[.7.^ ^ W 7.^ ^ F.^ K W ^ ^ 7.H 7.^ 7.^ 7.y.^ 7.7.3.^ ^ y.y.7.^ y.W ^ [ 7.7.[ 7.[ 3.a.^ F.[ F.7.y.^ 7.G y.7.7.7.7.^ 7.7.7.y.8X`.|.^ ^ G 7.[ 7.^ [ 7.W [ y.G y.W W [ 7.7.7.7.F.7.7.a.[ [ F.y.y.^ F.[ 7.[ F.a.[ 7.W 7.[ ^ y.7.7.y.y.W W G y.W a.[ ^ [ K 7.^ 3.F.>X8XH ^ ^ [ 7.[ ^ ^ [ [ K ^ K W ^ ^ 7.3.7.y.a.F.^ [ F.3.[ ^ y.7.^ [ 3.y.W ^ [ 7.[ 7.^ [ 7.7.3.^ H K a.[ [ K 7.[ 3.y.y.7.[ 3.7.y.>X>X|.7.G ^ 7.y.W y.W a.7.[ ^ 7.^ H [ y.^ 7.7.3.K 7.[ 3.W K W 3.[ W 7.7.^ 7.W ^ [ 7.^ H ^ 7.3.[ [ [ [ [ H ^ ^ ^ y.^ ^ y.C 7.^ 3.[.",
"`.F.^ W ^ 7.^ C ^ ^ W ^ 3.y.7.^ K G 3.W y.^ ^ ^ 7.7.^ 7.3.y.W F.7.7.3.7.7.y.[ F.[ 3.7.y.3.y.7.7.7.y.7.[ 7.7.7.7.a.[ 7.7.7.`.>X=X}.^ 7.y.^ y.F.^ [ [ ^ 7.W a.7.^ 7.7.G W 7.y.7.[ 7.[ ^ 3.F.F.[ [ 3.y.[ 7.[ [ ^ 7.[ G H K K 7.7.^ [ 7.7.[ y.7.7.7.3.7.[ 7.[ [ y.>X>Xy.K ^ [ [ [ y.H [ [ [ G 7.7.y.7.7.[ [ W y.W 7.[ 7.^ W W F.[ 3.^ [ [ [ [ 7.7.^ ^ W ^ ^ K ^ 3.[ 7.y.F.[ K y.y.F.[ 3.[ ^ [ y.W =X|.>X!.y.7.[ y.y.7.3.7.[ [ 7.3.^ ^ y.^ 7.^ ^ 3.W W 3.[ ^ W ^ W [ W ^ ^ [ ^ ^ [ 7.^ 3.[ [ [ ^ 7.^ 7.x ^ G W C 7.^ C ^ ^ ^ W ^ F.[.",
"|.!.^ ^ 7.7.^ 7.3.W ^ W ^ ^ y.H ^ 7.^ 3.^ ^ ^ H ^ W 7.^ 7.3.F.^ 3.^ [ y.a.[ y.^ 7.7.a.y.7.7.y.[ ^ 7.7.7.7.[ 7.y.y.7.7.7.y.[.|.|.}.[ 7.7.y.^ [ ^ [ 3.^ 7.W 7.7.7.3.7.y.^ 3.7.3.[ [ 7.7.^ 7.7.F.7.7.[ 7.7.7.7.^ 7.[ ^ ^ K 3.[ G ^ 7.[ 7.[ ^ [ [ [ 7.^ [ 7.[ [ |.>X=X3.y.W ^ [ [ 7.^ 7.^ W ^ [ 7.[ a.7.7.7.^ y.7.[ ^ W 7.7.7.7.7.7.[ 7.[ 3.7.[ ^ W [ G ^ W 7.3.W ^ 7.H y.3.a.7.^ W a.[ y.^ ^ 7.7.8X>XXX!.y.a.^ F.[ 7.H F.^ [ [ [ [ 7.3.y.[ 7.[ 7.[ 7.7.[ W [ [ a.[ G W ^ [ H W [ x W a.[ 3.^ [ ^ W [ ^ [ W W ^ ^ 7.y.^ y.^ ^ W `.|.",
"=XW.W y.W W ^ 7.^ ^ ^ ^ ^ ^ C ^ ^ ^ ^ ^ C ^ x K [ 3.7.^ 3.7.7.^ 7.3.[ [ [ x H ^ 7.[ [ F.7.y.7.7.y.^ y.y.3.y.a.^ 7.7.G F.7.}.|.|.|.7.7.W 7.7.x W 7.^ ^ 7.[ [ W 7.[ 3.7.^ 7.[ 3.W ^ 3.[ ^ 7.7.7.y.7.7.^ 7.7.3.[ ^ 7.H [ 7.a.W ^ W ^ 7.[ 7.^ W y.[ 7.7.^ 7.7.7.!.>X=XF.[ G 7.^ 7.^ K 7.^ ^ 7.7.H 3.7.y.7.7.7.7.[ y.7.7.[ 7.3.y.3.7.[ a.3.7.7.y.y.3.[ y.7.7.y.7.^ [ y.y.W [ [ F.F.y.7.^ [ y.W 7.[ 8X8X8XF.a.7.7.7.y.7.F.a.^ 3.[ [ 7.y.y.y.[ y.[ [ y.y.y.K W ^ ^ W [ G [ 7.^ [ ^ [ a.H W K x W 7.3.7.^ y.G y.3.7.^ ^ 7.7.G W y.^ F.=X",
"=XF.7.W 7.H ^ 7.y.^ ^ ^ 7.7.^ 7.^ ^ ^ W ^ ^ ^ ^ 7.W 7.7.7.7.3.W 3.H 7.F.y.y.3.^ 7.7.y.F.3.y.a.[ y.^ 3.y.y.y.a.[ ^ y.[ 7.y.7.=X[.}.W 7.7.[ 7.G [ ^ 7.7.^ [ [ [ [ 7.7.7.7.3.^ 7.[ 7.7.7.[ 7.[ [ K 7.[ 7.^ a.^ a.W 7.H [ 7.y.[ a.[ y.[ 7.x 3.^ 7.[ ^ [ H [ W [ F.8X=X^ 3.[ ^ ^ y.[ [ [ 7.7.7.[ a.3.7.^ 7.y.7.^ y.7.7.^ y.7.[ [ 7.7.G [ 7.3.3.y.7.W 7.[ W [ ^ y.7.W ^ ^ ^ y.[ 7.F.a.F.H ^ [ 7.^ [ >X>X>X^.x a.7.^ 7.y.y.7.^ y.W y.[ 7.a.y.7.y.[ y.[ ^ ^ ^ W 7.H W W W [ [ [ y.H 7.W ^ [ [ [ 7.7.3.^ ^ H ^ G ^ 3.7.7.y.H ^ ^ H 7.W.=X",
"[.!.^ ^ 3.7.3.3.^ ^ ^ ^ ^ ^ W 7.^ ^ 7.W G K ^ 7.^ ^ ^ y.^ 7.[ W 3.^ 7.y.H 3.W 7.[ 7.^ [ y.^ 7.y.[ 3.^ y.7.a.[ y.7.y.a.7.7.[.[.|.!.[ G F.G ^ [ W ^ ^ ^ W ^ 7.[ 7.[ [ 7.7.[ H [ [ [ ^ ^ y.3.y.3.[ G a.7.7.y.7.7.3.[ W ^ y.G [ W [ [ W [ ^ G [ [ [ 7.7.^ [ K W y.XX|.y.W G H G [ [ W K y.[ H y.W 7.W 7.3.W 7.y.K [ ^ ^ ^ 7.[ [ ^ y.[ ^ ^ 7.[ F.^ y.W 7.G ^ H ^ [ G 7.[ G 7.^ 7.7.y.W [ 7.7.H H ^ >X|.[.F.y.^ y.[ 7.3.[ 7.[ ^ 7.^ ^ G 7.[ 7.3.K ^ 7.3.^ 7.G G 3.H 7.G ^ [ [ 7.^ [ W ^ G K x K 3.[ [ x [ W [ W ^ ^ ^ 3.7.7.7.W ^ P.|.",
"=XW.^ 7.^ 7.y.^ H K ^ ^ y.3.H 7.^ ^ ^ ^ y.^ ^ ^ 7.^ ^ ^ 7.W W ^ y.[ 7.y.y.y.a.W 7.^ y.7.y.y.^ 7.3.7.F.y.7.y.3.y.a.F.F.7.y.[.>X>X}.[ 3.y.^ W [ [ W ^ 7.7.F.7.7.7.7.3.y.^ 7.W 3.[ G y.^ ^ y.^ 7.W ^ x ^ [ y.[ 7.7.^ y.^ W F.y.[ [ 7.y.7.7.7.7.K 7.y.^ 3.W K K !.>X=XF.^ 7.H W ^ d ^ G ^ ^ a.[ 7.F.[ a.F.y.[ y.a.[ 7.^ y.^ W [ 7.G [ ^ F.y.7.7.[ [ K W G G [ a.y.^ W W 3.[ y.^ 7.^ 7.W F.7.^ W W 8XpX|.W W x a.y.y.y.[ y.a.3.y.H ^ a.7.[ a.y.^ 7.[ [ G W [ 7.^ [ ^ G ^ K W ^ G ^ G 7.^ 7.W [ 7.y.W W [ W K 7.7.3.W ^ 3.3.^ 3.K P.=X",
"[.F.^ ^ y.y.^ 7.3.H W ^ W ^ ^ ^ ^ 3.^ y.^ ^ 7.W ^ 7.H 7.H ^ [ W a.y.W ^ 7.7.[ ^ 7.[ 3.F.^ 3.H 7.a.7.[ 7.3.7.^ y.[ 3.7.7.y.^.|.|.|.[ ^ G H ^ W 7.H ^ K [ [ 7.7.7.3.y.^ 7.7.[ 3.K W ^ 7.7.^ y.W F.[ H [ 7.3.7.y.[ 7.7.^ 7.W G 7.G ^ x G G ^ 7.y.7.[ 3.^ 7.H ^ `.>X=XF.K H W 7.[ [ W 7.W ^ [ 7.[ K [ [ K ^ y.^ ^ a.a.7.7.7.7.[ W 7.W [ 7.F.3.7.W ^ ^ H G [ G W W ^ ^ H [ a.[ 7.^ [ [ 3.7.7.W K G =XXX>XF.a.7.7.[ 3.[ F.[ [ y.y.W y.^ y.[ K 7.^ [ [ ^ H W K 7.^ [ ^ [ G ^ [ W W G G ^ ^ G W 7.^ H 7.[ [ [ ^ [ ^ ^ 7.^ ^ 7.y.W ^ F.[.",
"=X^ F.W y.7.^ ^ ^ C W ^ H K ^ ^ y.^ 3.^ ^ 7.7.3.3.y.^ W ^ 7.^ ^ F.W y.7.y.7.W ^ 7.7.7.y.7.y.7.7.3.y.7.y.y.[ 7.^ a.[ 7.[ y.y.XX[.XX^ y.x 7.^ !.7.^ W [ 7.[ [ 7.7.y.^ 7.^ 3.y.7.^ [ ^ ^ 7.[ 3.7.[ [ ^ 7.H ^ 7.y.W 7.^ 3.W [ [ G H [ W 3.^ 7.^ y.7.7.a.^ [ ^ [ F.=XXX7.^ ^ ^ 7.^.W ^ ^ [ ^ ^ W 7.[ 7.^ ^ F.7.^ F.7.a.7.[ 3.^ 7.y.7.^ 7.y.K [ ^ [ ^ 3.^ ^ ^ 7.^ ^ W 7.[ y.7.a.[ y.3.7.y.y.7.3.[ [ >X8X>X3.7.y.7.!.7.7.7.y.y.7.7.3.[ ^ 7.7.[ [ [ y.^ 7.7.7.K 7.H W W W W H W ^ u G ^ y.^ [ [ ^ 7.^ ^ [ ^ y.[ ^ 3.^ ^ 3.^ y.3.^ y.^ |.",
"[.y.H C 7.F.^ y.y.^ W ^ H W ^ 7.C 7.y.W ^ 7.^ W W K G ^ ^ ^ W y.[ 7.^ ^ [ [ ^ 7.W 7.7.y.3.^ [ 7.K y.7.y.H y.^ 7.[ 7.^ 3.[ F.XXXX|.^ ^ ^ [ ^ ^ H ^ 7.[ [ G 7.^ [ 7.[ 7.7.W ^ 7.y.[ G ^ ^ ^ y.[ 3.G y.^ 7.W W W W W ^ a.[ H ^ ^ x [ W ^ W y.[ W y.F.7.^ W ^ ^ F.>XXXy.^ ^ ^ H [ ^ W 7.^ 7.H ^ H [ ^ ^ 7.7.[ 7.7.y.a.K [ y.7.^ ^ [ [ 7.^ 7.[ [ d 7.H G G ^ ^ H [ [ [ H ^ y.[ 7.7.7.^ 7.W ^ K ^ [ >X[.>XF.7.3.y.y.W 7.^ ^ ^ [ [ 7.7.W 3.7.y.W K H 7.7.7.G [ [ 7.W 7.W H G ^ x W G [ G 7.x ^ H [ ^ x ^ ^ G ^ W ^ ^ F.3.3.F.y.x ^ y.|.",
"[.F.y.F.W ^ 3.W ^ ^ ^ W ^ ^ 7.H ^ ^ W ^ ^ ^ ^ ^ 7.^ ^ W H 7.y.y.y.[ 3.^ 7.[ a.[ [ K y.[ y.3.F.7.y.y.y.y.y.3.7.7.7.7.7.7.[ !.=XXX|.W 7.H 7.^ ^ 7.^ W [ [ H 7.^ [ 7.y.3.[ 7.7.K y.7.7.7.[ ^ ^ [ 3.^ 7.7.a.[ 7.3.[ x [ W K ^ [ ^ ^ y.W 7.y.F.[ ^ 7.[ [ [ 7.[ W `.|.>X7.[ [ ^ G G W W 7.[ W ^ W 7.^ y.7.7.[ 3.^ ^ W 7.[ y.W 7.[ ^ 7.F.7.7.^ [ [ ^ [ x H 7.W x ^ ^ [ F.7.^ y.y.H y.W [ W y.7.W ^ ^ >X=X>X[ 7.y.^ F.[ 7.7.y.7.7.a.[ [ H 7.[ [ 7.^ [ 7.^ y.[ G G G [ ^ 7.[ ^ G ^ [ 7.H 7.^ 7.^ ^ W 7.[ ^ W ^ F.y.^ 7.^ ^ 7.7.C F.y.F.[.",
"=XW.^ F.^ 3.^ ^ 3.^ W W ^ W C W C ^ ^ ^ 7.3.[ y.^ H ^ ^ 7.^ 7.7.y.^ ^ 7.[ 7.7.y.[ 7.W 3.3.7.7.3.7.a.^ [ 7.y.W a.[ [ ^ 7.3.`.XX>X|.W [ [ 7.[ ^ ^ 7.7.K [ [ ^ 7.G [ e [ [ y.7.7.7.[ 7.[ 7.7.y.[ 7.G ^ 7.W ^ ^ ^ u ^ ^ G K ^ [ 7.7.G 4 7.W 7.7.y.W ^ ^ [ 7.^ 7.!.=X>Xy.7.[ ^ 7.G G G ^ ^ ^ [ [ H [ [ W [ G [ 7.[ ^ W W 7.7.[ y.[ [ y.[ 7.G G 3.W W G W [ [ G x 7.[ H 7.^ [ 7.^ ^ G W y.[ 7.G W [ 8X>X>Xy.y.[ 7.[ [ y.a.7.7.W 7.[ 7.3.7.^ [ W [ [ ^ ^ ^ [ [ G 7.G ^ W [ W W 7.H K W W [ ^ 7.K [ [ [ K y.^ G C y.H 7.W 3.^ 7.y.^ F.=X",
"8XP.^ H ^ ^ y.7.y.^ ^ ^ ^ W C W 7.^ ^ ^ 3.7.7.y.7.^ ^ ^ [ ^ y.G 3.^ 3.y.7.[ 7.[ 7.3.y.F.W a.y.7.y.[ a.F.W y.y.[ y.[ 7.[ ^ !.[.|.XX[ 7.7.7.[ y.7.y.[ ^ [ ^ ^ 7.W y.[ 7.K 7.[ 7.^ [ W 7.y.^ y.[ W ^ W [ [ ^ ^ 7.G x W W [ [ K [ ^ [ [ ^ 7.y.7.y.7.7.7.7.^ ^ W !.>X8Xy.[ [ ^ ^ F.[ W ^ [ 7.[ [ 7.[ [ W 7.7.7.H 7.7.7.7.H 7.7.^ 7.[ y.7.7.7.W G 3.G G 3.W [ K [ ^ ^ 7.[ ^ x 7.G [ [ ^ ^ a.G 3.7.H >X>X|.F.7.y.7.K y.y.y.a.y.7.7.[ 7.y.G ^ 3.^ ^ [ ^ ^ W 3.[ 3.W [ W 3.^ ^ ^ 3.W [ [ [ 7.7.^ [ [ 7.[ 7.W [ H 3.C H 3.3.3.^ ^ ^ ^ W.wX",
"=X7.W ^ ^ W 7.y.3.C W ^ C 7.^ W K ^ ^ 3.^ ^ ^ 7.^ 7.G W [ [ G 3.7.F.7.[ H a.K W K [ G ^ ^ F.7.x y.3.7.y.y.^ G F.[ F.7.^ y.`.[.|.[.a.W W W 7.H 7.^ H 7.y.H W [ 7.7.[ [ [ 7.7.y.y.K 7.^ [ 7.7.[ F.W d H 7.[ F.[ [ 7.^ x x ^ H ^ [ [ 7.^ F.7.!.7.y.G W [ ^ G 7.`.=X>XF.G ^ G ^ ^ ^ [ 7.^ ^ ^ y.[ [ 7.x G F.[ a.[ 7.G [ W 3.^ 7.[ [ x ^ 7.K G [ 7.^ H y.[ 7.H y.W K ^ W W a.7.y.7.y.^ G 7.[ 7.x [ =X=X>Xy.F.7.F.[ [ [ x y.y.y.7.7.7.7.7.x G G x W W G ^ H [ ^ H W ^ 3.W K 7.^ [ W ^ ^ [ [ [ [ [ 7.7.^ W x 7.7.y.y.y.3.3.H 7.^ ^ ^ =X",
"=XP.3.3.W ^ ^ C 7.W H ^ H ^ C ^ W W W ^ y.^ y.3.[ ^ [ 7.^ ^ ^ H 7.^ [ 7.[ [ F.a.7.a.[ F.a.7.7.^ 7.7.a.7.7.y.7.7.7.y.7.3.7.`.=X|.[.^ 7.7.K 7.y.^ [ 7.[ 7.[ 3.W 7.y.^ ^ 7.7.7.7.7.7.[ [ y.3.[ [ 7.K x [ H F.H [ W ^ W W W W ^ H [ [ [ y.W 7.^ ^ H ^ [ K ^ ^ H [.>XwXF.7.W 7.^ [ ^ W [ ^ H 3.y.[ K [ x 7.^ y.7.[ 7.[ ^ y.7.7.[ W W 7.7.^ x G ^ [ [ 7.K W 7.y.W ^ [ W G [ [ [ [ 7.[ W ^ [ [ 7.[ [ >X=X=X|.F.y.W y.a.y.7.y.y.7.7.a.^ 7.7.7.G [ G G 3.^ [ ^ W [ ^ 3.^ ^ W ^ W 7.^ 7.H [ W [ [ W [ H 7.y.G 7.^ 3.W 7.7.W H ^ H y.^ `.=X",
"=X3.H ^ ^ 7.H ^ y.^ ^ ^ C ^ C W W W ^ 3.^ 3.C C W 7.^ ^ 7.y.^ ^ ^ 3.^ 7.[ 7.[ 3.^ ^ [ 3.^ [ 3.7.7.y.[ ^ 7.y.7.[ y.7.3.7.[ ^.>X[.[.y.^ 7.[ y.3.7.^ W [ [ 7.7.7.^ [ x [ 7.^ F.7.[ 7.a.^ 7.[ 7.7.7.7.d ^ F.H ^ G [ G H [ 3.^ ^ [ H [ 3.[ ^ G 7.7.[ ^ 3.[ [ ^ 7.`.=X>XF.W W [ 3.[ [ W 7.7.7.^ [ [ [ 7.^ ^ W 3.^ 7.y.[ 3.[ 7.W ^ W ^ F.H 7.7.^ W 7.^ G ^ ^ H ^ [ W [ ^ y.[ ^ [ 7.W ^ ^ y.^ 7.W G W >X|.>X`.y.F.a.F.F.7.y.^ y.^ 7.[ 7.^ ^ [ [ 3.[ K [ ^ [ ^ [ [ [ W [ [ [ ^ W 7.a.[ K W 7.^ ^ W ^ W [ [ [ 7.7.3.^ W F.H ^ ^ ^ ^ ^ 7.8X",
"8XF.7.^ 3.^ C 3.7.W 3.^ H 7.^ ^ ^ 7.^ W y.3.7.C W ^ ^ ^ ^ C 7.y.y.^ 7.3.y.7.7.7.[ 7.[ 7.y.K 7.7.7.3.F.y.y.7.y.3.y.y.[ [ a.`.>X}.`.7.a.3.y.7.a.^ 7.G [ 7.H ^ 3.^ 7.7.7.W 7.7.^ [ [ [ 7.W ^ ^ 7.F.x F.y.^ 7.^ G ^ W G [ G W ^ 7.^ [ [ 7.[ y.y.7.[ 7.[ a.x [ [ }.8X8XF.[ ^ a.[ ^ [ y.G y.7.y.^ [ [ ^ 7.y.7.7.7.G ^ [ [ [ W W ^ [ H 7.^ 7.3.7.[ G H y.7.7.^ 7.7.7.[ ^ ^ y.7.y.W [ y.y.^ ^ 7.G ^ ^ >X=X>X[.y.F.a.7.^.y.W 7.7.y.3.^ [ y.W 7.^ H [ [ 7.[ ^ W [ y.[ ^ H W x 7.a.7.K [ H ^ G 3.^ [ ^ [ ^ [ [ y.7.y.^ ^ ^ y.C ^ ^ 7.3.F.=X",
"|.`.C 7.H 3.H ^ ^ W C W x W H ^ ^ 7.^ W ^ ^ x ^ C 7.^ ^ G 7.y.H W 7.[ y.H y.[ [ [ W [ 7.[ 7.[ 7.7.[ y.y.7.7.[ 7.^ y.y.3.[ }.=X>X}.7.[ ^ ^ y.^ y.W [ [ 3.^ 7.^ 7.H ^ G ^ W [ [ [ x W G ^ W ^ ^ W 7.W [ y.W [ [ 7.W [ W [ W [ [ F.K [ a.[ 7.7.H ^ ^ 7.W [ W ^ !.>X=X[ ^ [ [ [ W ^ [ [ [ [ W H W y.[ ^ ^ y.W H H W W x W ^ H [ W K [ K ^ y.7.[ [ x W 7.^ ^ H [ [ 7.^ 7.a.[ K [ [ ^ [ 3.W [ G W H 8XXXXX!.^ 7.a.7.7.^ 7.7.[ [ ^ G [ [ H ^ [ W ^ W 7.W ^ G y.[ G 7.^ [ [ [ G [ 3.^ G [ [ 7.7.W W ^ 7.^ 7.y.7.W W W ^ W W ^ H 7.W `.=X",
"8XF.3.^ 7.7.7.^ W C W ^ ^ C ^ C ^ W W ^ 7.^ W C ^ 3.7.H [ 3.^ 7.7.^ W [ ^ [ ^ ^ ^ ^ ^ [ 7.7.F.7.y.W y.^ y.^ [ a.y.7.^ [ 7.^.8X>XXXW 7.7.[ [ W ^ 7.7.^ ^ 3.[ [ 7.7.W [ 7.W [ [ x G K [ 3.^ ^ ^ W W W ^ ^ [ ^ W ^ [ ^ 7.K 7.[ [ W 3.7.7.[ y.G ^ W [ ^ ^ ^ ^ [ ^.>X>Xa.H [ [ [ [ 7.[ y.[ 7.^ [ [ ^ [ ^ ^ ^ [ x [ x H W [ 7.^ W [ W 7.[ [ W F.[ y.[ [ G ^ ^ H ^ 7.[ F.^ y.W 3.[ [ W W y.[ ^ ^ W ^ yX=X|.!.^ y.7.y.7.7.a.y.^ 3.F.^ [ y.^ 7.G ^ ^ [ ^ W x [ 3.7.[ ^ 7.W 7.[ [ 7.7.^ [ ^ W [ ^ G ^ 7.^ a.[ W 3.7.^ ^ C 7.^ y.^ ^ ^ !.8X",
"=X7.7.^ 7.^ ^ ^ y.^ C ^ W H W ^ K W W 7.^ ^ G W ^ ^ [ [ ^ 7.y.7.y.y.y.C y.^ ^ [ W W 3.7.[ 7.7.a.[ y.G 7.7.y.7.y.y.K ^ 7.y.!.>X>X|.7.[ 7.7.y.7.W [ H ^ G 7.3.[ [ 7.7.W d [ ^ ^ W ^ [ ^ H [ 7.G K y.[ 7.3.W ^ ^ 7.^ ^ ^ 7.G 7.[ 7.y.7.7.7.H F.^ y.^ u W ^ [ y.F.yX=X3.^ 7.^ 7.y.y.3.[ ^ ^ ^ [ W [ [ a.^ W ^ W [ W ^ ^ W [ ^ y.K K ^ W [ [ [ W [ W ^ [ ^ 7.^ ^ y.[ ^ [ [ a.^ 7.7.7.^ y.d H H ^ ^ 8X=X=Xy.!.3.F.y.y.y.7.7.y.x a.y.7.7.F.[ [ [ ^ 7.3.G W [ y.W y.G F.[ x [ 7.[ ^ ^ 7.x y.[ K H a.[ 7.x y.7.^ y.^ ^ y.^ 3.^ 7.^ y.3.8X",
"wX3.H ^ 3.^ H 3.y.^ W ^ C 3.H W 3.3.7.^ ^ W 7.H C W 7.[ 7.^ y.7.[ 7.[ 7.y.3.d [ [ [ [ G F.y.7.7.y.y.7.7.a.7.7.a.[ y.7.W 7.!.>X>X|.7.a.[ 7.^ 7.W W y.7.^ [ x [ [ y.^ 7.[ 7.7.H ^ ^ W 7.7.7.7.^ [ 7.[ H H ^ K 7.[ ^ [ [ y.7.^ ^ 7.^ G [ [ 7.[ F.^ 7.^ ^ G 7.K `.8X8X7.W W 7.[ y.3.7.[ [ ^ 3.^ 7.[ 7.[ 7.W ^ W 7.G ^ H ^ W [ ^ [ [ ^ [ ^ ^ 7.W 7.^ ^ [ W [ 7.7.y.^ 7.[ [ [ 7.x y.7.7.[ [ W [ ^ H =X>XXXa.3.F.7.a.y.[ y.3.7.y.[ 7.3.y.[ y.[ ^ W ^ G 7.7.[ [ 7.7.^ [ ^ W 7.7.3.3.y.^ [ 3.7.x [ a.7.[ G ^ ^ ^ ^ ^ ^ 3.y.C 3.^ ^ C y.=X",
"[.`.W 7.^ y.W ^ C W C ^ ^ ^ W ^ H H 3.3.^ y.W ^ H 7.W 7.[ ^ 7.^ ^ 7.7.7.^ 7.^ 7.G y.[ ^ 7.7.7.7.7.7.3.7.^ y.^ 7.7.F.^ y.7.F.>X}.[.7.y.y.7.a.[ [ ^ G [ ^ 7.[ [ y.W [ [ ^ H [ K [ ^ W ^ [ W ^ K a.H [ 7.y.W ^ [ ^ [ 7.[ 7.^ ^ ^ W y.3.[ 7.W ^ 7.y.[ y.[ [ H H 7.|.>X^ W H ^ ^ 7.7.x [ [ [ H 7.7.[ [ K W 3.[ [ G G W W [ ^ W 7.K [ 7.^ [ K 3.7.G W ^ 7.7.7.W 7.^ H [ 7.K 7.W ^ y.7.^ 7.^ [ 7.[ G |.=X>Xy.7.3.^ 7.7.W H 7.7.y.a.[ 3.^ y.K a.7.3.7.7.7.^ x 7.^ y.3.y.7.G [ 7.y.7.7.y.H G 7.^ H [ [ ^ [ ^ K W 7.7.^ W ^ W 3.^ ^ ^ Q.[.",
"[.^ x ^ 7.^ 7.3.^ ^ 7.C ^ ^ 3.^ 3.7.H ^ ^ y.^ ^ 7.y.7.7.7.[ y.^ y.7.y.y.y.^ [ K F.y.3.7.F.7.3.7.7.[ F.F.y.y.y.y.7.a.y.y.7.F.=X`.|.y.F.y.y.[ F.y.y.7.[ 7.y.K 7.y.7.[ ^ W 7.y.7.[ G ^ [ 3.F.^ y.y.[ a.7.G 7.^ H H y.[ 7.a.^ 7.7.G F.[ 3.F.^ K y.7.7.7.7.7.7.^ !.|.8X7.^ ^ [ ^ ^ F.[ G K W H G 7.[ [ F.W [ H W [ H 7.^ K W ^ ^ [ [ y.[ K W y.G ^ ^ H [ 7.7.[ 7.W 7.7.W 3.H H ^ F.W 3.7.y.7.G [ y.=X=XXXF.F.y.y.^.y.F.F.y.3.K W y.a.y.^ x 7.7.a.!.y.^ 7.!.[ [ 7.y.^ 7.^ 7.^ F.7.7.[ 7.3.W 7.^ F.[ ^ ^ ^ ^ H W W ^ ^ 3.^ 3.^ ^ d 3.[.",
"[.F.C ^ 3.7.o.^ W H ^ 7.^ 7.^ K ^ ^ C 7.y.7.W ^ W 7.^ y.^ 7.^ y.[ 3.7.^ 7.[ [ a.7.7.^ W 7.y.7.7.a.7.y.F.7.3.[ F.a.a.[ y.[ F.}.}.!.7.7.y.y.[ y.K H y.[ y.y.y.^ [ ^ 7.^ [ W K W H W ^ W y.[ 3.G G 7.H ^ F.^ ^ ^ W W 7.W 7.3.7.[ 7.F.3.7.^ 7.7.[ ^ ^ y.W [ W ^ y.>X=X7.^ [ ^ 7.[ ^ ^ 7.K 7.^ [ ^ W ^ ^ W 7.G [ G 3.G ^ W ^ ^ 3.^ [ W 3.^ [ G ^ ^ ^ [ K ^ [ ^ y.W 7.7.[ 3.7.7.^ [ W ^ [ [ 7.^ ^ ^ >XXX>XF.F.y.F.7.7.y.[ 7.y.y.F.7.y.3.7.7.[ ^ y.[ y.[ W [ y.H F.7.[ [ [ ^ ^ G 3.3.W 7.7.[ [ H H G ^ ^ 3.^ ^ ^ 7.K ^ W ^ 3.3.^ G F.[.",
"=Xy.^ ^ 3.3.7.^ 3.^ ^ ^ y.7.W F.7.7.y.F.y.y.^ 7.^ [ F.3.y.^ 7.y.7.^ F.^ 3.[ [ F.7.7.F.7.F.F.F.7.7.y.F.a.H 7.^ G F.a.y.7.7.}.>X>X>X^ 3.7.7.F.a.F.W y.7.7.3.[ F.F.3.7.[ 7.[ ^ F.H 7.y.7.y.F.a.3.F.F.^ y.y.7.7.y.3.x ^ 7.^ 3.[ 7.y.[ K 7.y.7.y.F.7.^ ^ [ W 3.y.`.=XwX7.^ ^ [ K y.G [ [ [ 7.3.W 7.[ ^ [ 3.H ^ ^ 3.F.7.y.7.7.^ 3.y.[ 7.3.[ [ y.^ 7.y.3.K ^ y.7.y.y.[ ^ [ [ W 3.^ [ y.y.^ a.W W ^ 7.8X8X=X7.F.F.y.F.F.y.F.a.y.7.y.F.F.7.y.y.y.^ 3.W [ F.7.^ 7.F.F.y.y.a.y.7.G 7.y.F.y.F.[ 7.^ 3.[ 3.^ 3.3.C G 7.K ^ ^ 7.3.y.7.3.^ F.|.",
"=X`.^ ^ F.y.F.^ y.C W x x ^ C d x C ^ ^ C 7.3.x d C x ^ G x ^ d ^ ^ x ^ K W H G G G d G ^ ^ G W x W G K G x G d d u d d a.=X>X[.`.x G x ^ ^ G ^ ^ W G W G W ^ [ G ^ x ^ W ^ [ ^ H d W W G G [ W u 3.^ G [ G G H W x G ^ W [ 7.[ [ ^ x ^ x G G G x G x G x G |.8X>X^.d u G G G [ W G ^ ^ W x y.^ G G x H G [ x W 7.x G H ^ x G ^ G x y.7.W x d G x u ^ G H 7.H [ ^ W x y.G [ W W W G H x x x W >X>X>XF.4 G G x ^ H W W [ G ^ G G ^ H G W ^ ^ H [ [ x [ y.W G x y.[ [ x 7.G ^ H [ G x x d x W G H ^ ^ e W C x C F.W F.7.F.W ^ W.=X",
"|.|.[.|.|.[.XX|.|.[.|.|.|.|.=X|.|.|.=X|.|.[.|.[.[.[.|.|.>X>X=X|.|.|.>X>XXXXX=X[.XX|.|.|.|.>X>X>X|.|.>X|.>X|.=X|.>X|.=XXX>X>X>X|.>X|.|.|.|.|.>X|.>X=X>X=X|.|.>X|.=X|.=X|.|.|.>X>X>X>X>X|.=X>X>X>X>X|.>X|.|.|.8X>X>X|.>X=X>X|.=X>X=X|.>X>X>XXX>X=X>X>X>X=X=X>X>X>X=XXX=X>X>X=X>X=X>X=X8X=X>X|.=X>X>X|.=XXX=X>X=X|.>X>X>X>X>X|.>X>X>X|.8X=X|.|.XX>X=X|.>X|.|.=X|.=X=X>X>X=X>X>X>X|.=X|.>X>X|.|.>XXX|.|.|.[.>X>X8X|.=XXX>X>X|.XX=X|.|.|.>X|.>X[.>X=X=X|.=X[.|.|.>X>X|.XX>X>X>X|.|.>X|.`.`.|.XX}.|.|.|.[.=X=X[.[.|.|.|.|.|.[.XX|.=X|.",
"[.`.[.[.|.|.|.`.[.[.[.[.|.|.|.|.|.|.[.|.|.>X|.|.|.|.|.|.|.>X=X>X>X>X>X=X|.|.|.>X>XXX|.|.|.>X>X>X=X>X|.=X=X>X[.|.|.|.>X>X>X>X>X>XXX|.|.XX|.>X=X=X>X>X>X|.|.>X>X|.|.>X|.>X|.>X>X>X>X8X=X>X>XwX=X>XXX|.=X|.>XwX>X8X>X>X>X=X|.8X>X>X=X=X|.>X>X=X|.>X=X|.>X>X>X8X>X>X>X=X>X>X>X=X>X>X>X=X>XwX>X8X>X>X>X|.|.>X=X=X>X>X=X>X>X8X>XyX>XwX8X>XwX>X=X>X=X8X>X>X>X>X=X>X|.>X>X=X=X=X>X>X|.>X>X>X>X>X>X>X>X>X>X>X|.>X|.>X=X>X=X=X[.>X|.>X|.=X|.>XXX>X>XXX=X8X>X=X>X=X=X>X>X>X>X>X=X>X>X>X>X8X=X>X|.|.XX=X|.=X[.|.[.|.|.XX[.|.|.`.[.|.[.|.[.|.",
"wX=X8X=XwX8X8X=X=X=X=X=XyXwX8X8X8X=X8X8XyX=X8X>X=X8X>X=X=X|.|.|.=X8X8X8XyX8XyXwXyXyX8X8XyX8XyX8XyXwXyXpXhX8XyX8XyXyXpX8XyXwXyX8XpXwXpXyXhXpXhXyXyXyXyX8XpXwX8XwX8XwXpX8X8X8X8X8XyXyXyXwX8X>X=X}.XX>X8X8XyX8XyX8XyXyXpXpXyXyXyXyXpXpXyXyXfXyXyXyXhXyXyX8XyXyXyXyXfXpXpXpXhXyXyX8XyXyXyX8XyX8X8X8XyXwXyXwXyX8X8X8XyXyXyX8X8XwX8X|.=X|.>X8X8X8XyXyXyX8X8X8XyXyXyX8XyXyXyX8XyXwXwXwXyXyXpXpXyXpX8X8X8X8X8X8XyX8X8X>X8X>XwX8XyXwX8X>X8X8X8X8XpXwX8XwXwX>X8X=X8X=X=X>X=XXX>X=X8X=X8XwXyX=X>X=X8X>X8X8X8XwX8X=X8X=X=X=X=X=X=X=X8X8X8X8X",
"!.`.P.y.[.|.|.[.`.=X|.`.=X[.[.|.XX`.=X[.|.|.=X[.[.[.|.}.wX=X[.|.=X[.`.`.|.|.`.XXF.`.!.[.[.`.^.}.}.|.[.!.|.[.!.>X`.[.`.|.}.|.a.`.`.!.`.!.[.>X}.XX>X[.>X|.>X|.|.[.=X`.|.`.|.|.[.^.>X=X>X|.[.hX|.|.[.>XF.XX!.>X|.`.!.!.[.`.[.[.!.wX8X[.|.[.}.8X`.[.`.y.[.}.XX|.}.|.!.>X|.XX}.XX>X=X=X`.8X=X|.8XXX=X>X`.|.=X>XyX|.>X8X8X>X>X>X=XpX>X|.|.wX>XXXXX8X8X|.`.[.|.|.|.}.>X}.8X8X=X|.=XwX|.|.XX!.}.[.>X=XXX`.XXXX|.>XXXyX>X>X|.|.>XXX>XwXwX>X=X>X|.|.>X|.}.>X>X>X>X|.|.[.8X>X>X|.8XXXwXwX>X>X8X>X>X|.=X=XwXwXwX=X8X|.=X=X=X=X8XwX=X[.|.|.=X",
"7.C ^ K 7.W ^ ^ 7.^ H ^ 7.W 7.y.^ ^ W W ^ C ^ x 7.^ ^ H F.=X>X|.G x y.^ ^ ^ 7.x [ W ^ 7.^ ^ y.[ 7.7.7.7.3.W y.[ ^ W 7.^ 7.[ [ 3.W ^ y.^ [ ^ 7.7.[ [ W ^ K W 7.H y.[ K [ 7.W a.[ 7.7.7.[ ^ y.8X|.!.[ [ ^ 7.a.F.[ 7.[ [ 7.7.7.7.7.F.y.F.y.a.7.y.3.y.y.a.y.7.7.y.[ y.7.y.y.F.y.F.y.y.y.y.^ !.y.a.F.^.a.F.y.F.y.[ F.F.F.F.y.y.7.`.>X[.!.[ H y.K y.7.[ ^ 7.[ y.[ y.7.3.3.7.7.7.W H W [ [ [ W ^ ^ [ [ y.7.7.G 3.7.W G K [ ^ G [ [ W y.^ G [ [ 7.^ a.W [ W ^ [ G W K [ =X>X`.y.7.[ y.y.^ 3.y.^ y.F.^ 7.F.7.y.^ ^ ^ ^ W ^ W ^ x H ^ W H ",
"^ ^ ^ ^ ^ W 7.7.^ ^ ^ ^ 7.^ 7.^ ^ 7.^ ^ ^ y.^ ^ ^ 7.K ^ ^.|.XX|.[ W 7.^ [ 7.9.[ G [ ^ 3.W 7.3.[ ^ 7.^ y.y.7.^ [ ^ y.7.3.W 3.^ y.7.3.[ W W [ W G [ H ^ 7.^ 7.[ 3.K 7.^ 7.W [ [ [ [ a.^ 7.[ y.=XwX=X7.W ^ 3.a.y.7.^ 7.[ 7.7.7.7.[ y.y.y.y.F.y.^ y.y.y.7.y.3.[ 7.F.7.F.7.y.3.a.W y.a.a.a.F.y.y.7.F.y.F.y.F.y.^ a.y.y.F.F.F.F.!.^.>X>Xy.^ [ W 3.y.7.[ 7.7.F.7.7.y.7.y.y.^ y.^ W 7.7.x ^ ^ [ 3.^ [ 7.K 7.^ 7.7.H W ^ W ^ ^ [ [ [ 7.y.[ y.^ ^ [ y.W y.7.[ W 7.^ G G [ =X|.!.y.7.F.7.[ 7.y.7.y.7.^ 3.y.3.^ ^ ^ H 7.3.^ ^ 3.W ^ W ^ ^ ^ ",
"^ 7.C 3.7.H 7.^ 3.^ 3.7.7.3.^ y.^ C ^ ^ ^ W ^ 7.^ 7.7.^ F.XX>X[.7.^ 3.+.W +.7.W 7.[ 3.[ [ H 7.a.^ y.y.3.[ 7.7.F.y.W 7.[ ^ [ W [ [ ^ y.[ ^ W 7.^ ^ ^ 7.^ 7.7.7.[ W 7.y.K ^ ^ ^ ^ y.y.[ [ 7.F.>X|.|.7.[ 7.y.7.3.^ 7.H ^ 7.3.y.7.[ y.7.7.y.F.[ 3.7.y.7.[ y.[ 7.y.^ y.3.a.7.y.y.F.y.y.F.[ 7.F.a.F.F.y.!.^.F.F.[ F.F.y.7.F.y.7.!.!.=X|.y.^ 7.^ y.F.7.y.7.[ a.7.^ y.y.7.y.^ y.y.7.7.W [ [ ^ y.[ [ 7.^ W ^ ^ [ F.7.7.3.7.y.G 3.a.G y.7.G ^ y.y.y.7.y.7.7.[ [ [ W ^ ^ K [.|.`.F.a.y.y.7.y.y.7.y.F.7.3.y.7.^ C x ^ 7.^ ^ 7.^ ^ W ^ ^ H W ",
"^ ^ W ^ ^ W x C H ^ 7.3.W ^ ^ 3.K W ^ C ^ W C ^ ^ ^ [ H F.=X|.|.[ ^ [ o.[ 9.W 7.W ^ K G K 7.3.[ 3.W G W [ ^ G y.y.W W W y.^ [ 7.[ 7.W 7.W y.W 7.W 3.^ [ y.7.[ 3.7.7.[ [ ^ 3.3.^ 7.F.[ ^ G a.>X|.[.7.H ^ ^ y.y.^ W 7.[ W [ 7.[ [ [ [ [ [ 3.7.H ^ G 7.G ^ W ^ ^ y.^ y.y.[ 7.7.^ 7.^ a.[ y.K F.F.y.K 7.y.7.[ a.[ y.a.F.a.F.7.y.F.=X>X!.H W W ^ y.^ [ 7.7.[ [ 7.W [ W a.7.[ ^ G W [ G a.7.[ [ 7.y.7.7.7.y.[ K y.^ 7.^ 7.W [ W [ ^ [ [ [ ^ 7.[ y.W y.^ 7.^ [ G ^ G K |.>X^.!.7.y.3.3.y.F.[ ^ ^ W 7.y.W 7.3.^ W 7.W ^ W C 7.^ W W W ^ ",
"C ^ 7.^ C C W ^ W C W ^ W ^ 3.^ K K ^ W H H 7.^ W ^ 3.^ `.=X|.[.C 7.7.+.9.3.^ ^ ^ W W [ 7.7.y.7.7.[ 7.[ y.W [ [ 7.W 7.^ 7.7.y.7.3.^ 7.[ ^ G W ^ [ x K [ y.7.y.7.G [ ^ a.7.[ 7.^ y.y.7.7.^ F.>X|.|.W ^ [ 7.[ ^ [ ^ ^ H 7.[ ^ [ 7.7.[ y.[ 3.[ ^ G ^ ^ ^ W ^ 3.[ W ^ 7.G 7.[ a.y.W 3.7.^ y.y.F.[ 7.a.y.y.F.y.y.[ a.F.F.F.F.y.y.F.=X|.F.3.y.7.[ 7.7.^ [ y.[ 7.[ [ [ H 7.7.G W ^ [ 7.[ 7.7.[ 7.[ y.^ y.^ y.y.[ 7.^ ^ ^ W [ G [ [ [ 7.G ^ [ [ 7.[ 3.x ^ ^ y.[ ^ 7.W 7.8X|.[.!.7.[ 7.^ y.7.7.^ 7.3.^ ^ 3.7.7.^ ^ ^ ^ x ^ W ^ ^ W 7.3.^ ",
"^ ^ 7.C ^ ^ C C ^ 7.^ 7.^ ^ ^ ^ 7.^ H W C x ^ ^ W ^ ^ C 7.=X=X=XF.H ^ a.G ^ o.^ [ [ W 7.W [ ^ ^ [ [ [ F.[ ^ G H ^ 7.K [ 7.y.[ ^ y.7.[ ^ 3.G 7.[ 7.[ [ 7.^ H ^ 7.[ W x [ [ [ [ 7.7.7.W [ [ !.>XXX}.a.G W ^ [ W [ 3.7.^ ^ [ 7.3.^ y.^ ^ ^ [ [ [ 7.[ 7.[ 7.^ 7.W [ x 7.[ W 7.[ ^ 7.y.[ ^ 3.7.7.[ y.y.y.7.y.7.F.F.a.F.y.a.[ y.a.!.>X|.`.y.[ [ a.3.W ^ y.y.7.7.[ H 7.F.a.7.K y.7.7.3.7.[ W [ ^ y.y.7.[ 7.[ y.7.F.3.y.7.[ 7.y.[ y.^ 7.7.a.H y.^ W H W 7.^ [ ^ W H ^ 7.>XXX`.F.y.7.^ [ K 7.3.3.^ ^ 3.7.F.F.^ y.^ 3.^ ^ 7.C W ^ 7.C ^ ^ ",
"^ W ^ ^ ^ W ^ 7.7.C 7.^ 7.^ ^ W 7.W C W ^ ^ ^ W ^ ^ 7.^ ^ |.|.|.^ W [ W 9.o.H o.^ 3.7.^ 3.W [ W ^ 7.W [ ^ [ G [ ^ [ W 7.[ [ [ ^ 7.W ^ 7.^ W W ^ [ W [ [ 7.W H ^ ^ 3.7.W 7.7.3.F.y.W W ^ 7.7.>X}.XX[ 7.[ [ [ 7.K 3.[ 7.[ 7.^ 7.^ [ [ 7.^ 3.[ 7.7.3.7.3.3.y.[ ^ [ [ [ 7.[ 7.[ 7.[ a.7.3.7.3.a.F.W y.y.[ y.7.y.a.a.a.F.F.y.^ ^ `.XX8X!.[ ^ [ [ [ 7.7.^ 7.7.7.[ 7.^ F.[ 3.W 7.[ 7.7.W [ 7.^ y.y.y.[ 3.[ 7.3.7.7.W [ ^ [ ^ 7.[ 7.^ ^ 7.3.7.^ ^ W 7.^ ^ [ H 7.H G [ W =X}.}.7.3.W 7.7.7.^ ^ 3.y.3.^ 7.F.^ 7.y.7.^ ^ 7.H H ^ W W W 7.W ",
"H 3.W ^ K W H ^ ^ ^ G ^ ^ ^ H ^ C W x C C C C ^ ^ ^ C ^ !.|.=XXX^ W W ^ W ^ K ^ ^ W K H [ ^ ^ ^ W [ [ [ H [ [ [ H ^ [ 3.7.^ 3.^ [ 3.[ 7.[ [ W G W 7.[ ^ ^ [ ^ G ^ ^ W 7.H y.W y.^ W 7.[ 7.y.>X>X`.7.W 7.G 7.W [ ^ ^ 7.[ 7.^ ^ G 7.^ 7.^ ^ F.[ K W W W ^ ^ ^ [ [ d G W W W [ [ 7.7.^ W 7.7.W 7.^ ^ [ y.[ [ y.y.y.3.a.a.7.^ 7.^.=X[.y.H ^ G H G ^ W ^ 7.[ W ^ ^ y.7.F.7.a.^ ^ W H [ 7.^ y.[ a.7.[ W [ 3.^ [ [ W [ K ^ H ^ W G y.W x 7.^ [ W H x F.W H H ^ W G [ [ |.>X!.F.7.3.H 7.^ ^ ^ 7.^ ^ y.y.3.7.3.^ ^ ^ C ^ ^ 7.^ ^ H ^ ^ ^ ",
"H ^ x ^ ^ 7.7.^ x W ^ ^ 7.^ ^ W ^ x ^ ^ W H x ^ ^ ^ ^ ^ F.|.>X[.C 7.H K ^ W H W ^ [ ^ [ ^ 7.y.[ W [ y.G ^ 7.^ [ H [ H [ ^ 7.^ W ^ x y.7.G 7.H [ [ G [ G [ 7.F.^ 7.^ 7.F.^ a.G 7.y.^ y.[ 7.7.wX>X|.3.^ W W W [ W 7.7.y.y.W [ ^ [ 3.G [ y.^ ^ [ [ 7.7.7.^ W [ [ y.y.y.^ 3.7.y.y.G 7.7.y.W W 3.7.^ a.[ [ 7.F.3.W y.F.3.F.y.[ F.F.>X|.7.[ ^ [ W ^ [ [ H 7.7.^ H ^ 7.y.F.F.F.3.G y.7.F.3.7.^ [ W 7.[ y.3.7.y.7.[ ^ F.7.W G x W G 7.^ ^ ^ 7.3.W u [ ^ ^ y.H 7.^ d ^ K 8XXX`.`.y.[ y.^ ^ ^ y.7.3.7.^ y.F.3.7.^ 7.3.^ H y.7.^ ^ W ^ 7.y.",
"3.^ W 7.y.^ ^ 3.7.^ W ^ ^ ^ C ^ ^ ^ H ^ x ^ x ^ ^ ^ ^ W ^ >X>X|.7.W ^ x ^ W H ^ ^ [ ^ ^ [ 7.[ 7.[ [ ^ ^ ^ ^ [ y.[ 7.W x 7.^ H 7.^ y.3.^ [ W x H G K K K ^ 7.H 7.K [ [ [ 7.^ [ [ [ ^ W a.[ F.>X|.`.^ 7.7.^ 7.7.^ ^ [ K 7.y.[ W [ 7.[ 3.^ a.3.[ W ^ 7.W W ^ ^ W W 7.W ^ ^ [ 7.[ y.W W 7.y.3.y.W F.F.W [ y.y.y.^ ^ 7.y.7.[ 7.3.`.>X>X!.W K G ^ 7.K G 7.[ ^ [ y.[ y.a.7.7.7.^ y.W 7.[ 7.^ ^ 7.^ [ [ 7.7.!.7.7.[ [ ^ [ 3.^ W G 7.[ 7.7.[ [ G 4 G W [ [ W K H H ^ W ^ >X>X!.^ [ y.7.^ ^ ^ ^ 7.3.y.^ ^ 7.7.3.^ 7.y.^ ^ ^ ^ C H H ^ W ^ ",
"W ^ W ^ 7.3.^ ^ ^ 7.3.^ 7.H ^ C ^ ^ x ^ ^ ^ W W W H ^ x y.=X=XXX^ W 7.[ 7.^ 7.[ [ G a.[ ^ W [ [ 7.a.^ 3.7.7.y.^ ^ [ [ 7.[ [ W H 7.^ y.W [ W y.^ K K ^ ^ G ^ [ [ 7.[ y.7.y.7.[ [ [ F.y.^ 3.y.|.|.[.^ 7.W 7.^ [ 7.^ [ [ 7.F.[ 3.W y.[ 7.[ [ [ F.[ [ G ^ [ [ W 7.G ^ W 7.7.^ ^ [ W [ ^ G 7.^ 7.K 7.y.a.7.7.a.3.7.7.y.F.F.7.7.[ [.=X>XF.[ W [ 3.!.[ ^ [ 3.7.7.7.y.7.y.[ 7.^ 3.^ F.H y.^ W ^ 7.[ y.7.y.K ^ [ [ G y.G [ y.W ^ ^ ^ 7.[ [ G ^ W 7.W 7.G [ [ 7.7.^ W ^ ^ 8X|.F.y.[ y.7.y.^ ^ 3.3.7.7.3.7.^ 7.F.^ 7.^ ^ ^ K ^ W ^ H H ^ ^ ",
"W 7.H C ^ ^ H 7.^ 3.^ ^ ^ W H ^ W ^ ^ ^ W W C ^ C ^ ^ H W |.|.=XW ^ ^ G [ ^ K ^ W 7.W ^ G y.[ 7.[ ^ ^ W 3.[ y.[ W W ^ 7.[ [ W [ [ 7.7.^ G ^ 7.[ x ^ ^ 7.G K [ W W 3.^ [ 7.y.7.^ [ 7.H 7.W 7.>X|.[.^ 7.^ ^ y.^ ^ K 7.[ 3.^ 3.7.G [ a.^ y.K ^ [ ^ [ d [ ^ ^ [ H ^ G [ [ y.y.W W 7.W G [ 7.^ [ ^ 3.[ y.[ 7.[ y.7.a.7.F.^ [ [ y.y.|.=XF.K 7.7.[ F.W ^ 3.[ [ ^ [ [ 7.[ W [ 7.^ 7.[ ^ [ 7.K [ ^ H W 7.^ [ [ 7.[ 3.[ H W [ W W ^ W ^ [ [ W H y.H ^ [ W ^ 7.^ 7.W G H W >X>XF.F.^ 7.7.y.W ^ ^ 7.7.^ 3.y.y.F.7.C ^ 7.^ ^ ^ ^ ^ ^ W x C ^ ",
"C ^ ^ ^ ^ ^ H ^ ^ x W ^ C ^ 3.W ^ ^ 7.C W ^ H W ^ H H 3.`.|.=X|.^ W 3.^ ^ ^ K 7.^ W 7.^ 7.7.a.a.7.y.y.^ ^ H W [ [ W [ W 7.K 7.W [ [ ^ W ^ ^ G ^ x ^ H G 7.W F.7.[ y.y.3.^ W 7.G ^ 7.K 7.G F.|.|.|.H 7.W y.^ [ [ K [ [ y.7.[ 7.7.3.7.[ 7.a.[ 7.H [ G G [ 7.^ [ 7.^ W 3.[ F.y.^ ^ [ 7.3.^ [ 7.y.y.a.7.7.y.y.[ 7.y.F.7.y.y.[ 7.^.>X|.y.[ 7.7.[ y.3.[ [ 3.^ 7.^ 7.[ 7.[ a.3.[ 7.7.G 7.3.^ ^ ^ [ y.^ F.[ [ 7.7.^ y.H ^ x x G G x 7.^ ^ [ ^ ^ W ^ W W ^ x 3.^ G [ H 7.>X>X`.F.y.^ 3.7.3.7.^ ^ 7.7.y.7.y.3.3.^ 7.7.7.C 7.^ ^ C H H ^ ^ ",
"^ ^ W ^ C ^ ^ W ^ H W 3.^ y.^ ^ ^ ^ ^ ^ ^ ^ W ^ x W G 9.`.wX=X|.^ H H 7.^ W G ^ ^ [ K ^ ^ ^ ^ [ a.^ G ^ ^ [ W d 3.7.^ ^ 7.[ [ ^ 7.[ G [ ^ W W G H W W ^ G ^ G ^ ^ G G 7.[ W y.W ^ 3.[ y.[ y.|.=X[.^ [ ^ y.[ 7.x [ 3.[ ^ ^ 3.7.7.[ [ 7.7.7.y.7.W W W 4 x ^ ^ ^ ^ 7.^ ^ 3.[ [ W [ W 3.[ 7.^ 3.7.7.7.K ^ ^ 7.7.y.[ y.y.7.[ y.3.^ >X|.F.^ 7.K 7.[ 7.W 7.3.[ ^ 3.7.[ 7.7.7.^ W 7.y.[ ^ 7.^ G 7.7.H 7.F.y.^ 7.[ ^ [ ^ x H W W G [ ^ ^ ^ x x W W 7.^ W x y.[ ^ W [ G W =X>X`.`.y.^ 7.^ y.^ ^ K 7.^ 7.y.7.y.7.y.7.^ ^ ^ x 3.W W C x C W ",
"W C ^ C W ^ y.^ ^ ^ ^ 7.7.^ ^ W ^ 7.y.^ ^ 3.^ ^ W 9.^ W ^ |.|.XXC H ^ ^ 7.^ 3.H [ 7.[ 7.7.[ 3.7.y.[ 7.W 7.^ [ K G 7.[ ^ ^ ^ H W [ W ^ W ^ ^ G x W W [ ^ x ^ ^ G ^ W H 7.^ 3.y.F.y.^ y.a.[ [ >X`.[.H [ [ [ 3.K [ ^ 7.[ ^ [ [ [ [ W [ 7.^ ^ ^ 7.^ 7.x [ 3.7.^ W 3.W 7.7.7.7.[ [ ^ [ 3.[ 7.7.7.7.7.7.[ 7.7.y.y.F.F.F.7.y.7.y.G F.|.>XF.7.x 7.7.y.7.[ 7.7.7.^ [ [ y.7.7.^ 7.7.W 7.[ 3.W W 7.[ [ 3.7.7.x [ ^ 7.[ 3.W ^ ^ [ ^ 7.^ [ ^ G H G W ^ ^ ^ [ 7.7.[ ^ [ K K [ 8X|.`.^ 7.^ 3.7.F.y.^ 3.7.^ ^ y.F.K y.7.3.C 7.7.y.7.3.^ 7.^ 7.x ",
"^ 7.^ 3.3.^ x ^ W 7.H ^ C ^ W ^ 7.7.^ 7.^ 7.^ ^ C 3.x ^ !.XX>X|.^ W x y.^ y.7.^ H G 3.7.[ [ 7.[ [ a.[ G 7.7.[ G K 7.7.y.[ 7.x d W K [ G W [ G G G W G x x ^ ^ F.G [ [ 3.7.y.W 7.7.[ 3.W G F.>X>X[.7.W [ [ 7.7.7.W H ^ y.K 7.G 3.7.^ [ 7.x 7.G 7.^ [ W G G 7.7.G W 3.7.W ^ 7.W 7.[ [ W ^ 3.y.G y.a.[ [ y.y.F.y.7.[ y.7.3.7.3.!.>X[.!.7.G G 3.a.[ W [ W [ ^ ^ H 7.^ ^ G y.H H y.[ [ 7.7.G [ [ ^ 7.7.y.[ a.G x G W ^ ^ x x G [ G G [ y.[ G y.^ W y.F.^ ^ G K W x [ |.=X`.^ W ^ ^ ^ 3.3.3.F.^ y.y.7.F.y.7.7.^ ^ 3.y.3.C 3.W ^ x W W ",
"^ ^ 3.W y.^ y.W ^ W 3.^ 7.7.^ 3.3.^ ^ ^ C ^ W ^ 7.7.^ H `.|.|.|.C ^ y.^ H 7.^ ^ 7.^ [ W F.^ ^ ^ W [ 3.3.7.3.[ a.7.[ W W [ G 7.G y.^ 7.K [ x ^ G W W ^ [ K [ ^ F.G W [ a.y.^ y.y.7.y.y.7.y.!.>X|.XX[ 7.[ [ 7.G W 7.K ^ W 7.y.[ [ W ^ y.W ^ [ ^ 7.^ ^ 3.[ 7.W [ 7.[ K y.^ y.[ y.7.7.a.y.7.^ [ 3.F.y.G [ F.y.y.y.7.F.F.y.F.y.y.!.|.|.y.[ 7.3.[ 7.[ ^ 7.[ W K [ F.[ 7.^ [ [ [ [ 7.[ ^ W ^ G [ 7.y.^ ^ ^ [ 7.7.W H W x x [ G 7.G ^ d x K 7.7.7.[ 3.W 7.x 7.7.^ G G x =X=X`.F.7.3.7.3.^ ^ 7.7.^ ^ F.3.y.W y.^ 7.3.y.^ ^ ^ y.^ ^ ^ 3.^ ",
"^ ^ W ^ ^ ^ W W ^ ^ ^ 3.^ x 7.3.7.y.^ C ^ H H ^ ^ ^ ^ ^ W.|.=X|.^ W W W K y.^ C ^ ^ G [ ^ 7.W [ G H [ ^ 7.y.^ 7.[ ^ W ^ ^ W ^ [ y.W ^ [ [ ^ W W W W W 3.G W ^ W W G G W 7.^ 7.7.[ y.[ 7.G 7.=X>X[.7.[ [ [ 7.W ^ ^ 7.^ 7.[ [ [ 7.G y.K [ H K [ [ ^ G [ [ [ [ 7.W 4 [ 7.W 3.7.3.^ 7.F.3.[ a.7.^ ^ W [ [ F.7.7.W y.[ y.y.F.[ 7.!.>X`.}.y.3.[ 3.[ a.7.G [ y.^ 7.7.^ [ [ F 7.y.[ y.^ [ G H ^ G y.^ [ 7.^ 7.x [ F.W 7.x y.^ ^ [ G [ W G ^ [ 7.^ G 7.3.^ [ ^ 7.W W G ^ =X=X!.`.^ y.7.3.3.7.^ y.y.W 3.^ y.^ 7.y.^ 3.^ y.^ ^ W ^ ^ d H H ",
"^ 7.7.^ ^ ^ 7.W C x ^ ^ 7.7.y.^ F.^ 3.^ ^ W ^ ^ ^ 3.^ W W `.=X[.^ C ^ ^ ^ 7.7.^ ^ ^ ^ 7.^ 7.[ [ [ ^ y.[ y.^ ^ ^ [ ^ 7.d ^ H y.[ ^ a.7.^ [ [ H W G G W ^ [ ^ 7.[ 3.3.y.^ F.7.7.[ [ W W 7.H F.wX|.|.7.W [ y.7.[ ^ y.^ 7.7.7.[ [ K 7.[ a.7.[ 7.^ ^ G 7.[ 7.[ [ [ G x 7.[ ^ 3.7.^ 3.7.x y.a.y.y.3.H [ a.F.F.7.F.F.[ 7.3.y.F.a.7.`.=X>X`.y.y.y.y.3.y.7.^ 7.7.a.7.W [ [ [ y.7.7.7.7.G 3.^ ^ [ 7.H W 7.7.y.y.W G 7.W ^ 7.W ^ d 7.^ 7.[ W W [ G 7.^ y.[ [ [ 7.^ ^ W G W 8X=X`.y.7.y.7.3.y.7.F.W 7.3.y.^ ^ ^ F.7.3.^ 3.7.3.H ^ 7.7.7.^ ^ ",
"7.^ W ^ W W C x C ^ ^ ^ 3.^ 7.^ 7.7.W y.^ ^ ^ ^ H 7.W 7.F.=X|.|.x ^ K 3.W y.C ^ ^ ^ ^ [ ^ ^ W G W H [ G ^ 7.W W W u x W x 7.W 7.[ ^ ^ y.W ^ W [ W ^ G 7.H [ 7.W ^ [ ^ W [ 7.7.7.W 7.H [ G a.XX=X[.7.7.[ [ W ^ [ ^ [ 7.^ ^ 7.^ ^ ^ [ 3.[ W 7.H H W K [ 7.K 7.W 7.W ^ [ y.[ 7.7.3.[ G 3.W [ 3.[ y.^ 7.7.7.7.a.^ 7.[ [ [ 3.7.^ F.8X|.F.G 7.[ [ ^ [ [ 7.^ ^ [ 7.K ^ G [ ^ 7.[ 7.[ ^ G ^ W ^ G K [ [ [ 7.W 7.W ^ 7.[ x x H ^ ^ ^ [ a.W H [ W [ [ 7.x G [ G ^ ^ ^ x ^ |.=X!.y.3.7.3.^ y.y.y.C ^ 7.^ 7.^ y.3.3.^ y.^ 7.H ^ ^ 7.K ^ ^ 7.",
"^ W ^ C W H y.H ^ W ^ ^ 7.3.y.3.7.7.3.^ ^ ^ C ^ 3.^ y.W `.=X=X|.^ W ^ ^ ^ C x W 3.^ ^ ^ y.[ 7.[ ^ K [ W H H 4 G G W [ G [ H W [ G [ [ ^ 7.K ^ ^ K W W x ^ W F.W ^ ^ ^ [ [ 7.[ ^ 7.^ [ W [ F.8X[.|.^ [ [ 7.[ ^ W [ ^ ^ [ y.W [ [ [ [ [ [ 7.W 7.G ^ ^ 7.K y.[ ^ K 7.y.^ ^ [ [ ^ [ [ ^ 7.3.K [ 7.[ y.W ^ y.a.7.7.H 7.a.y.y.7.3.!.=X=X!.7.[ [ ^ y.^ ^ 7.y.7.3.[ [ [ 7.^ 7.^ 3.G a.[ [ [ W 7.[ W ^ G [ [ ^ [ ^ ^ [ K W G G ^ 7.[ 7.[ H [ ^ 7.^ W G G G [ [ 7.^ G W ^ wX|.`.!.H 7.y.^ y.7.7.3.^ W 7.7.7.^ y.^ 7.3.^ 7.7.^ 7.H C 3.7.^ ",
"^ ^ x ^ C W H ^ y.^ ^ y.^ C 3.y.^ 7.y.^ 7.^ ^ ^ 7.W ^ y.y.8X=X=XF.H y.C ^ ^ ^ H ^ ^ G C y.3.^ 7.G [ W [ 7.x W W W 7.[ H K y.^ G y.[ W [ W 7.x ^ ^ G G 7.G F.G 7.a.a.7.y.[ 7.[ [ [ 3.G ^ [ [ =XXX|.y.^ [ 7.y.G y.^ y.W W ^ 7.G [ F.^ [ [ y.W 3.[ 7.[ 7.7.3.^ W ^ 3.7.G ^ [ a.7.W [ 7.7.y.^ 7.e [ y.7.7.7.y.a.7.y.3.a.^ F.7.F.W >X>X!.F.y.^ 7.F.7.[ [ [ [ [ [ 3.^ ^ y.7.G y.^ 7.H ^ W ^ ^ W y.G K 3.y.^ 7.^ 3.W x G G K W G y.W ^ 7.[ H F.^ [ W ^ ^ ^ W [ C W H d =X8X`.F.7.7.W 7.W W C y.^ W ^ 7.7.7.^ F.7.y.C ^ ^ y.^ ^ W ^ ^ ^ ",
"^ ^ W W H C ^ W ^ ^ ^ 7.y.y.y.^ 7.^ W ^ 7.H 7.^ K ^ W W W.=X=X=X^ W ^ 7.y.^ a.^ ^ y.^ ^ ^ 7.^ ^ y.W W ^ W ^ ^ H [ ^ W 7.G ^ [ ^ 3.^ W [ [ [ W ^ 3.x 7.^ ^ x ^ ^ 3.7.^ G ^ W ^ 7.^ W ^ x 7.F.>XXX=X^ 7.[ 3.3.7.7.^ ^ 7.[ [ W 7.7.^ ^ 7.^ y.7.3.7.^ F.W ^ 7.7.^ W y.[ ^ 7.y.[ 7.W [ 7.H 7.7.7.7.7.F.7.7.[ y.7.3.7.y.K F.^ 3.7.F.=X=XF.G a.^ 7.a.7.[ 3.[ [ 7.[ 7.[ y.^ y.H [ [ 7.H ^ W ^ G [ K W W [ W ^ y.7.x ^ G W ^ ^ ^ K 3.7.G 3.H ^ G K ^ K ^ 7.^ W H W ^ H 7.=X=XW.^ 7.W W ^ 7.^ ^ y.^ ^ 7.3.y.7.3.d 3.7.^ ^ 7.d ^ C C ^ ^ ^ ",
"^ H ^ ^ C W K ^ C ^ 3.y.^ 3.7.^ W y.y.7.^ 7.y.^ ^ ^ ^ 3.F.|.|.>X3.^ H ^ 3.^ ^ 7.^ ^ 7.7.^ 7.G ^ 7.K 7.^ W 7.W [ G ^ G ^ ^ 3.W [ W [ 7.[ [ [ W 7.^ W [ [ [ ^ ^ W [ [ 7.7.W ^ [ ^ [ a.[ [ [ F.=X>X[.7.W ^ ^ [ y.[ ^ [ 7.a.^ ^ H W [ a.[ y.^ 7.[ W 7.F.[ [ K [ ^ ^ x ^ 3.y.[ 7.7.W W 3.[ [ [ ^ 7.H 3.7.a.7.7.7.y.7.7.y.7.y.7.7.F.>XXXF.7.[ [ 7.3.[ [ [ K 3.3.7.[ 7.^ H 7.y.W K 7.W [ 7.W [ W [ 3.K G ^ [ ^ H W G [ G W [ [ G [ ^ ^ W 3.G ^ H [ [ a.W [ 7.^ W 3.C 7.=X=XF.y.^ ^ W ^ C ^ ^ ^ ^ ^ ^ 7.d y.H 7.y.H C ^ C H H x C W ^ 3.",
"^ W ^ ^ W ^ 7.7.y.3.W 7.a.H ^ ^ ^ F.^ 7.7.7.^ y.F.7.3.^ `.=X>X!.W ^ ^ 7.7.^ F.3.7.y.7.G F.W 3.G 7.^ 7.7.^ W [ W K x W ^ ^ ^ 7.^ G 3.y.7.[ [ W G y.[ 7.^ 7.7.7.G G 7.F.^ G ^ W [ 7.y.y.[ [ F.>X[.[.y.y.[ 7.[ y.^ W W 7.7.y.W ^ W [ [ 7.7.3.W a.G H H ^ [ a.y.y.^ H y.7.W [ [ [ 7.W 7.7.y.!.^ 7.[ a.7.[ y.F.W F.^ y.7.a.7.y.y.F.[.|.^ ^ y.W [ !.y.[ [ [ 7.G [ ^ ^ 7.7.W ^ [ [ [ 7.[ W H [ [ H ^ W y.H [ 7.G ^ W W ^ [ ^ 3.3.7.^ ^ x H [ 7.7.x [ [ [ [ ^ 3.C 3.y.^ |.[.!.7.y.x F.7.y.7.^ 7.7.^ ^ ^ 7.^ 3.C 7.C y.y.^ x 7.C W ^ ^ ^ ",
"C ^ C ^ ^ C ^ W ^ ^ y.7.^ 3.^ 7.l.9.y.7.y.y.x ^ ^ 7.^ ^ y.=X|.`.y.^ ^ W 3.7.^ 3.^ y.3.y.7.3.^ [ W ^ [ G [ ^ [ W G H H [ [ [ [ W ^ ^ ^ [ [ W ^ 3.^ W H ^ ^ [ H y.7.[ K G ^ [ ^ [ [ [ 7.W 7.y.|.|.`.^ 7.[ K [ 3.^ 7.y.K 7.[ 7.[ ^ [ [ ^ ^ ^ y.7.7.W [ 7.a.a.7.[ 7.7.7.^ 3.7.y.W ^ W ^ [ ^ 7.3.7.a.y.y.3.^ 7.7.y.^ [ 7.7.[ [ a.y.[.[.F.7.^ ^ 7.G y.K [ ^ ^ W ^ 7.[ [ 3.7.7.K ^ K W ^ ^ W ^ H 7.^ 7.W [ K [ x 3.H [ [ 7.[ [ W [ W [ G W ^ ^ ^ W W [ W ^ W H W ^ H ^ |.|.F.y.y.y.7.7.7.^ ^ 7.^ y.^ 7.3.^ y.^ 3.H ^ ^ 7.^ ^ W ^ 3.W K ",
"K ^ 7.^ W C W 7.^ ^ W y.3.3.^ y.F.^ y.7.y.7.y.7.^ ^ 3.^ y.[.=X>X^ H W W 7.y.^ F.^ ^ 3.3.F.y.y.7.7.^ [ G ^ [ 7.^ y.y.y.^ 3.[ [ W 7.^ y.7.[ [ y.^ ^ [ [ W 7.[ F.^ ^ W 3.W [ [ y.^ 7.y.^ ^ 7.y.>X|.|.^ [ [ W [ y.^ 7.[ [ a.a.a.a.[ y.[ 7.W 7.7.y.3.y.7.7.7.y.a.y.7.y.[ 7.^ 7.[ ^ [ W W y.3.^ y.a.y.F.3.7.7.y.[ 7.7.^ 7.7.[ [ 7.[.>X>X7.3.7.7.H 7.[ y.^ y.3.y.7.F.^ [ 3.7.^ 3.[ ^.F.3.7.7.y.7.[ 7.^ [ [ 7.^ y.^ ^ 7.7.^ [ [ [ [ 7.y.^ K 7.^ W ^ H [ F.^ y.^ ^ W ^ ^ =X=XW.^ 7.^ ^ ^ y.W ^ ^ 7.^ 7.^ y.y.7.C ^ ^ ^ ^ y.7.^ W y.W ^ ^ ",
"C W C 7.3.^ x 7.^ 7.9.K 3.^ 3.7.7.3.3.7.W y.a.3.H ^ ^ W }.|.|.|.x C C x ^ y.W ^ W ^ W ^ ^ y.^ H G ^ [ W 7.y.y.H H G 7.^ [ ^ W G u y.^ W ^ ^ G 7.W x W ^ y.7.[ 7.3.7.[ H [ [ H 3.G G [ G x `.|.>X|.G W G W [ H ^ [ W [ [ [ [ y.^ [ 7.^ W 7.F.7.F.^ W y.y.H y.7.^ K 7.^ ^ ^ y.^ 3.H x K 3.7.[ y.y.[ a.7.7.G y.y.^ G [ [ W G x |.=X|.!.x G ^ ^ H y.y.[ ^ 7.7.^ 7.!.3.7.[ F.G 7.^ y.y.W ^ y.^ 7.[ a.7.K y.F.7.y.x W y.x W ^ W y.^ 7.^ W H W [ 7.^ ^ y.C F.7.W W C !.|.=XW.e H ^ K ^ 7.^ ^ 7.^ y.x 7.x C 7.^ ^ ^ ^ ^ 7.H 3.7.^ x W ^ ",
"`.Q.`.`.`.P.[.`.`.[.|.}.`.`.|.|.|.[.|.[.[.[.=X[.|.|.|.[.|.|.=XXX[.[.=X[.|.|.=X|.|.[.|.[.`.[.|.|.|.[.>XXX|.[.|.|.}.[.>X|.XXXX>X|.XXXX>X|.|.[.XXXX|.`.|.|.}.|.>X|.|.|.=X|.XX|.>X=X>X|.|.|.|.|.>X>X>X[.XX|.|.|.>X|.|.[.>XXX}.[.XX|.|.}.>X|.|.|.|.XX|.[.XX|.XXXX|.}.|.}.=X|.|.|.|.|.[.!.|.|.}.`.|.|.|.|.|.[.|.[.>X[.|.[.=XXX|.XX|.|.|.|.|.|.|.|.>X|.|.}.|.|.[.[.|.|.|.}.>X>X|.[.|.[.XX[.[.[.|.[.XX}.|.[.>X|.|.|.XX|.|.`.|.|.}.|.[.[.[.[.|.|.|.|.=X|.|.[.|.|.|.[.[.|.=X[.|.[.|.[.[.|.|.[.[.[.`.[.[.[.[.`.`.[.`.^.|.`.`.`.[.`.`.^.!.[.",
"|.[.[.[.[.|.|.[.[.[.XX|.[.=X|.[.[.|.|.|.[.=X[.|.|.=X|.|.[.|.|.=X|.=X|.|.|.=X|.=X[.=X|.XX|.=X|.|.|.[.XX>X|.>X>X>X=X>X>X>X=X8X>X>X=X|.>X>X=X>X=X>X>X|.|.=X>X>XXX=X|.>X[.>X|.>X}.>X|.|.|.>X=X=X=X=X>X>X>X>X>X>X=X|.>X>X=X>X|.>X|.=X>X|.=X=X=X>X>X>XXX>X=X=XXX>X>X=X=X>X>X>X>X>X>X=X>X>X|.>XXX>X>X>X>X|.XXXX|.|.[.|.|.>XXX>XXX>XXX>X>X>X>X>X>X>X=X=X>X>X|.>X=X>X=X=X|.=X|.>X>X=X>X>X>X>X=X=X=X=X>X=X>X>X=XwX>X|.>XXX>XXX|.>X>X>X|.>X|.>XXX>X>X|.[.=X|.|.|.=X=X|.|.=XXX=X|.XX[.|.=X|.=X[.[.=X|.[.[.|.|.|.}.[.[.[.|.=X|.[.|.[.[.[.[.|.",
"[.[.|.|.=X|.=X=X=X=X=X=X8X=X|.|.=X=X=X=X8X=XwXwXpX8X8X8X=X=X|.=X8X=X8X8X8X8XyX8X8X8X8X=X8X=X8X8X8X8X8X8XwX8X8X8XyX8XwX>X8X|.>X|.XX>XwX>XyX8XpXwXyX8X8X8XyX8X>X>XyX8XyX8XwX8XyX8XyX8XpX8XyX8XyX>XpX8XpXyXhXyXyX8XyXwXyX8X8X8X8X>X=X>X8X8X8X8X8X>XwX>X8X8X>X>X=X}.XX|.8X8X8XwX8X8XyX8XyX8XpX8X8X>X8X8XwX8X8X=X>X8XwX8X8X>X8XwX8X>XyX8XpXwXyX8X8X8XpXpXhX8XyX8X8X=X8X8XyX8XyXwXwX>X8X>X>X>X=X=X=XXX|.|.=X8X8X8X8X>X8X8X8X8X8XwX8X>XyXwXpXwXpX8X8X=X8X=X8X8XwX8X=X=X8XwX>X>X8XwX8X=XwX=X8X=XwX=X=X=XwX=X=X>X=X>X=X|.=X[.|.|.|.[.|.[.",
"`.F.`.!.[.[.F.W.^ [.`.[.[.[.`.[.[.!.`.[.[.|.|.[.W.`.[.|.|.|.`.|.[.[.|.`.|.|.=X|.=X`.8X=X=X=X=X|.|.[.>X8X[.[.>XwX>X[.>X|.8X8X|.|.[.=X>X>X>X>X>X>X|.=X>X>X=X>X=X8X>X=X8X>XyX|.>X8XF.|.=X>X>X>X=X8X|.>X>XwX=X8XyX>X=XyX>X8X8X8X>XyX>X|.>X8X=X8X8X8X8X8X=XwX=XpX|.|.}.>X|.>X=X8XwX8X=X>X>X8X>X8X8XyXwX=X8X8X>X8X=X=XXX[.`.>XXXwX>X8X>X>X8XyX=X>X8X8X>X8X>XpX=XyX>XyXyXpX8XyX8XpX=X>XwXyX8XyX>X>XpX|.}.XX=XyX8X>XyXyX8XpX>XyX>XyX8X8XwXpXpXpX=XyX8X|.=X=X|.=X|.8X=X8X=X=X=X8X=X=X8X8X=X=X=X=X|.=X8X8X8X8XyXyX=X=XwX8X=X|.=X8X=X=X[.=X",
"`.[.K H ^ ^ ^ x x W W 7.^ x 7.y.y.^ ^ H ^ 3.^ 7.H 7.F.F.3.^ ^ ^ y.H 7.C F.7.^ W ^ W y.^ y.^ 3.^ 3.W ^ y.F.7.F.y.7.[ ^ ^ F.8X=XXXXXF.a.W F.y.F.y.H [ G y.F.[ F.y.F.`.^.y.F.y.F.y.F.F.F.a.F.F.F.y.W F.F.y.F.^.F.[ ^ 7.y.y.`.a.y.7.F.^ 7.a.F.F.F.[ y.y.[ W ^ a.8X|.XX`.^ 7.[ y.y.[ ^ G [ H ^ 7.^ [ y.y.F.K 3.^ a.G 7.W 7.W [ F.7.7.F.W F.^ [ y.F.^ [ a.a.3.^ F.y.y.F.a.F.^ [ y.7.y.7.F.F.[ y.^ !.XX=XXX>X!.y.7.F.F.7.7.a.[ F.^ 3.W 7.3.F.F.7.7.F.^ F.y.y.^ F.F.F.7.F.F.F.3.7.^ W.W 3.W 7.7.^ W y.C F.7.F.3.^ W 7.^ ^ ^ y.^ ^ C |.`.",
"[.W.^ 7.7.^ H x x W ^ H H W ^ W ^ 7.^ 7.^ ^ ^ ^ ^ ^ ^ ^ ^ ^ ^ 3.^ 7.C W K ^ ^ ^ H ^ ^ ^ C 3.^ ^ ^ F.^ y.3.3.K 7.[ 7.7.W ^ `.}.XXXX7.7.y.y.^ 7.W ^ 7.3.7.3.y.y.y.F.y.F.F.F.a.[ a.F.y.F.F.y.y.[ F.F.y.y.a.[ a.W y.^ 7.7.a.3.7.[ ^ y.7.^ ^ 7.^ 7.[ [ 7.^ 7.[ ^ [.>XXXy.^ 7.W 7.[ 7.W [ H a.[ ^ ^ 3.7.W [ y.7.[ 7.F.^ W K 7.H H W W [ 7.[ 7.W 7.7.y.[ [ ^ y.7.7.K y.7.7.7.F.y.y.a.W 7.[ 7.F.7.7.W [.XX>Xy.W 7.y.7.7.y.y.7.7.[ ^ 7.3.7.7.^ 3.^ 7.y.y.7.^ ^ y.^ 7.^ W ^ ^ ^ 3.^ 7.^ C 7.H W ^ ^ ^ ^ ^ ^ 3.W 3.^ ^ y.^ C H W 7.7.3.Q.[.",
"=X!.^ ^ ^ C W C W x C H W x 7.C H 7.y.^ ^ ^ ^ ^ 7.^ W 7.7.W W 7.^ ^ ^ ^ y.W ^ W H H ^ 7.^ ^ 3.x 3.7.F.^ [ y.[ 7.7.7.7.7.7.`.XX|.|.3.y.[ F.7.y.W ^ ^ 7.7.y.7.F.y.F.y.F.F.F.[ F.F.F.F.y.7.F.[ F.[ a.7.y.y.F.[ F.F.y.7.F.7.a.7.y.y.7.H F.[ y.^ y.7.3.7.7.[ [ 7.[.>X8X^ ^ ^ ^ W F.[ 3.G 3.7.3.^ 3.^ y.G 7.[ 7.W ^ ^ ^ W ^ [ ^ G [ W F.7.[ ^ 7.^ 7.7.^ ^ ^ y.y.y.^ [ a.[ 7.y.7.7.[ a.7.K 7.[ ^ ^ 3.|.XXXXF.y.7.7.F.y.7.7.a.^ 7.^ y.3.y.^ ^ ^ y.7.W y.F.^ 7.^ ^ 3.7.3.^ ^ ^ 3.3.^ y.^ ^ H W C ^ ^ ^ 7.7.7.7.3.^ ^ ^ C W W ^ ^ 3.W P.|.",
"`.F.^ W W C K ^ C C C W x ^ ^ ^ H ^ ^ d 7.C C C W ^ K 7.K ^ ^ ^ ^ ^ W H H ^ ^ W W ^ ^ ^ 7.7.^ F.W W ^ 7.7.^ 3.y.[ y.W [ W `.>X}.`.7.^ y.G F.^ [ ^ [ H W W y.3.7.y.7.[ 7.7.7.[ 7.7.a.[ y.7.F.y.[ 7.7.[ a.7.7.^ 7.7.7.[ [ y.y.7.H W ^ W G H ^ [ [ [ ^ ^ ^ [ [ !.XX|.7.W ^ ^ 3.^ 3.K 7.W K [ 3.7.^ ^ 7.K [ K [ ^ ^ G G W ^ H 7.W G W ^ ^ 7.7.3.G [ W y.7.[ K 3.^ W [ y.y.G ^ 3.^ 7.^ H y.7.H 7.W >XXXXXF.[ 7.7.y.7.y.y.3.^ x 7.7.^ ^ ^ W H W y.y.^ ^ 7.^ ^ C ^ H y.W ^ x ^ H W ^ C C H W ^ W H ^ 7.W C H C C ^ C ^ W ^ ^ ^ H ^ F.[.",
"|.P.^ ^ ^ H x C C x W C C C 3.W ^ ^ W C W C C x H ^ W C ^ ^ e C 7.W ^ 3.^ C C C H d W W y.K F.^ W ^ x 3.3.^ 7.y.7.y.y.W y.`.>X|.|.y.y.7.[ 7.W 3.W [ W 3.y.y.7.7.F.F.a.K F.7.^ 3.[ 7.3.7.F.3.W 3.y.7.7.7.[ [ 7.[ 7.^ [ 7.a.[ G ^ 7.3.W ^ ^ 7.7.7.y.y.3.[ [ [ |.XX>X7.7.7.[ 3.[ 7.^ 7.^ W 7.[ 7.3.[ ^ [ x G [ [ G ^ G [ G ^ ^ ^ [ W 7.[ G K 7.7.7.^ ^ 7.[ G 7.W W y.H ^ 7.^ ^ 7.^ 7.^ a.y.[ 7.[ >X>X|.^.y.7.y.F.y.y.7.y.H 7.3.3.7.y.y.7.W ^ y.y.W ^ K ^ C ^ ^ ^ ^ ^ ^ W H W ^ 7.W ^ C 7.W W ^ ^ ^ ^ H ^ W W H 7.C W W 7.^ ^ W `.|.",
"=XW.W y.W W ^ C C W W C ^ H C C W H W 7.H x W W ^ W C W ^ 3.^ x ^ H ^ ^ 3.x W ^ ^ W ^ W ^ H ^ W W x W W 3.7.7.7.^ ^ W y.W `.|.`.[.y.[ [ y.K 7.7.[ 7.[ y.7.7.[ 7.^ 7.[ F.a.7.7.[ [ a.y.7.y.F.7.3.7.3.3.^ ^ [ [ W ^ a.[ y.a.7.^ 7.y.3.[ y.[ [ F.[ 7.^ [ ^ [ [ `.>X=X!.W [ a.7.^ [ 7.3.[ 7.7.[ ^ 7.[ 7.^ y.[ G K 7.^ [ ^ ^ [ x G W ^ 7.7.[ [ 7.3.a.7.y.W [ ^ [ ^ y.3.^ W y.[ y.y.y.7.y.^ 7.[ a.[ =X=X=Xy.3.[ F.7.F.7.F.7.7.[ 7.^ ^ F.y.7.^ ^ 3.^ 3.W W H 7.W 7.C ^ 3.H ^ W ^ 3.C C W ^ H ^ ^ ^ C ^ x ^ C 7.^ H W W ^ W W W 7.^ F.=X",
"=XF.7.H ^ K 7.x W C W C ^ x C W H W ^ C W C x K ^ W ^ W ^ H ^ x H W 7.7.^ C ^ W ^ ^ ^ 7.^ W W W ^ W ^ W 7.7.y.^ 7.[ ^ ^ [ !.>X|.`.7.y.y.y.[ 7.[ 3.^ ^ [ y.7.[ [ 7.y.a.7.y.7.^ ^ y.7.y.a.y.y.y.[ F.3.7.7.y.^ 7.[ 7.y.y.a.7.^ 3.W ^ ^ y.K 7.7.F.3.^ 7.[ W G ^ `.>X=Xy.7.[ K 7.F.[ 7.7.7.[ a.[ ^ H ^ [ ^ y.y.^ 7.H ^ W [ H W K H W 7.^ 7.G ^ [ 3.[ 7.7.[ [ ^ [ 7.W ^ ^ [ [ K 7.a.7.7.^ 7.[ ^ ^ 7.XX=X>X7.e 3.F.a.7.7.y.y.7.7.^ ^ ^ F.^ y.3.7.^ 7.^ ^ W ^ 7.^ C ^ C ^ C 3.^ ^ 7.C C H 7.H ^ H ^ ^ x W ^ ^ ^ ^ ^ W ^ ^ W ^ ^ W 7.W.=X",
"|.^ C C ^ W d H x x H x K W C C W C H 7.C W C C C W H W ^ W ^ ^ W W ^ ^ W W C W C ^ W ^ 3.3.K C H W ^ 3.^ 3.^ ^ ^ y.^ ^ [ y.|.}.`.7.[ y.y.7.W y.[ 7.K y.7.y.[ [ 7.7.7.[ 7.y.F.^ ^ 7.[ a.[ y.[ y.7.7.y.[ ^ [ [ 7.^ 7.7.y.[ 7.^ ^ ^ 7.[ ^ W ^ a.y.7.7.K ^ [ ^ F.|.|.7.G 7.^ [ F.^ ^ y.[ ^ [ ^ ^ [ [ ^ H y.[ [ K [ H ^ ^ [ W G ^ H x x [ [ G ^ ^ 7.[ ^ [ 7.W 7.^ 7.^ 7.3.[ [ ^ ^ a.7.^ [ y.W 7.[ |.=X|.F.G y.7.3.7.7.F.y.7.^ y.7.^ ^ W 7.^ W ^ 7.y.^ ^ W H C ^ ^ W ^ H ^ W W K W H ^ H W ^ ^ H W C d 7.3.^ C d W ^ ^ W ^ ^ x H W =X",
"=XW.^ 7.^ C C x x C ^ W W ^ C H C C W W C C C ^ C x H C ^ ^ 7.^ 7.W 7.3.C ^ ^ ^ C C C x F.^ ^ W W H C y.^ 3.C ^ 7.^ 7.[ W `.=XXX`.y.a.3.[ ^ [ G 3.7.y.7.7.7.F.7.y.y.a.y.7.7.y.7.y.7.[ F.F.y.W [ 7.[ 7.3.7.F.7.7.7.^ 7.[ y.7.^ [ W W [ G x [ [ [ 7.3.7.[ W ^ [.|.|.7.[ H [ G 7.W G G ^ ^ [ 7.W ^ 7.[ ^ F.7.W ^ ^ ^ [ 7.d W ^ ^ W [ G y.K 7.W ^ ^ 7.W K W x [ 7.^ 7.[ W K [ W W x [ 3.F.3.^ W ^ >X>X|.y.7.7.3.x 7.y.7.y.y.y.3.F.y.^ 3.^ 3.7.x ^ W ^ ^ 3.H H H ^ W C C ^ C ^ W ^ ^ W C 3.C ^ ^ ^ ^ C W ^ C 7.x ^ ^ ^ ^ 7.^ 7.W W.=X",
"|.F.W F.W C x x C C W W H ^ x 7.C H H C H W C C W W W ^ W ^ ^ ^ C W ^ ^ W ^ e ^ x C H W W ^ C C H ^ y.7.H ^ ^ 7.[ [ W a.^ [.=X[.`.W y.y.7.7.[ 7.^ ^ K ^ y.y.7.7.7.y.7.7.F.7.^ 7.7.y.[ F.7.y.[ 3.F.3.^ y.7.[ ^ a.W 3.7.[ 7.7.^ ^ [ [ [ [ [ K ^ 7.^ 7.7.[ H y.`.|.XX[ ^ [ H y.[ [ W W G ^ W W [ 7.^ [ W W [ K [ [ 7.H H G [ [ H ^ y.[ 7.^ ^ 3.W ^ G y.[ y.[ y.^ [ y.7.7.[ 7.7.7.^ 7.^ [ ^ ^ ^ ^ >X=XXX3.y.^ 7.y.y.a.F.[ 7.C ^ ^ ^ ^ y.^ ^ W F.W x ^ ^ ^ ^ ^ 3.^ K ^ H 3.C W 3.^ H H ^ C W C W W ^ W C W 3.^ 3.W x C W W W F.W F.|.",
"=X^ F.W y.^ ^ x C x C W W ^ W W W C K W C x 7.C W H ^ C H ^ H W ^ W C H W x y.W W ^ H 3.^ C 3.H W 7.^ ^ y.^ ^ ^ 3.[ 7.[ W !.>X|.[.a.y.^ y.y.3.y.[ 7.7.7.[ 7.^ ^ 3.y.[ 3.7.y.y.7.^ 7.F.^ 7.y.7.3.a.[ a.a.7.W 7.W 7.^ [ 7.7.7.a.^ y.[ [ [ ^ 3.7.7.[ 7.7.[ 7.7.[.>X|.^ W [ 7.^ y.[ [ [ [ [ H G 3.x y.x y.^ [ [ y.y.3.H G ^ [ ^ y.H 7.H 7.^ 7.^ 7.G G ^ 7.[ [ [ ^ W y.3.y.[ 7.7.7.^ 7.7.3.3.H ^ y.>X=X=X7.y.y.7.F.[ 3.7.y.3.7.^ y.^ y.7.y.^ ^ W 7.W 7.7.W C ^ C C 3.^ ^ 3.^ H ^ H ^ W ^ C W ^ W W C ^ W 7.^ ^ 3.C W 7.^ 3.3.^ y.^ |.",
"[.y.W C 7.7.W C C W W W ^ W C H C ^ H W C H ^ ^ C C H H W W x K ^ ^ ^ H W W 7.^ C C ^ ^ K C W C C ^ H ^ W y.y.W ^ y.H ^ G `.>X[.`.y.y.7.7.[ 7.y.H 7.W ^ x 7.^ [ W H 3.7.[ F.F.y.H F.y.y.W F.[ 7.[ ^ 3.[ K G [ ^ W W [ [ W y.W [ [ ^ [ [ [ W 7.^ ^ ^ [ [ W 3.`.>X}.7.[ 3.[ W W ^ H 7.W [ W [ W H K W [ 7.W 7.y.^ W W ^ [ G W K ^ [ ^ 7.y.G 7.G ^ W K G 7.^ ^ W 7.[ 7.[ 7.7.[ 7.7.[ K ^ ^ H ^ G XXXX|.7.7.7.W y.^ K y.7.7.7.7.7.^ 7.^ ^ ^ C H H ^ ^ W C ^ C W ^ ^ C ^ ^ 3.W y.^ ^ C ^ W W ^ ^ C ^ W H ^ W C 7.H ^ W 7.7.y.x ^ y.|.",
"[.F.y.F.W ^ ^ H C C ^ C 7.H ^ H 7.^ F.^ ^ W W x H C W H C ^ 7.^ ^ 7.^ x ^ W C C ^ ^ ^ C ^ ^ ^ 3.W y.7.^ C ^ C 3.^ ^ ^ ^ H `.=XXX!.y.y.^ F.^ F.[ W W y.7.H 7.7.y.7.^ [ [ 3.7.W 7.W 7.^ 7.[ 7.y.y.^ ^ y.y.[ x x [ G W 7.[ 7.y.[ H y.^ y.^ [ K ^ [ 7.7.K [ W W `.[.|.[ [ [ [ W W ^ [ ^ ^ ^ W W 7.^ [ ^ [ [ 3.[ ^ ^ 7.7.^ 7.7.W 7.7.7.y.3.7.H ^ 3.H G G ^ ^ [ 7.3.y.y.7.[ 7.7.[ [ [ [ W y.^ ^ [ K >X>X}.y.7.y.3.y.7.7.y.7.7.7.3.y.7.F.H y.^ 7.7.^ x 7.^ W C ^ x d 4 ^ W 3.7.7.^ ^ ^ 3.C ^ x C C 3.^ 7.x 3.C 3.x 7.H ^ ^ 7.C F.y.F.[.",
"=XW.^ F.^ ^ H C C W H W ^ ^ ^ ^ C ^ ^ W ^ x ^ H ^ W x W W H W H 3.7.C C ^ C H x C H C W W C x H W W W ^ ^ ^ 7.^ 7.3.^ 7.7.[.^.|.!.y.7.W F.[ [ 3.^ [ K [ W [ ^ ^ W [ [ [ [ 7.W y.[ [ ^ 7.7.y.[ a.^ 3.[ ^ [ [ ^ x ^ ^ G [ H 7.7.y.^ ^ W 7.[ 7.^ G ^ y.[ [ [ ^ !.>X|.7.[ [ 3.W W [ K ^ W [ G 7.^ 3.^ 7.W [ [ 7.^ [ W W H x ^ W W [ !.[ [ W W y.^ x G ^ K 7.W [ [ K y.7.^ G 7.7.K W [ 7.7.^ [ K x =X|.>X[ F.^ 3.7.^ 3.y.^ ^ H 7.^ 3.7.7.^ ^ W 7.H C C 7.C C W x x C 7.C W ^ C 7.^ ^ x W ^ C 3.^ ^ ^ y.7.^ C W ^ C W W ^ ^ 7.y.^ F.=X",
"2X3.^ 3.7.^ W H W W ^ ^ ^ H ^ ^ ^ ^ ^ C K W ^ C ^ ^ ^ ^ H C 3.H 3.7.W ^ ^ W W ^ ^ ^ d C ^ C x W ^ C ^ W 7.^ ^ ^ ^ H ^ ^ 7.`.XX}.`.[ y.a.y.y.7.7.y.7.[ [ y.7.[ [ 7.G 3.7.[ a.7.7.[ 3.y.7.7.^ W [ H 7.7.7.H [ 3.^ x y.W 7.y.^ K [ y.[ 7.^ [ 7.7.[ y.^ ^ 7.W [ `.|.|.^ x W G 7.^ 7.y.7.7.^ [ 7.[ [ ^ ^ [ [ ^ G ^ H K [ ^ G ^ [ 7.^ a.7.W 3.y.x 7.x x W G G [ ^ 7.7.7.7.7.^ [ [ 7.^ [ [ 7.^ y.K a.XX>X>X3.^ 7.y.y.y.y.3.7.7.y.7.y.3.y.^ 3.^ 3.^ 7.W ^ ^ ^ x ^ x ^ ^ ^ H ^ ^ 7.C 7.H ^ ^ 7.^ ^ ^ H 7.^ 7.y.^ ^ C ^ C ^ x 7.^ l.^ 7.=X",
"=X3.H ^ ^ H ^ ^ d W ^ ^ ^ W C W ^ x x x K ^ 7.y.x W W K ^ y.W C ^ x W ^ x H ^ d C ^ e ^ H ^ ^ 3.W W W 7.^ y.F.y.x 7.3.7.W F.|.`.`.7.W y.7.7.H W [ K 7.y.y.7.W [ y.^ 3.7.7.3.7.F.^ ^ [ 7.[ ^ 7.^ 7.[ 3.G ^ W H ^ G y.W G 3.y.x ^ H 7.y.7.[ 7.^ 7.[ [ a.[ 7.[ [.>X|.F.G [ W ^ W ^ [ W 7.^ ^ x W H 3.W W ^ G W W ^ ^ y.K 7.^ ^ F.W W ^ ^ 7.H y.W G ^ y.^ G x 7.[ [ W H ^ H [ a.W 7.7.y.7.[ H G y.=X=X=XF.^ W ^ 7.3.^ y.W ^ 3.F.7.y.7.y.F.7.C ^ H ^ y.7.x ^ ^ ^ F.3.H W ^ y.y.7.^ ^ ^ H ^ H W H ^ x ^ ^ W ^ ^ ^ 7.^ W ^ W 3.^ ^ ^ =X",
"=Xy.^ 3.H C x C C C x W ^ C ^ C 3.^ W ^ ^ W ^ W W ^ x W 7.C W ^ 3.C W ^ W C ^ C ^ H C W ^ W ^ ^ W W ^ y.^ ^ F.7.^ W 3.^ ^ =X|.|.}.a.y.7.y.7.^ 3.7.7.[ ^ F.3.F.[ 7.x [ ^ [ [ F.y.y.[ [ [ 7.^ y.7.y.7.y.a.7.H ^ ^ 7.7.[ 7.[ 7.7.W 3.^ 7.y.[ ^ W [ 7.a.y.[ ^ 7.[.}.|.W [ G K ^ 7.^ 3.W [ W H 7.y.3.7.W ^ 7.7.^ ^ W W W K [ x G 7.W y.G 7.d 7.W ^ ^ G K 7.W [ ^ 7.W F.^ ^ d [ 7.3.^ 7.^ 7.3.^ C ^ =X|.|.`.3.3.^ 7.F.y.y.y.7.3.3.7.3.3.7.y.7.7.3.^ H ^ x ^ ^ ^ ^ 3.^ ^ ^ H ^ ^ ^ 3.^ W G ^ C ^ ^ ^ x y.^ 7.H ^ W K H W ^ ^ ^ 3.^ l.=X",
"=X7.H ^ W W C C W ^ W ^ C ^ x ^ C W H ^ ^ C C 3.C W ^ ^ 7.^ C 7.^ C ^ H C C C W H x C ^ ^ ^ ^ W ^ W x W ^ ^ ^ y.^ F.W y.C y.}.!.!.a.7.7.7.y.G K [ 7.H ^ ^ 7.y.[ W H ^ ^ ^ 7.y.[ 7.W W 7.[ ^ 7.y.G y.H y.y.^ W W ^ [ a.y.y.x ^ [ 3.7.[ a.[ a.3.7.[ 3.7.y.^ H `.XX[.F.W [ 7.7.3.[ W 7.[ ^ ^ [ H 7.[ [ H W H 7.G 7.^ ^ W W [ [ W [ W G H [ [ H W [ H W W H ^ ^ ^ ^ H ^ [ 7.[ y.W 3.^ ^ ^ y.W W ^ =X|.8XF.y.^ 3.3.7.7.^ 7.7.^ H 7.7.y.7.y.y.3.^ H ^ ^ W H ^ W 3.7.3.^ x ^ ^ ^ y.^ ^ x ^ W 7.3.^ ^ ^ C ^ ^ W ^ C ^ W ^ W P P ^ ^ 7.8X",
"2XF.3.^ ^ W W C C ^ W W K C W H ^ ^ 7.C ^ W H W ^ H W ^ ^ ^ ^ ^ ^ H 3.C W x W x d C W ^ ^ C 7.^ ^ y.W W H ^ 7.C ^ y.y.^ 3.F.[.`.|.F.7.y.F.y.y.[ G 7.^ 7.7.^ [ K [ [ 7.y.[ y.[ [ 3.W 7.d 7.7.3.y.[ y.3.[ ^ ^ 7.^ [ 7.[ 7.7.y.7.3.y.W 7.^ 7.7.a.7.[ 7.7.F.^ [ }.=X=X^ [ [ y.7.[ 7.[ x [ ^ 7.W 7.3.W W 3.[ ^ d W H [ W W [ [ [ ^ ^ ^ ^ W 7.[ 3.[ 3.3.4 G H [ W [ ^ ^ ^ a.y.7.[ 7.^ a.y.^ ^ ^ W ^ =X8X=XP.F.7.^ 3.y.y.F.y.7.7.3.^ 7.y.7.7.^ ^ ^ ^ W 7.^ W ^ 3.^ y.C H W H W 7.^ y.x W d K W ^ C ^ W W ^ ^ 3.^ W ^ W ^ P ^ ^ 7.3.F.oX",
"|.`.C ^ C H x ^ C ^ W W x C x C 3.^ ^ W W C x W ^ C H x C ^ ^ ^ W ^ C ^ x C ^ H W 7.^ ^ x ^ H 3.7.^ ^ ^ W ^ 7.W W ^ C W ^ F.|.[.`.F.7.7.[ 7.[ 7.[ [ 3.7.H 7.^ [ [ [ ^ [ G ^ [ W G 7.G H [ W [ [ W [ ^ ^ 7.^ W W ^ 7.a.[ [ 7.^ [ [ 7.3.3.H ^ 7.^ ^ [ ^ ^ [ [ !.>X|.7.^ 7.[ ^ 7.[ [ W ^ W G 7.G ^ ^ W [ a.[ W G [ G x [ [ W [ G W 3.[ G y.[ [ K 7.G H W W H W H 7.^ 7.[ [ ^ y.^ 7.[ ^ ^ 7.C H H =X|.=X3.^ ^ ^ 3.H 3.y.^ W ^ 3.7.7.y.F.^ y.^ ^ ^ 7.W ^ ^ y.H W W W W x W ^ ^ 3.^ H d W W ^ W x C C d ^ C W C ^ x ^ P P ^ P ^ P `.=X",
"8XF.7.^ P x ^ K ^ W ^ W ^ W ^ C ^ W 7.H ^ ^ C W W W H C ^ C 7.^ ^ ^ ^ ^ C C C W ^ 7.^ H ^ ^ ^ C ^ ^ ^ ^ ^ ^ W ^ ^ W ^ C W Q.>XXX`.7.7.7.y.a.F.7.[ 7.3.^ y.^ y.[ 7.[ ^ W ^ W [ x [ x ^ G [ [ [ 7.[ [ W ^ ^ ^ ^ K ^ ^ [ [ y.[ 7.y.^ y.3.[ [ [ ^ G y.^ [ 7.[ ^ |.|.=X7.[ ^ [ [ [ [ 7.7.^ [ [ H ^ [ ^ H [ ^ [ W [ x W W W W ^ W [ H y.^ [ H 7.[ [ G ^ ^ W x [ [ ^ x 7.^ [ W 7.^ 3.W ^ ^ 7.^ ^ H W =X=X|.y.H 7.^ ^ ^ 7.W 7.^ F.F.7.y.7.7.3.^ 7.3.y.C ^ ^ ^ ^ ^ ^ ^ ^ ^ H ^ C W W ^ x ^ W W ^ ^ ^ C W ^ C W C ^ ^ ^ ^ P G ^ ^ ^ ^ !.2X",
"=X7.7.^ ^ W x W ^ G x 3.H ^ W W 7.H ^ 9 ^ ^ C ^ C W C x C K C ^ ^ W ^ ^ ^ C ^ ^ ^ 3.3.^ W 7.^ d ^ ^ 3.7.^ ^ ^ ^ C ^ H 7.^ F.|.[.`.y.3.7.a.K 7.7.^ y.[ x ^ ^ W ^ a.W [ x y.7.^ ^ W W W ^ y.7.[ 7.[ [ ^ ^ H 7.W y.^ y.W 7.^ W x 7.y.[ 7.7.7.y.3.7.[ 7.H 7.7.W F.>X=X7.7.7.K 7.7.y.7.7.^ ^ ^ G W [ 7.[ W [ 7.H W H ^ ^ W G W ^ ^ W ^ [ G ^ [ ^ [ [ H [ W W ^ y.W ^ 7.[ K [ 7.y.^ ^ C 3.^ K ^ x C =X=X|.^ ^ 3.y.y.y.W ^ 7.^ 7.y.3.y.F.F.7.7.3.^ ^ y.x 3.^ ^ ^ x ^ ^ 4 7.^ 7.^ C W x H W ^ 7.C 3.C ^ W 7.G ^ K ^ ^ 7.^ ^ ^ 7.P l.3.8X",
"2X7.P P 7.P C P ^ C W ^ ^ 7.C W ^ ^ W ^ ^ x ^ ^ ^ H C ^ ^ ^ C C ^ W y.C ^ W 7.^ 7.C 7.^ 3.K x ^ C W ^ ^ ^ ^ ^ ^ H ^ H x ^ `.|.|.|.7.7.^ y.[ y.^ ^ 7.7.^ ^ ^ W 3.y.[ 3.[ y.[ ^ 3.7.[ ^ ^ F.^ 7.[ 7.W H y.[ [ y.W 7.G [ 7.7.^ 7.[ [ W 7.[ 7.3.7.7.[ [ [ [ ^ ^ `.>X>X7.[ W 7.[ a.y.^ [ 7.^ 7.[ ^ [ 7.^ [ G ^ G y.W W H W C H W ^ ^ C [ W ^ 3.[ ^ ^ W ^ ^ ^ ^ 7.H 7.K [ K W ^ x ^ y.7.K ^ W W ^ ^ =X8X=Xy.C y.7.y.y.7.7.7.7.y.y.y.^ F.3.y.7.y.^ F.^ ^ 3.^ ^ 3.^ 7.W W ^ 7.W ^ W W ^ ^ ^ H ^ W ^ W C 7.W ^ C ^ W 3.^ ^ C ^ ^ ^ C l.=X",
"|.^ W ^ P ^ ^ G G K G W W W W x ^ y.W ^ C H 3.W ^ ^ x C W ^ W ^ C ^ ^ G ^ ^ H ^ W ^ ^ 7.^ ^ ^ C C 3.W ^ ^ ^ ^ ^ W 7.W ^ ^ `.|.[.`.^ 7.[ y.7.7.W ^ 7.7.3.^ [ [ H G ^ [ y.H 7.y.G [ ^ ^ [ ^ ^ ^ 7.W W ^ y.[ [ 7.[ [ ^ 7.y.[ 7.[ W 3.[ [ ^ [ 3.7.7.^ y.[ 3.W 7.`.>X>Xy.d ^ W W ^ 3.[ H [ 7.[ [ W ^ x [ 3.7.^ W y.^ W ^ W ^ C C ^ H x W ^ W W ^ ^ W C ^ ^ ^ W K ^ 7.W ^ W ^ W ^ ^ 7.W ^ W ^ ^ ^ H |.|.|.^ y.W ^ ^ y.^ 7.^ C y.3.^ y.y.F.7.^ ^ ^ 7.y.^ a 7.7.^ 7.^ 7.7.H 3.C W ^ W 7.C ^ H ^ W H W ^ W C W C W P x 3.P ^ 7.^ P P ^ |.",
"[.^ x ^ 3.^ P 3.P W H x ^ H ^ 3.y.W ^ W H ^ C 7.7.7.W ^ ^ W ^ C W C ^ H ^ C ^ C 3.^ 3.W K 7.^ 3.^ C ^ 3.H W H 3.y.C 7.^ ^ !.|.F.[.7.y.3.F.a.7.y.7.3.7.^ [ y.[ [ H ^ H ^ [ ^ 7.H y.y.7.^ [ [ [ y.W 7.7.3.[ [ 7.y.7.7.3.^ F.y.F.7.^ 7.^ ^ [ G 3.7.y.[ a.[ W 3.|.|.}.[ 7.W G ^ [ y.G 7.W [ W H 7.y.x C [ ^ y.x ^ x ^ 3.^ C x C ^ W y.H ^ y.W C H ^ a ^ ^ ^ ^ ^ 7.7.7.C W C ^ x ^ ^ ^ y.7.^ W ^ 7.|.|.=X7.a.^ 7.F.y.7.^ y.7.C W 3.y.F.^ ^ ^ y.W F.y.^ ^ F.7.^ H y.7.y.y.^ ^ ^ C ^ C ^ y.H ^ ^ F.y.x y.x ^ C ^ 7.x ^ P P 3.^ ^ a 3.[.",
"[.F.C ^ 7.3.C C P H W 7.H ^ C W ^ ^ ^ W 7.^ x C W ^ ^ H W W C W ^ ^ ^ ^ W W H ^ H W C ^ K ^ W y.^ ^ 7.^ ^ H W ^ H W ^ H ^ F.`.F.W.3.3.7.7.^ ^ 7.7.y.[ F.y.7.[ 7.^ y.^ y.W W ^ W H 7.7.y.^ 3.W 3.[ [ 7.y.y.^ 7.[ ^ 7.3.7.[ 7.^ F.3.7.7.7.^ y.W [ W ^ W ` [ y.!.|.XX7.^ ^ ^ 7.W 7.^ W W y.^ ^ W ^ 7.a.^ ^ W ^ ^ W H H H 7.W 7.H 7.^ K C ^ ^ ^ ^ C ^ 7.^ ^ W ^ W ^ ^ ^ ^ ^ ^ 7.^ W ^ G W ^ H ^ K |.|.}.7.^ 3.y.7.7.7.7.^ 7.F.F.7.y.y.7.7.7.^ 7.3.3.^ 7.W 7.^ y.H ^ W ^ ^ 7.7.3.^ ^ x ^ H ^ W ^ ^ ^ ^ ^ ^ P C C G ^ P ^ ^ 3.^ G F.[.",
"oXy.^ ^ 3.3.^ ^ H P 7.9.y.3.7.^ y.y.x 7.^ ^ F.^ ^ C 3.W 7.^ 7.W 7.^ ^ ^ W ^ F.7.C ^ H ^ ^ ^ y.W 3.H ^ H ^ ^ 7.3.^ ^ W ^ ^ F.=X|.|.^ y.^ y.y.^ y.y.7.7.7.a.7.F.7.7.3.[ [ 7.7.[ W ^ [ 7.y.y.7.3.7.y.^ 7.3.y.3.y.F.a.F.y.a.a.[ y.7.7.^ ^ F.^ a.a.7.W 7.7.^ [ 7.[.>X>X3.^ ^ ^ W 3.W W W ^ ^ [ ^ 3.W 3.^ ^ ^ ^ ^ P.7.3.F.^ ^ y.^ 7.^ ^ W ^ ^ 7.W y.^ ^ ^ ^ W ^ 3.3.^ C 7.7.x ^ ^ ^ ^ F.K 3.K W C ^ =X=X|.7.^ 3.H 7.y.F.3.^ 7.y.3.7.7.y.7.^ H ^ 3.7.^ y.7.y.3.y.^ ^ 3.y.^ a.7.7.3.F.^ y.C ^ W 7.^ ^ o.W P P x ^ P ^ ^ ^ 3.y.7.7.^ F.|.",
"oX`.^ ^ F.l.y.P P ^ ^ P 3.y.7.W ^ 7.W 3.^ F.y.7.W ^ ^ o.H 7.7.x 3.^ ^ ^ 7.W G 7.x C C C 7.^ ^ 7.H ^ W C ^ 7.7.7.H C W C x [.|.[.[.G ^ ^ 7.y.W 7.7.7.^ 7.y.F.F.7.G 7.G 7.3.3.`.F.C ^ y.7.7.a.7.7.x y.7.7.y.^ y.3.3.[ [ y.F.y.^ y.[ 7.W 3.7.[ y.y.H ` ^ ^ W G >X=X|.7.x C C ^ 7.^ 7.W ^ 7.G H F.^ G x x ^ 7.y.C F.^ C y.7.C 7.y.7.C ^ y.W.W ^ x ^ ^ C ^ ^ C y.3.7.y.^ 7.7.^ 7.^ 7.^ ^ y.7.C W W wX=X=Xy.x W W x F.y.7.^ y.W y.7.y.y.H ^ 7.^ 7.^ y.y.G ^ y.W 3.y.7.F.3.G a.^ 7.F.y.y.^ 3.^ d 7.W ^ ^ G C 3.P C ^ y.^ F.7.F.W ^ ^.=X",
"|.|.|.|.|.[.|.[.[.`.[.[.`.Q.[.[.`.`.[.`.`.`.[.[.[.^.`.`.[.`.|.[.[.`.[.`.`.`.|.[.[.`.[.[.`.`.[.[.|.|.|.|.|.[.=X|.[.|.|.|.|.|.|.[.|.`.|.|.|.|.=X[.[.`.|.}.|.[.|.|.[.`.|.[.`.`.|.|.`.`.}.|.|.[.[.[.[.`.[.`.[.[.[.[.}.}.=X|.`.`.|.[.|.`.|.[.|.[.=XXX|.|.=X|.|.[.|.[.|.`.[.|.|.}.=X|.|.[.>X|.[.|.[.XX[.`.|.[.[.`.|.[.[.`.[.[.[.`.[.[.[.`.[.`.`.`.`.}.W.!.[.[.`.`.`.[.`.`.|.|.`.`.|.[.|.`.|.XX[.[.|.|.|.|.|.[.[.[.|.[.|.[.|.[.`.`.`.`.W.W.`.`.`.!.[.`.`.^.`.`.P.!.[.`.W.W.`.Q.`.E.[.[.`.`.[.`.P.F.`.`.`.!.[.`.W.!.`.[.|.|.|.[.|.[.=X|.",
"[.W.[.[.`.[.[.|.[.|.[.[.Q.|.|.[.`.[.[.[.`.|.>X>X|.=X|.[.|.=X|.|.|.[.|.=X|.>X|.=X|.|.|.|.[.=X|.>X[.=X|.|.=X=X|.=X[.=X|.>X=X=X|.|.[.|.[.XX|.=X|.|.|.|.|.>X|.XX|.=X=X|.[.=XXX=X|.|.XX=X>X=X|.>X|.=X=X|.>X=X=X=X=X=X=X=X=X=X|.=X=X>X>X|.=X=X>X|.[.=X|.>X|.=X=X=X|.=X|.=X=X=X=X=X=X|.=X=X|.8X=X=X|.=X=X=X|.|.=X|.=X=X=X=X=X=X=X=X=X=X=X=X=X=X>X>X|.=X|.=X|.8X=XXX=X=X=X=X|.|.|.=X[.|.=X|.|.=X|.=X=X=X=X=X|.|.|.=X=X|.=X=X|.=X>X|.|.|.|.|.|.[.|.[.=X|.=X>X|.|.=X|.|.=X|.=X[.|.|.|.=X=X|.[.|.=X|.[.[.|.[.|.[.|.[.|.[.=X|.[.|.>X[.[.`.|.",
"[.[.[.[.[.[.|.[.|.[.|.|.=X[.|.[.|.|.[.[.|.|.=X|.>X|.[.|.|.|.|.[.|.|.=X|.>X=X=X|.|.=X|.=X=X|.>X|.>X=X=X=X=X|.=X|.>X>X=X=XwX>X=X=X8X|.>X>X=X=X|.|.|.|.=X=X=X=X=X=X=X=X=X[.=X|.=X[.|.|.=X|.=X|.=XXX=X=X=X=X=X=X=X=X=X8X=X8XwX=X=X|.=X=X=X=X8X=X=X=X=X=X=X=X=X=X8X=X8X=X=X=X=X=X=X=X=X=X=X=X=X|.=X|.=X=X=X=X8X=X=X=X=X8X=X=X=X=X=X|.=X=X=X=X8X=X=X|.=X=X=X=X8X=X|.=X=X=X=X=X=X=X=X|.8X|.=X|.=X=X=X=X8X>X=X=X=X=X=X=X8X=X=X>X>X>X=X|.|.=X=X=X=X=X=X>X>X|.=X|.|.=X|.|.=X=X|.=X2X=X2X|.=X|.=X|.=X=X[.|.=X|.=X=X=X|.|.|.oX=X=X|.=X|.|.[.",
"^.P.^.Q.!.[.[.=XW.`.`.[.|.|.`.[.W.`.!.W.`.`.F.`.[.W.P.F.=X|.[.|.|.P.P.`.[.[.P.`.P.`.W.P.[.W.`.=X|.[.|.[.|.|.|.|.!.`.[.|.=X|.[.|.=X`.`.!.=X=X|.[.|.`.=X|.=X=X|.|.=X`.=X[.=XW.P.P.|.|.[.|.[.hX|.|.[.=X`.|.|.=X|.W.`.[.|.|.8X|.|.=X=X=XwX=X|.8X[.|.|.F.|.|.|.=X[.=X`.>X|.=X|.=X=X=XXX|.=X|.[.=X`.|.|.[.[.=X|.yX=X=X|.=X|.|.|.=X8X|.[.|.=X`.[.|.|.|.[.`.[.|.[.|.[.|.=X8X=X=X|.=X|.[.=X`.!.P.[.=X=X|.`.!.|.|.=X[.yX=X=X|.=X|.|.8X=X[.=X|.|.|.`.[.=X`.[.`.[.[.[.[.`.2X|.|.[.=X`.=X=X|.=X|.[.|.[.|.|.|.|.[.|.2X[.|.|.|.>XoX=X|.P.[.).[.",
"7.G 7.^ ^ l.3.y.7.C P ^ y.7.y.3.7.x 3.7.y.^ ^ ^ 7.7.3.7.[.|.>X[.7.^ ^ ^ 7.^ ^ C H 7.W ^ 7.^ 7.3.y.3.^ ^ 3.3.7.a.^ 3.F.y.F.^ ^ 3.y.W 3.^ 7.y.y.^ ^ W 7.^ y.7.F.F.F.^ ^ ^ y.3.^ ^ ^ y.^ W 7.[.=X|.=Xy.y.W y.7.7.^ W W x ^ F.7.^ 7.F.F.F.3.y.y.^ y.y.7.^ ^ F.F.y.y.y.F.F.7.F.F.F.^ y.3.y.7.K y.F.y.F.y.3.F.F.F.F.y.!.F.F.^ y.F.=X|.[.|.y.^ ^ ^ ^ ^ ^ G ^ ^ ^ 7.7.H 3.7.F.^ 7.3.^ ^ F.7.y.y.y.F.F.^ ^ ^ a.7.7.^ F.3.3.H 7.W y.y.7.H 3.3.7.F.3.^ ^ ^ ^ W 7.W ^ ^ ^ `.[.|.|.`.3.^ F.y.F.3.3.^ 3.3.7.^ ^ ^ l.3.^ P W ^ y.F.m.C P ^ ^ C ",
"^ ^ C G P G W P P 3.3.7.7.^ ^ ^ 3.3.^ ^ 7.y.7.7.3.3.^ 7.`.=X[.[.^ ^ ^ ^ ^ ^ ^ W W ^ ^ ^ ^ 7.3.^ W y.7.3.7.3.3.3.7.F.7.^ C 7.^ y.^ ^ ^ ^ ^ y.7.7.C W ^ y.^ 7.^ ^ ^ 7.^ 3.H ^ W ^ ^ ^ ^ 7.7.F.=X=X|.^ ^ ^ 7.^ 7.3.7.y.^ ^ ^ ^ K ^ 3.^ y.y.y.y.7.3.3.a.^ 7.7.7.^ y.y.y.3.7.y.y.y.y.^ y.F.F.y.y.7.y.7.7.3.y.y.y.F.3.y.y.F.y.^ F.y.=XXXy.7.W W ^ ^ 7.^ 7.^ y.^ W ^ y.7.^ ^ y.^ y.7.3.W y.y.y.3.7.^ 3.7.7.^ ^ ^ ^ 7.W 7.^ 3.^ W ^ W ^ ^ 7.^ ^ 7.7.^ ^ ^ 3.^ ^ ^ x H 7.|.=XQ.7.^ y.3.7.7.^ ^ 7.^ 3.^ 3.P ^ P P ^ 7.^ ^ P 3.^ y.P l.o.P ",
"7.^ ^ P ^ P P 7.3.3.7.3.7.7.3.7.3.3.l.^ y.^ 3.7.3.^ 7.7.`.>X|.|.7.W 7.7.3.W y.^ ^ W ^ ^ 7.^ a.^ 7.^ 7.^ 7.y.W y.y.^ ^ 3.^ 7.H W ^ ^ ^ 7.^ H 7.H W C 7.^ 7.^ ^ ^ y.^ y.^ ^ W ^ H 7.^ ^ ^ y.`.=X=X=Xa.^ ^ 7.^ y.a.7.7.^ 3.^ ^ ^ y.F.y.y.y.y.7.^ ^ F.7.^ 7.7.W y.^ y.7.7.F.F.y.y.y.y.^ y.3.y.7.y.y.y.y.F.3.y.7.7.7.7.F.F.y.y.F.`.=X>X7.3.^ ^ ^ a.^ 7.^ W 7.^ W ^ a.y.^ F.^ y.7.^ 3.3.^ y.^ 7.y.^ W ^ H ^ 7.^ ^ y.7.^ 7.3.^ ^ ^ ^ y.W 7.7.^ y.^ 3.^ ^ ^ ^ 7.W ^ W ^ |.|.`.7.y.3.y.y.7.^ ^ ^ ^ 7.7.l.^ ^ x x ^ ^ ^ ^ y.P ^ ^ l.3.W o.",
">.^ P P P P G P x ^ ^ 7.^ F.^ ^ ^ ^ 3.^ P l.^ 3.W ^ ^ y.!.=X[.|.^ ^ ^ H ^ y.^ ^ W 7.W C ^ 7.W ^ ^ 7.W C 7.H W ^ H 7.W ^ ^ ^ C ^ C ^ ^ y.W 7.H 3.W ^ C ^ ^ ^ ^ 7.^ W ^ ^ ^ 3.W H 7.a.H C ^ F.|.|.|.7.7.3.^ y.y.^ 7.y.^ 7.^ 7.7.^ 3.^ ^ x ^ y.7.^ 7.y.^ 7.C 3.7.7.^ y.7.H 7.7.y.^ 7.F.^ 7.^ F.7.y.^ 3.^ ^ H 7.7.^ ^ 7.3.y.^ 7.y.|.|.y.3.^ ^ K ^ y.W 3.^ ^ H ^ 7.^ ^ 7.3.7.W ^ C ^ W 7.7.C 3.3.^ H ^ 3.y.^ ^ ^ K ^ ^ 7.^ 3.x ^ ^ ^ ^ W W 7.C y.^ 3.^ ^ ^ ^ H 3.C C |.>X`.y.^ 7.7.^ ^ 3.^ ^ P x ^ ^ 7.^ P ^ x ^ C ^ P ^ 7.^ ^ P P o.",
">.^ 7.^ P W ^ ^ ^ P P ^ 3.7.7.7.^ P 7.P ^ 3.y.7.3.^ ^ ^ `.|.|.`.^ 7.3.W 3.W ^ ^ y.^ H H ^ ^ 7.^ ^ ^ W ^ 7.C ^ C ^ H ^ W ^ ^ ^ W 7.^ a.y.^ x ^ K C W C C ^ 3.3.W ^ ^ ^ W ^ ^ y.^ 7.^ 7.y.3.`.=X|.|.W y.^ ^ ^ 7.^ ^ y.^ K y.^ W 7.7.7.y.y.7.7.W W ^ ^ ^ 7.7.^ 3.y.^ 7.y.3.y.7.^ 3.^ 3.^ W 3.y.^ ^ 7.y.y.3.y.7.7.7.y.^ 7.7.^ y.F.|.|.F.7.7.^ ^ 7.3.^ ^ 3.^ ^ 3.3.^ 7.y.y.W ^ 3.7.C W ^ y.^ 3.^ 3.^ ^ 7.7.a y.7.W ^ ^ ^ 3.^ 7.W ^ ^ ^ ^ ^ K ^ ^ 3.C ^ ^ 3.^ ^ y.^ ^ =X|.[.^.^ 7.l.^ 7.7.7.P 7.y.^ ^ 3.^ 3.C ^ 3.^ P ^ ^ ^ ^ o.^ ,.P ",
"x >.^ l.P ^ ^ 7.^ ^ ^ ^ C ^ ^ ^ ^ P 7.^ G ^ P 7.^ 7.^ 3.P.=X|.[.C ^ ^ 7.7.3.3.H ^ ^ C ^ ^ H 3.^ H ^ W 7.W C ^ W ^ 7.^ 7.H ^ H ^ ^ C 7.^ 7.W C ^ ^ 3.^ ^ W ^ 3.y.d 7.^ ^ ^ W 3.^ ^ ^ ^ ^ 7.F.=X=X|.K y.y.^ y.^ 3.^ 7.^ 7.^ 7.^ F.^ ^ 7.7.7.y.y.^ 7.3.7.y.3.y.W 7.3.^ 7.3.7.y.3.^ 7.3.3.7.a.3.^ ^ 7.7.^ 7.^ y.C ^ 7.3.y.H 3.y.F.[.|.F.^ W.^ y.y.^ ^ y.H ^ ^ ^ ^ ^ 3.7.7.^ ^ ^ ^ ^ 7.^ ^ ^ ^ y.^ ^ 3.W y.7.W y.^ K ^ 7.7.^ ^ ^ W ^ 3.y.^ ^ ^ W ^ H ^ F.7.^ ^ C W 7.|.=X`.[.^ y.3.7.3.7.P P ^ 7.7.^ P ^ ^ 7.^ ^ ^ P ^ 7.^ ^ P x P o.",
"o.Q >.o.^ ^ 7.^ 3.P ^ P 7.^ 7.C 3.^ P ^ ^ ^ ^ ^ ^ ^ ^ C F.|.|.[.C C ^ H 7.W W H ^ ^ W ^ W ^ C W H H 3.W W ^ ^ ^ ^ ^ 7.^ W W H H y.^ 7.^ ^ W ^ ^ W ^ ^ ^ ^ W H W ^ ^ ^ W 7.3.H ^ ^ ^ ^ ^ 7.a.=X[.XX^ 7.W ^ ^ 7.^ ^ ^ 7.^ ^ 7.a.3.y.7.^ ^ 7.^ y.W ^ ^ 7.^ y.^ 7.^ 7.^ ^ ^ 7.^ F.C ^ ^ 7.7.^ 3.y.^ ^ ^ ^ 7.7.^ y.3.^ y.7.7.7.^ F.|.|.F.7.3.y.^ 7.^ ^ ^ 7.^ y.^ 3.W y.^ ^ ^ 3.^ 3.^ W 7.7.^ 7.3.3.3.y.^ y.3.^ F.y.^ 7.^ ^ ^ 7.C 7.C x ^ ^ ^ 7.C ^ ^ y.^ ^ ^ ^ ^ W ^ =X[.`.^ 7.7.7.^ F.^ 7.7.l.^ 7.P 3.C 7.^ ^ ^ ^ ^ ^ P o.^ C C >.P ",
"P C C Q P ^ P 7.P ^ ^ ^ l.^ ^ ^ P ^ ^ ^ ^ 7.^ ^ P ^ ^ l.3.`.`.[.W x W ^ W ^ ^ 7.H H ^ ^ ^ 7.C ^ W H ^ W W H ^ ^ H ^ H 7.^ W C H ^ ^ ^ ^ ^ W W ^ ^ ^ ^ H ^ ^ 7.^ ^ C ^ ^ C 3.W 3.H ^ C ^ K F.|.|.[.^ H y.^ 3.^ ^ ^ 3.W y.C y.7.7.^ 7.^ 7.W ^ 3.y.7.^ ^ 7.7.y.^ ^ 7.^ W y.C 3.^ 7.H ^ 3.y.^ ^ ^ y.3.7.7.7.^ y.3.y.^ 3.3.y.^ ^ 7.|.`.!.^ 3.^ ^ y.^ 3.y.^ 7.^ 7.7.3.^ 7.^ ^ C ^ ^ 7.^ ^ ^ ^ ^ 7.7.^ ^ 3.^ W ^ y.7.^ ^ F.^ ^ ^ W ^ ^ x ^ 7.y.H W ^ ^ C 7.^ ^ W ^ W K |.[.`.F.7.y.^ F.3.^ ^ ^ ^ 7.^ P P ^ P ^ C P ^ o.Q ,.o.P C o.Q Q ",
"^ P ,.Q Q o.^ 3.^ C ^ ^ ^ P 7.^ ^ ^ y.^ ^ ^ ^ 7.l.7.7.3.`.=X|.`.C W ^ ^ ^ C W x W 7.y.^ ^ ^ ^ 7.7.^ F.W ^ ^ F.^ W ^ ^ C 3.^ 7.H W H 7.3.W 7.^ 7.^ ^ ^ x 7.^ y.C C W ^ F.H ^ ^ ^ 3.7.^ H x F.=X|.[.^ ^ ^ 7.^ H C 3.^ 7.^ 7.^ ^ ^ H ^ F.G y.7.^ 7.7.y.7.3.^ 7.x ^ ^ ^ 7.^ ^ 7.3.^ 7.^ ^ W W ^ W 7.y.^ 7.^ y.y.y.^ y.7.3.7.7.y.W.|.|.F.^ 7.7.W C C ^ C 7.7.W H K F.y.y.3.7.^ ^ F.W 7.7.7.W ^ 7.y.^ y.7.F.^ ^ y.y.^ 3.7.y.^ W ^ 7.W d ^ ^ ^ ^ 3.H C C ^ y.^ ^ ^ d x =X|.P.F.l.l.y.^ ^ 3.l.7.y.^ ^ ^ ^ C ^ ^ G G P P y.Q Q o.P ^ ^ l.",
"C o.C >.o.o.P ^ 7.G ^ ^ 3.^ P ^ P 7.^ ^ l.^ ^ ^ 3.3.^ l.`.|.|.`.W C ^ x ^ H ^ W W 7.C ^ C ^ ^ y.^ ^ 3.C ^ ^ 7.y.^ 7.^ ^ C 3.^ 3.^ C ^ ^ ^ ^ C W x C C C ^ ^ K 7.W ^ C C ^ ^ ^ ^ ^ W C 3.W ^.|.|.`.^ ^ ^ ^ ^ ^ H ^ 7.W 7.3.7.^ 7.^ ^ ^ ^ y.7.3.^ 7.3.a.^ 3.y.^ ^ y.^ ^ 7.^ y.^ W C ^ W y.W y.^ 7.^ C ^ y.7.y.W W ^ y.^ ^ ^ ^ W.|.=XF.^ ^ ^ 7.^ ^ ^ 7.^ W ^ 3.^ 3.y.^ ^ 7.C F.^ ^ K H W ^ ^ y.3.y.y.F.F.7.^ F.^ 7.7.y.W 3.^ ^ W ^ ^ ^ ^ x ^ e C ^ W G H ^ W H C ^ |.=XF.P l.^ ^ ^ ^ ^ ^ 7.^ ^ ^ ^ ^ ^ ^ C ^ ^ G o.C o.P P P o.o.o.",
"l W Q Q >.P o.Q P ^ ^ 7.7.7.^ P ^ ^ ^ ^ 3.^ ^ ^ 3.P l.^ 7.[.[.`.^ ^ ^ ^ 3.3.W W ^ C ^ ^ W ^ W ^ ^ ^ 7.^ ^ ^ y.^ 3.C y.^ 7.^ C W W W 7.^ ^ H 7.7.W W ^ ^ W ^ ^ ^ 7.^ 3.^ ^ 7.3.^ ^ 7.^ W o.y.|.|.|.^ y.^ 7.^ y.^ ^ 7.^ ^ C 3.y.^ y.7.y.^ 7.C ^ ^ y.C y.^ y.F.y.^ 3.7.^ ^ ^ 3.^ H ^ ^ x ^ ^ 7.7.H 7.^ 7.W 7.7.3.7.^ 7.y.7.7.y.!.|.=Xy.^ 7.^ 7.P.K H y.^ ^ 7.^ ^ H 7.^ 7.7.^ ^ 3.7.y.W ^ ^ 3.^ 3.y.^ 3.7.y.3.^ F.^ ^ 3.K 7.7.^ W C ^ W ^ H W ^ ^ W W K ^ ^ ^ P ^ P =X|.F.F.^ ^ ^ ^ P ^ ^ ^ l.^ 7.P x P ^ W ,.o.o.P ,.>.o.Q P P P o.",
"C P o.P C o.P o.^ 7.^ 7.^ l.^ ^ ^ 7.^ ^ C ^ ^ 3.^ 7.P ^ ^ [.[.|.W 3.^ H ^ ^ C ^ H 3.G ^ ^ ^ ^ ^ ^ ^ y.^ ^ 7.^ 3.C H H 3.3.^ W W W W ^ W W C ^ 7.H W W ^ C C ^ C W ^ W W ^ 3.^ 3.7.y.H W C F.|.|.[.3.3.^ C ^ ^ C H 7.^ ^ C ^ ^ W H y.^ F.W 3.7.3.W H 7.y.^ 3.^ 7.^ y.C ^ ^ H H ^ W ^ x ^ H 3.^ ^ 7.^ ^ 3.^ y.^ ^ ^ y.W ^ W 7.y.|.|.y.C y.^ ^ 7.W ^ 3.^ W W ^ ^ ^ ^ ^ ^ y.C W 7.y.^ e ^ ^ ^ 7.^ ^ 3.^ W y.^ ^ ^ ^ ^ ^ ^ 7.^ ^ W W H ^ H ^ C ^ C 7.^ ^ ^ ^ ^ P ^ P |.|.l.P.P ^ P ^ C P P ^ ^ ^ ^ ^ ^ ^ P ^ P 9.P o.o.o.P o.P l P C ",
"o.Q y.P >.C Q P o.o.^ 3.l.P 7.P ^ ^ 7.P 7.^ ^ ^ 7.^ 7.y.`.[.|.`.P H 7.^ 3.W ^ W ^ ^ F.^ ^ ^ y.y.y.7.y.7.^ 7.y.^ ^ x C H H W y.7.^ 3.^ 7.^ 4 y.C ^ x ^ W ^ ^ H W W.^ ^ ^ y.^ 3.C y.y.y.^ F.F.[.`.=XC ^ ^ ^ ^ H ^ 7.W ^ ^ F.3.^ y.F.^ 7.^ 3.W ^ 7.7.^ ^ ^ 7.^ ^ ^ 3.^ 7.^ ^ ^ 3.3.3.d ^ H 3.C W F.^ 7.y.y.3.x y.^ W y.y.3.^ 7.F.`.=X7.^ W y.^ 7.C y.^ ^ 3.7.3.^ H C ^ W.^ 7.^ ^ ^ 7.^ W ^ 3.3.7.7.7.y.y.^ H F.3.^ 7.W ^ C 7.x ^ H ^ d C ^ C x W W 3.^ 3.^ ^ 7.^ ^ =X|.`.^ 7.x ^ ^ l.3.y.^ y.l.^ ^ P x 4.4.^ x o.P ^ ,.l.Q P >.o.Q ",
"C o.P x o.o.a ,.o.4.o.^ P ^ 7.^ ^ 7.^ ^ ^ ^ ^ C ^ ^ ^ ^ ^.|.`.`.^ ^ ^ ^ ^ C x y.7.7.^ 7.y.7.^ ^ ^ H W 7.7.W 3.x ^ ^ C ^ ^ y.^ G ^ ^ W W W C W x ^ H H W K ^ ^ d ^ ^ C H ^ ^ d W ^ 7.^ 3.3.F.|.=X|.^ 7.^ 7.7.^ C ^ 7.C 7.^ 7.^ 7.C W x C 7.^ ^ ^ ^ ^ H 3.^ y.3.3.7.^ G x H y.^ C ^ 7.3.W ^ ^ ^ ^ ^ ^ ^ H ^ ^ ^ 3.3.F.^ W 7.7.F.|.XXP.y.^ W ^ ^ ^ ^ ^ ^ ^ ^ 3.^ ^ 3.7.W 3.^ ^ y.^ W ^ ^ ^ ^ F.7.^ 7.7.^ ^ ^ ^ W H W ^ ^ ^ ^ W ^ 7.C C ^ x d 3.W ^ C 7.P ^ C P G P |.|.P.!.G 3.P P P ^ ^ ^ 3.P ^ 3.P >.>.,.o.>.P C P o.Q P C o.x ^ ",
"P P P Q Q C C o.o.l.l.>.o.^ 7.^ y.^ l.^ l.^ ^ ^ 7.3.7.^ ^ |.|.[.^ x 3.7.7.^ ^ ^ 7.y.^ 7.3.^ ^ H W C ^ ^ W ^ 3.W ^ 7.^ W y.^ 3.C 7.7.H H ^ C C ^ ^ ^ W H ^ ^ ^ W 3.W ^ ^ ^ W 7.7.H ^ 7.^ ^ F.=X=X=X^ ^ ^ ^ 3.3.^ ^ ^ ^ ^ y.W ^ ^ ^ H y.^ ^ W 7.^ 7.y.3.3.3.^ ^ ^ 3.^ 3.^ 7.^ y.^ C ^ W ^ ^ 7.y.^ 3.W 7.^ ^ 7.3.C ^ 3.y.7.7.7.F.|.|.W.^ ^ y.3.7.3.^ 3.y.W ^ C ^ ^ 7.H H ^ 7.K ^ ^ ^ C 7.^ 3.7.7.y.7.^ y.^ 7.^ 7.W ^ ^ 3.3.^ W 3.K 3.^ 7.W ^ W W ^ ^ x P ^ ^ G 3.P |.|.W.7.7.^ ^ P ^ P ^ 7.7.^ 7.3.>.4.9.>.>.o.o.Q ,.o.>.,.l.^ >.C ",
"^ P e o.x P C Q o.^ >.,.o.>.7.^ m.7.^ l.7.3.C ^ P 7.7.7.P.=X=X|.7.^ P ^ P 3.H C P ^ ^ a.^ ^ ^ K x W H K ^ H ^ y.W ^ x ^ 7.^ C W H ^ H W C W x x H C W 7.C ^ 7.7.7.^ 7.F.^ F.7.^ ^ x y.x ^ `.|.=X|.7.W H 7.^ ^ W C H W ^ ^ ^ ^ 7.^ 7.^ ^ x 3.y.7.7.W C y.W 3.W ^ 3.F.^ W ^ 7.y.7.x y.^ H W ^ W ^ ^ 7.^ ^ y.3.x y.^ y.^ 3.3.^ !.[.=XP.^ y.W ^ 7.^ ^ ^ C ^ ^ ^ W 7.^ H W ^ W ^ ^ C ^ ^ C W ^ C 7.^ ^ ^ y.y.^ 3.H W ^ ^ 7.7.x W W ^ W 7.W ^ ^ 7.P P 7.G ^ G ^ ^ P ^ [.|.^.P x P P 7.P 3.P l.3.3.l.y.,.y.l.y.P ,.,.^ o.Q o.o.C Q C o.",
"W W x ^ Q ^ ,.o.o.Q ,.Q ^ Q 7.Q 3.^ y.7.7.7.^ 7.C 7.l.3.[.=X=X|.C ^ ^ 3.^ P ^ ^ ^ x W G 7.^ ^ W 7.^ ^ ^ 7.^ 7.H ^ ^ W W ^ ^ H x 7.3.^ C ^ x W H ^ ^ ^ W 7.^ C ^ W ^ ^ 7.^ ^ ^ ^ 7.C ^ W ^ [.=X=X|.^ y.7.W 7.7.3.^ ^ 3.^ 3.^ ^ W 7.^ y.7.^ 3.7.y.3.3.y.^ 7.^ 3.W 3.W 7.7.7.W H W 7.^ ^ 7.^ ^ ^ ^ 7.W ^ 7.7.^ y.^ y.3.3.7.^ ^ W.|.|.F.^ ^ ^ ^ 7.^ 3.^ ^ ^ C ^ F.^ y.7.^ ^ ^ C 7.3.y.W ^ ^ ^ W y.^ 7.7.y.W 7.^ ^ 3.^ 3.7.^ C ^ ^ W C ^ ^ ^ ^ C ^ ^ ^ 7.7.^ P C ^ P =X[.`.F.7.P y.^ ^ 7.^ ^ P ^ ,.9.m.,.>.,.>.>.,.o.>.o.,.o.P P o.Q ",
"P o.x o.o.o.x Q o.o.o.P C Q o.o.Q ,.P P 3.^ 7.^ ^ 3.3.l.F.oX|.|.^ ^ P ^ ^ W P C G W P P W 3.^ 3.H x 3.^ ^ ^ x ^ H W W 7.^ ^ C ^ W H ^ ^ ^ W C H W ^ W ^ C ^ ^ W C ^ H W ^ H ^ K W ^ H 3.W y.=X|.[.7.C 7.y.^ ^ ^ ^ 3.7.^ H W W ^ 7.^ ^ 7.y.y.7.^ ^ y.7.7.^ 7.W ^ F.y.7.^ ^ C W ^ 3.y.^ ^ ^ ^ 7.^ 3.^ ^ ^ ^ 7.^ ^ ^ y.3.y.^ ^ F.=X|.`.3.^ ^ 7.7.3.^ H W ^ ^ H ^ ^ 7.^ C C 3.^ ^ ^ ^ ^ ^ W ^ ^ ^ ^ 7.y.^ y.^ ^ C ^ 7.^ ^ 7.^ C W ^ 7.7.3.3.^ ^ ^ P P 7.^ x P C P l.=X=XE.|.^ ^ ^ P P P ^ 7.^ P >.y.l.^ Q y.9.4.Q g.4.Q o.P >.o.P o.",
"^ a x >.x P o.o.Q P o.o.>.o.Q P Q >.,.^ y.^ C P 7.7.^ 7.[.oX=X[.3.P 7.^ P ^ y.G ^ ^ P P ^ ^ 7.W ^ ^ y.^ W W W H ^ C ^ ^ W ^ ^ ^ W ^ ^ 3.^ W W a x C C W H H ^ W ^ ^ 7.C ^ ^ ^ H ^ H ^ ^ W F.=X=X=X^ ^ 7.7.^ 7.H ^ ^ ^ ^ 7.^ ^ 3.^ 7.7.y.3.H W ^ ^ ^ 7.H ^ ^ ^ ^ 3.^ y.^ ^ x W W H H 3.7.^ 3.F.3.7.y.F.F.^ ^ ^ ^ 3.W 7.3.3.7.y.|.=X^.F.^ y.7.3.7.H W 7.7.7.^ ^ ^ ^ ^ ^ 7.H 7.^ ^ ^ y.7.^ F.W ^ 7.3.^ 7.7.F.^ H ^ 7.W 7.^ 3.y.7.7.y.C ^ ^ ^ ^ y.^ 7.^ P P C C P P >X|.Q.^ ^ x P P 7.P y.9.9.l.9.o.y.y.y.Q y.^ o.P o.o.Q o.C o.P P ",
"P o.C o.P P C C C P C o.P P o.P ,.y.C 4.3.^ P P ^ 7.^ ^ `.>X|.|.^ ^ ^ C P ^ C ^ x P ^ C ^ ^ W W ^ W ^ C W ^ x W W ^ x W ^ ^ ^ ^ C ^ W 7.C C W 3.^ ^ ^ 3.W 7.^ ^ ^ y.^ H W ^ ^ 7.K ^ H ^ C F.|.=X|.^ ^ W ^ ^ ^ ^ ^ ^ ^ C ^ ^ K W d 3.^ ^ H F.7.H H W ^ ^ a 7.^ F.^ ^ 7.7.7.H C ^ ^ ^ ^ H ^ 7.^ y.^ y.3.y.7.7.^ ^ ^ y.^ ^ ^ W W.=X|.F.^ 7.^ H W ^ ^ ^ W ^ ^ ^ ^ K K W ^ H W 7.C C C C W ^ x ^ ^ ^ 3.3.^ 3.3.3.^ 7.H x ^ ^ K ^ ^ 7.^ 3.y.W ^ P ^ ^ ^ ^ W ^ G ^ x 7.=X|.P.m.^ ^ P P C ^ P o.Q >.>.,.o.^ o.P o.>.>.l.P o.Q o.P C P ,.",
"o.C o.x Q P a Q C C P o.o.o.y.Q o.o.^ ^ 7.^ ^ 3.^ 7.7.P `.|.=X|.7.^ ^ ^ ^ x C C ^ ^ 7.^ ^ ^ 7.P ^ ^ ^ W x x W C W ^ 3.^ W C ^ W ^ ^ ^ W ^ W C H ^ W W K ^ ^ 7.C ^ W ^ ^ ^ 7.C C 7.7.^ H ^ y.=X[.|.C ^ ^ 3.^ ^ H y.3.^ H ^ ^ W 3.7.^ 3.^ ^ ^ 7.x K 7.^ ^ ^ H 7.^ F.y.7.7.^ ^ H ^ ^ 3.y.^ ^ ^ 7.^ y.^ 3.7.^ 7.7.G ^ 3.7.7.H W ^ |.=X!.^ 7.7.^ ^ ^ ^ W 7.^ ^ H ^ ^ ^ ^ ^ ^ C H y.W ^ ^ W ^ ^ W ^ ^ 7.3.^ F.y.^ ^ ^ ^ W ^ ^ ^ ^ 7.^ y.7.^ ^ ^ ^ ^ ^ P ^ ^ P ^ ^ P ^ =X|.`.y.^ ^ ^ x x o.>.o.o.o.P o.o.o.,.o.P o.,.Q g.^ >.@.P C o.Q ",
"C P o.P P l P o.Q >.P o.9.C >.Q >.Q 9.^ ,.P C ^ ^ 7.9.l.`.=X|.|.^ P 3.l.3.W ^ P ^ C C 7.^ P ^ l.^ ^ P 7.W ^ x W G ^ ^ ^ ^ ^ ^ ^ C W W ^ W W ^ 7.^ 3.H H 7.^ ^ 7.W ^ ^ 7.3.7.^ H ^ ^ ^ H ^ y.=X|.[.W ^ ^ 3.^ ^ x W ^ W 7.7.7.^ 7.3.^ ^ ^ 7.^ W ^ 7.C a ^ ^ ^ H 7.^ 7.^ y.H ^ W 3.^ ^ W ^ 3.^ ^ ^ 7.7.7.y.y.y.7.G 3.3.^ ^ ^ H 7.=X|.`.7.F.W 7.y.^ ^ ^ ^ C H y.^ G 7.y.^ 7.3.3.7.H ^ 3.W ^ ^ ^ ^ ^ ^ ^ ^ 7.y.C ^ C C ^ ^ y.P ^ ^ ^ F.l.^ ^ ^ 7.^ ^ C P ^ ^ ^ ^ ^ P =XoX`.l.G ^ 7.^ x >.P P ,.y.,.Q o.o.9.9.P g.Q >.P ^ P P >.C ^ o.",
"P Q P P o.P o.P Q P P P 9.W o.P Q ^ Q Q o.Q ^ ^ ^ 7.o.W !.|.oX|.l.C ^ 7.P P 7.^ P 7.^ y.7.7.P ^ 3.C 3.P ^ C ^ H ^ ^ ^ ^ 3.W ^ x W C ^ ^ 7.^ C 7.7.^ ^ ^ 3.C C W 7.H 3.W W C ^ 7.^ ^ W x ^ F.=X|.XX^ ^ ^ ^ ^ 7.^ ^ 7.^ ^ ^ 7.7.7.^ ^ ^ ^ 7.7.3.^ 7.^ ^ C ^ 3.7.^ y.^ 7.7.7.W H W 3.7.C 3.y.7.y.^ 7.H 3.7.^ 7.3.3.7.^ 7.W ^ W F.=X=XF.^ ^ 3.7.F.y.^ 3.^ ^ ^ C ^ ^ 3.^ 7.7.7.3.7.^ W ^ 7.^ ^ C 7.W 3.^ ^ x 7.C y.^ ^ x ^ ^ 7.7.^ P 7.P y.W 3.^ 7.7.3.^ 3.P ^ 7.^ y.oX|.P.7.7.>.4.,.o.P Q ,.l.l o.Q Q Q o.a l.Q @.g.g.o.o.o.Q ^ o.o.",
"C P C o.P P ^ o.C o.Q P o.P Q P ^ >.,.Q o.Q o.P o.3.^ ^ l.|.|.oX^ P ^ ^ 7.^ 7.P ^ ^ ^ ^ P ^ ^ x ^ l.7.^ C 3.C W C ^ x ^ ^ ^ ^ ^ ^ ^ ^ W ^ ^ ^ ^ ^ y.7.^ H ^ ^ ^ 3.W ^ ^ W ^ W 3.W ^ ^ W W W.=X[.XX3.H W 7.^ ^ H W 3.^ ^ W 3.y.3.^ H 7.y.^ ^ ^ 3.7.^ ^ ^ C 7.^ 7.W 3.^ 3.^ ^ 3.H 7.3.W ^ ^ 3.K ^ 7.^ y.W 7.^ ^ 7.^ y.^ 7.^ ^ y.=X|.F.7.C ^ ^ y.y.^ W ^ y.^ ^ ^ 7.d ^ ^ 7.W ^ ^ ^ e 7.H 7.C ^ 7.^ C W ^ y.7.W 7.P P ^ ^ ^ ^ P ^ ^ x ^ ^ 3.P ^ P ^ P 3.3.7.P ^ P y.|.|.F.x o.>.,.o.o.e o.P Q o.o.>.x Q Q o.o.>.C P o.g.P P C o.o.Q ",
"o.P o.P P P o.o.Q g.C ^ o.P P P ,.l.c.>.o.^ o.l.>.Q ,.^ l.`.[.P.P ^ W 7.l.^ 3.P 3.^ 7.^ ^ ^ l.^ 7.7.P 7.^ 7.C x K ^ C y.y.3.^ ^ d W ^ ^ 7.x W C 7.7.^ H K ^ ^ H H 3.^ 7.^ 7.W C y.^ 3.W W y.=X`.[.3.3.3.^ ^ 7.3.^ ^ W W C ^ 3.^ x ^ ^ ^ ^ ^ 7.^ ^ ^ y.7.y.7.7.y.^ ^ y.^ ^ ^ y.3.7.y.^ 7.3.^ 7.7.x ^ ^ ^ ^ H ^ ^ 3.7.y.y.y.W y.[.|.y.F.^ W ^ y.3.y.3.7.3.^ ^ ^ 7.y.^ C H ^ ^ y.^ ^ 3.W 3.y.7.7.H 7.W ^ ^ 7.x l.x 3.7.3.^ P C ^ ^ 7.P ^ 7.^ x 3.C ^ ^ ^ ^ ^ ^ ^ ^ `.[.c.G P P Q >.l.^ 9.,.a P ,.P ,.o.o.>.l l o.@.>.P ,.o.o.Q P { ",
"P C Q o.P C P o.P o.^ ,.o.>.o.>.Q o.P ,.Q o.^ Q ^ >.Q 7.9.`.`.F.^ ^ ^ P 7.y.^ 7.^ 3.^ F.P 9.C P ^ ^ ^ C ^ ^ P ^ H H H 3.7.^ ^ ^ ^ ^ W ^ ^ W ^ ^ ^ ^ W W ^ ^ C F.^ ^ ^ W ^ H ^ ^ H ^ ^ ^ H y.[.[.`.^ ^ 7.W ^ 7.7.K ^ H F.^ 7.H ^ H ^ y.^ ^ 7.^ ^ W y.W y.7.^ ^ ^ ^ ^ 7.^ 7.^ ^ W y.y.3.7.7.7.^ ^ y.7.^ ^ y.^ ^ 7.^ 7.^ ^ ^ 7.3.[.[.F.^ ^ ^ ^ ^ y.7.y.^ 3.3.7.7.W ^ ^ 7.7.^ ^ H H W C W ^ ^ 7.W 7.^ ^ ^ 7.^ P P P ^ 3.P ^ P ^ P ^ C ^ ^ ^ 7.P ^ P P ^ P ^ P 7.P >.[.[.l.m.4.l.o.o.Q o.o.o.>.o.Q Q o.o.Q C o.o.P P Q o.o.P C P C C ",
"P P >.P P x o.P P C @.o.o.o.o.,.Q P y.,.o.>.>.o.o.o.o.P F.[.|.[.^ C 7.C 7.y.x F.y.y.l.^ ^ ^ y.l.7.3.^ ^ l.y.^ 3.3.7.y.^ a.y.^ F.y.7.y.^ 7.^ y.y.C W y.H ^ 3.F.^ ^ H 7.W ^ 7.y.K ^ ^ ^ H ^ F.XX|.|.H W W K ^ ^ ^ ^ 7.^ ^ 7.^ ^ F.F.^ ^ 7.^ 7.^ ^ 7.3.y.y.^ y.y.7.y.W ^ y.^ y.H y.W 7.^ 7.9.9.y.^ y.7.^ y.^ 7.y.7.^ 7.7.^ ^ 7.F.=X=Xy.^ ^ 3.W ^ y.7.^ y.7.P.^ y.^ y.y.3.3.^ H ^ 3.F.y.^ F.y.7.y.^ ^ l.F.7.3.7.3.3.y.7.P P 7.^ y.y.7.P ^ P 7.^ ^ ^ y.^ c.^ P W P ,.=X=XF.>.o.Q >.P l.l.o.o.l.o.o.,.Q P P 9 @.o.Q @.l.o.o.o.>.C P P ",
"C C x Q Q C P o.P P o.C P C C o.x P >.C C P P l a a x a [.[.[.[.e x C x x ^ P ^ ^ 3.P ^ ^ 3.^ ^ P 7.P ^ y.l.l.C P P P P 7.^ 7.W x F.7.^ y.^ ^ ^ ^ x ^ ^ 3.^ 3.^ W K C W x K W ^ C x W C 4 [.|.=X[.x x x d ^ H C ^ C ^ 7.H ^ F.^ x y.C ^ ^ W F.7.W ^ y.^ W y.^ y.x 7.^ ^ W ^ 7.C ^ x 7.^ ^ F.^ 7.3.^ ^ 7.C ^ ^ ^ C W C x d x [.=X|.F.d x G W ^ ^ ^ W ^ F.y.3.C F.K 3.7.^ ^ y.C F.3.W x y.C 7.l.7.7.P y.F.^ ^ C ^ 7.d P P P F.^ 7.7.^ C ^ P ^ ^ 7.^ ^ 3.^ C x C P.[.|.m.4 P C C o.,.P ,.>.x ^ C >.t.x o.P x >.P o.o.C o.o.P a P { ",
"+ + < + + * < < <   + + + + < < * * 4 9 d a C C P C Q Q |.`.[.`.`.G ^ P P e x x e e x x 4 4 d e d 9 a e 4 e e e 4 4 4 e 4 4 e d 4 < 9 4 4 4 9 4 < < 4 4 < 4 e e 4 4 4 4 4 x C C x C 7.7.[.`.=X=X=X`.C ^ ^ x x x C x d e x d a 4 4 * 4 4 e 4 d e d 4 4 4 < 4 < < < < 4 4 7 4 4 4 < < 4 4 4 e e e 4 < 4 4 e 4 a d a x C ^ W [.|.=X|.W.F.W 7.7.x d d d d d d < 4 < 4 * 4 < < < e 4 e < < 4 4 < < < * < 4 < * + < 4 4 * 4 4 4 < < 4 < < < < < < 4 e e 4 e a x d l.|.oX|.`.[.4 e x a e 4 4 a 9 4 < < * + * + * * < * < + < < < * < < ",
"P.P.m.).m.).[.).).).P.).m.`.`.[.).[.).[.).[.[.|.[.[.[.[.|.[.[.|.[.[.[.|.[.|.[.=X`.|.[.|.[.|.|.|.|.|.|.=X|.|.|.|.|.[.|.[.|.=X|.=X|.|.[.|.|.=X|.|.|.[.|.|.`.|.[.=X|.|.|.=X|.=X[.|.|.|.[.|.|.=X|.=X|.|.[.|.[.|.|.|.[.|.|.=XXX=X|.[.=X|.|.|.[.|.|.|.|.|.=X|.XX>X|.=X|.[.|.=X>X|.=X=X|.[.|.|.|.|.=X=X[.|.|.=X>X|.|.|.|.=X|.|.|.>X|.=X=X[.|.|.|.|.[.|.[.|.[.=X=X|.|.[.|.|.[.|.|.!.=X|.=X|.[.[.[.|.|.=X=X|.[.|.=X[.oXoX=X|.}.|.|.=X`.|.[.[.`.[.|.|.[.=XoX[.|.|.|.[.|.[.[.[.`.[.`.|.|.).|.).).P.).).c.[.).|.[.).).m.).[.[.).[.[.[.[.[.[.",
"m.m.P.P.P.m.).P.[.).).).[.).[.).[.[.|.).[.).[.[.[.|.|.|.oX|.|.|.[.[.|.[.oX[.|.[.|.[.=XoX=X|.|.|.oX|.oX[.|.|.|.[.|.|.|.|.|.[.|.|.|.|.|.[.>X=X=X[.|.|.|.|.|.|.>X|.=X|.|.|.=X[.|.|.=X|.=X|.|.=X=X=X=X|.|.|.|.[.>X=X|.|.=X=X>X=X=X|.=X=X=X|.=X[.|.[.=X=X|.|.>X=X=X|.|.|.|.|.>X>X=X=X=X|.|.|.|.|.|.|.=X|.|.=X|.=X|.=X=X|.=X|.|.>X=X=X=X=X|.|.=X=X|.|.[.|.=X|.=X}.|.|.=X[.|.=X|.|.|.|.|.|.|.[.[.=X|.|.=X[.=X|.=XoX=X=X=X|.|.[.|.[.|.[.oX[.|.[.|.[.oX|.=X|.|.|.|.|.|.|.oX[.=X|.|.|.|.|.|.[.[.`.).P.[.[.|.[.[.[.[.).).).[.).).).[.[.`.)."
};
