/* XPM */
static char *west[] = {
/* columns rows colors chars-per-pixel */
"256 256 195 2 ",
"   c #57513A",
".  c #5A533C",
"X  c #5A543C",
"o  c #5B543D",
"O  c #5B553D",
"+  c #5B553E",
"@  c #615B43",
"#  c #625B43",
"$  c #625C44",
"%  c #635C44",
"&  c #635C45",
"*  c #635D45",
"=  c #645D46",
"-  c #645E46",
";  c #665F47",
":  c #676048",
">  c #676049",
",  c #676149",
"<  c #686149",
"1  c #68614A",
"2  c #69614A",
"3  c #69624A",
"4  c #6F674F",
"5  c #706850",
"6  c #706851",
"7  c #716851",
"8  c #716951",
"9  c #716952",
"0  c #726952",
"q  c #726A52",
"w  c #7C745B",
"e  c #7D745B",
"r  c #7D745C",
"t  c #7E755C",
"y  c #7E755D",
"u  c #7E765D",
"i  c #81785F",
"p  c #817960",
"a  c #817961",
"s  c #827961",
"d  c #827A62",
"f  c #837A63",
"g  c #877E69",
"h  c #877E6A",
"j  c #877E6B",
"k  c #887E6B",
"l  c #887F6B",
"z  c #887F6C",
"x  c #897F6C",
"c  c #897F6D",
"v  c #8C8171",
"b  c #8D8172",
"n  c #8D8272",
"m  c #8E8272",
"M  c #8E8273",
"N  c #8F8373",
"B  c #908373",
"V  c #908374",
"C  c #908474",
"Z  c #918474",
"A  c #918475",
"S  c #918575",
"D  c #928575",
"F  c #928576",
"G  c #928676",
"H  c #938676",
"J  c #998A7B",
"K  c #9A8A7B",
"L  c #9A8B7C",
"P  c #9B8B7C",
"I  c #9B8C7C",
"U  c #9B8C7D",
"Y  c #9C8C7D",
"T  c #9C8D7D",
"R  c #9C8D7E",
"E  c #9D8D7E",
"W  c #9D8E7E",
"Q  c #9E8E7F",
"!  c #9E8F7F",
"~  c #A39484",
"^  c #A49585",
"/  c #A49586",
"(  c #A59586",
")  c #A59686",
"_  c #A69686",
"`  c #A69687",
"'  c #A69787",
"]  c #A79787",
"[  c #A79788",
"{  c #A79888",
"}  c #A89889",
"|  c #A89989",
" . c #A99989",
".. c #A99A8A",
"X. c #AA9A8A",
"o. c #AA9A8B",
"O. c #AA9B8B",
"+. c #AB9B8B",
"@. c #AB9B8C",
"#. c #AB9C8C",
"$. c #AC9C8D",
"%. c #AC9D8D",
"&. c #B2A293",
"*. c #B2A393",
"=. c #B3A393",
"-. c #B3A394",
";. c #B3A494",
":. c #B4A494",
">. c #B4A495",
",. c #B4A595",
"<. c #B5A595",
"1. c #B5A596",
"2. c #B5A696",
"3. c #B6A696",
"4. c #B6A697",
"5. c #B8AA9D",
"6. c #B9AB9D",
"7. c #B9AB9E",
"8. c #B9AC9E",
"9. c #B9AC9F",
"0. c #BAAC9F",
"q. c #B9ACA0",
"w. c #B9ADA0",
"e. c #BAADA0",
"r. c #BAADA1",
"t. c #BAAEA1",
"y. c #BBAEA1",
"u. c #BBAEA2",
"i. c #BBAFA2",
"p. c #BAAFA4",
"a. c #BBAFA4",
"s. c #BAB0A6",
"d. c #BAB0A7",
"f. c #BAB1A7",
"g. c #BBB1A7",
"h. c #BAB2A9",
"j. c #BBB2A9",
"k. c #BBB2AA",
"l. c #BBB3AA",
"z. c #BBB4AC",
"x. c #BBB4AD",
"c. c #BBB7B2",
"v. c #BBB7B3",
"b. c #BCB7B3",
"n. c #BBB8B4",
"m. c #BCB8B4",
"M. c #BCB8B5",
"N. c #BCB9B5",
"B. c #BCB9B7",
"V. c #BCBAB7",
"C. c #BDBAB7",
"Z. c #BDBAB8",
"A. c #BCBAB9",
"S. c #BCBBB9",
"D. c #BDBBB9",
"F. c #BDBBBA",
"G. c #BCBCBB",
"H. c #BDBCBB",
"J. c #BDBCBC",
"K. c #BDBDBC",
"L. c gray74",
"P. c gray",
"I. c gray75",
"U. c #C3C3C3",
"Y. c gray77",
"T. c #C5C5C5",
"R. c #C6C6C6",
"E. c gray78",
"W. c #CFCDCD",
"Q. c #CFCECD",
"!. c #D0CECE",
"~. c #D0CFCE",
"^. c #D1CFCE",
"/. c #D1CFCF",
"(. c #D1D0CF",
"). c #D2D0CF",
"_. c #D9D3CF",
"`. c #DCD4CF",
"'. c #D2D0D0",
"]. c #D2D1D0",
"[. c #D3D1D0",
"{. c #D3D2D0",
"}. c #D4D2D0",
"|. c #D4D2D1",
" X c #D9D3D0",
".X c #DCD4D0",
"XX c #DCD5D0",
"oX c #DDD5D0",
"OX c #E3D6CF",
"+X c #E4D6CF",
"@X c #E4D7CF",
"#X c #E6D8CF",
"$X c #E7D8CF",
"%X c #E7D8D0",
"&X c #F1DCD0",
/* pixels */
"p.g.N.S.N.H.p.c.5.S.b.J.c.N.g.g.g.H.c.H.J.Y.H.N.J.Y.c.J.Y.Y.Y.J.J.J.J.N.J.Y.Y.N.N.N.J.J.N.H.J.Y.J.Y.U.Y.J.J.N.Y.J.Y.N.N.:.#.@.;.-.Y.J.Y.N.Y.N.J.k.Y.J.Y.J.J.N.N.e.N.k.k.k.N.N.J.S.S.J.Y.Y.[.Y.).J.Y.Y.Y.Y.[.Y.).J.[.Y.).N.J.J.J.J.J.Y.Y.J.Y.Y.Y.J.[.Y.Y.N.k. .:.;.N.Y.Y.Y.Y.Y.Y.J.Y.Y.Y.Y.Y.Y.Y.k.J.J.Y.N.J.J.).N.J.N.J.N.Y.J.Y.J.J.k.J.J.J.J.Y.S.Y.J.Y.J.Y.J.J.J.Y.J.Y.J.J.Y.Y.Y.N.N.N.;.e.T @.%.;.:.N.k.J.Y.).Y.Y.Y.Y.Y.Y.Y.[.Y.Y.Y.Y.Y.Y.Y.Y.Y.Y.Y.!.Y.Q.Y.Q.Y.Y.Y.!.Q.Q.!. XY.!.Y.Y.J.Y.J.Y.Y.Y.Y.Q.Y.Y.J.Y.Y.Y.Y.Y.J.H. .( ",
"g.N.B V I  . .( ( P B  .( m =.=.( =.( P  .( 9. .(  .9.:.:.( ;.( ;.P  .( :.;.( T T ( P P #.T  .#.#.( ;.S 9.T  .-.( #.P S  .N.N.N.N.;.:.T ( %. .T S S m ;.@.S e.e.;.9.e.P  .e.[ k.;.;.e.-.e.5. . .-.;.:.;. .:.-.[ { :. .:.-. .@.-.e.:.-. . .e.k.e.-.5.-.-.( -.Y.k.N.N. .%.@.[ ;.%.I S ( I ( S S e.:.e.N.{ ;.I e.{ %.[  .%. .( :.@.( [ -.S T [ -.{ S :. .@.S I T [ ;.[ @.I T T T :.( T ;.[ S S @.k.N.k.J.-.%.@.e.e. .@. .( ( S ( T -. .9.:.( ( %.m :. .9.(  .#.;. .;.;.(  .( T 9.T -. . .T T P  .S ;. .;. . .T  .( ( (  .T P m J.g.",
"N.5.J ~ ~ J I S m m S P P ( I P ( S  . .S S :.:.(  .( P T ( B -.( ( ( ( I T l P T T S P #.S T P P ( T -.T ( m ( T T ( ( #.9.N.g.k.@.P ( ( ( T @.S ( T %.( ( %.T ;.{ I ;.[ ;.:.;.{  .( %.-. .T @.;.@.%. .;.{ g I %.( (  .T @.S  .%.%.{ [ %.T { :.(  .@.:.%.T k.Y.Y.@.T T T { S %.m T S @.[ I T m :.[ T [ -.( { @.@.:.(  .[ I [ T [ ( I [ S { [ I [ [ S T [ [ I T T [ S [ T [ S ( T S [ { S T I Y.N.J.T ( (  .@.{  .( T  .T T ( T P ( T S @.@.S ( S ( T @.( T ( P T @.T T ( P ( ( P T S P S P P S  . .( ~ #.( S S T P P  .( ( 9.N.",
"U.5.J ~ J I J m m m V m P P ( l m P T P P S P ( (  .( S P S S S ( @.( ( P S m T T T P S #.-.T m P P ( P ( P S S T P P ( ( 9.J.k.J.( P ( ( T ( l T S T P ( ( %.( %.I { T [ m (  .@.( :. .%.@.[ I T %.;.@.%.@.:.%.S [ -.[ %.@.-.S ;.@.%.%.( ( %.%.@. .-.@.S @.e.Y.Y.I T T S S @.T S l T S I I [ T [ S [ :.%.T I %.T {  .@.T [ [ T S [  . .[ S [ T S B I T S T T T m [ %.@.T T T I T S I [ m T T Y.).Y.-.@.( I :.[ S T [ I T T @.{ @.( P m S P P ( -.( S @.P T S S S ( T T #.( ( T S T T S S T P T T  .( P S #.I m ( P ( P ( S 9.J.",
"p.( I ~ m  .S S l S S S p S S S S S ( ( P ( (  .( P I  .P S S m S P P :.S T T T S S m T ( T T ( T ( T P S T #.P S  .m ( T ( N.N.k.( T ( T T S ( S ( S P I T  .I T (  . .( ;.T [ S -.[ %.[  .T [ I T ( T I @. .{ ( m ( @.[  .S  .S ( [ @.[ @.[ @.T -. .( ( [ ;.Y.Y.I T T I I S S S S I S T T S [ T [ ( [ ( [  .[ T  .( { [ ( S I S [ [ %.I S -.S m S l T S I [ T m T T @.T T I I T T S I m T S Y.Y.Y.@. .[  . .T { %.I ( T T T  .P S T ( T T @.S T ( T (  .( T ( T ( ( S P ( P P P ( l S T T S P P P T T T T m ( S T ( S P P P N.",
"H.5.J I ( ( P P m S g l ( g P S P I P l ( P S m P S P S #.T S P S m #. .T S T P g m S T T T ( T m T g S #.T ( :.T ( { T ;.e.J.k.k.{ ( S ( ( ( T ( T m P I [ [ :.@.T ( m T T { S T T T T T S %.( T S ( T ( I T [ %.I I [ @.I { T %.{  .{ -. .[ [ ;.{  .T T I N.Y.Y.S S I [ I %.[ S T S S T S ( T [ T  .T S ( -.T m S [ T I  .@.T S T I T ( S S T T T m V B S T I T m [ T S [ ( m I T ( T S S T Y.!.J.e.[ %.S k.@. .T @.S ( @.{ [ [ [ [ c S ( S T T @.( S P m T S S ( ;.S ( P @.T #.( T P S S P ( P P  .m S m B ( T P  .P T B g.J.",
"S.N.J  .(  .I S P g S l p S S m S g l P P S ( ( P T ( S S I I S P m ( T T S l S S S l S T P ( T P ( P T S P ;. .P %.( @. .N.N.N.N.P ( P  .( T  .T { I I { [ [ ( T T { %.T T [ B S I [ S I ( S T c @.I T  .{ S [ [ @.T ( T  .T -.T [ ( T %.@.{ T @.[ {  .%.:.k.Y.Y. .T I { T S T S [ m S I S T ;.S { T T @.{ ( T ( ( ( T T S T ( m T [ I m %.S T S T [ T I @.I T S ( T ( T I m I T { [ T S l T ).[. X( #.{ :. .( @. .[ ( [ T @.[ T [ ( I T %.( S S ( ( ( S ( T P m ( ( T { ( T T P ( ( S T P T T T #.P T T P P P P ( ( (  .T g.Y.",
"Y.=.( S ~ S P I P g l B m T m m S S ( P B S S T P P ( S S m I m T m S S T S S S T T S T S T P P ( S ( S ( { %.( T S P S [ ;.Y.S.J.P ( P ( I [ T T [ I ( ( T [ T S I [ ( T I T S T T [ I S T I T B T [ T  .m { m %.T S @.B  .[ [ { { @. .(  .%.[ (  .[ @.I [ N.Y.Y.{ I S ( T ( T I I S I T T T I %.T T S T {  .(  .I T T T I S T S I [ { T [ ( m I [ T T I { I T { T T I T T ( T [ T T I m T I [.Y.Y. .p (  .{  .%.:.@.S [  .[ %.S @.;.T I T T T T  .T ( T P c T ( ( ( ( ( T ( ( m @.S T ( T T m  .( ( T P S S ( ( S P P S ( 9.Y.",
"H.P m m P ~ S P S l m l S T m m m S S P S P m P S m m P m S m l S m P S ( P g S m T T S T S P ( T l T P T ( (  .S ( P m T T J.J.N.P S ( T T T [ S T T I T  .[ [ T ( T I S T T S S T S T m T I m B T I T I { T T T  .[ ( ( %.@.@.I T @.%.( @.@.@.I @.I %.S l -.Y.J.{ m T S S T I T T T S S T S T S T T T m S { T I ( T T I [ T ( m I T { T @.m S S S S T I S S T S S S [ S T T { T T S S m T S Y.Y.Y.@.B @.I T  .@.@.[ T T [ T { S T T [ T B m T S S T ( ( S S ( T P S T T T P T T T P T P ( T T m ( T ( S m T ~ T T T ( l B S Y.",
"Y.5.P ~ I (  .P B l B S P P I P T S ( m T P I S S S T P P T T  .m S ( P T S S g P T S m T T S m S m T T T ( S ( @.( T ( T e.Y.Y.N.T @.S T T S I T [ I [ T T [ I T S @.{ ( S  .S T I I m { I ( %.{ T  .{ T T [ { T T { [  .[ ( [  .T  .[ :.;.-.T %.( ( %.( :.x.Y.J.m I S T T T T S S [ [ [ S T T  .[ ( ( @.@.[ T I { %.T @.{ [ S T S @.S @.{ %.( S T S T S { I l T T  .B ( m T S S T I T T l m Y.Y.J.S T T [ S [ %.S %.@.T T @.S m @.[ I  .T T  .T T T T T ( %.T l T %.m P S T ( %.@.T ( T ( P S T T ( m S l T m P ( ( T ( S 9.U.",
"J.=.B =.S P P P P S m S l T m T P m S S ( T m T S P m S m T S T S m T ( T S S p m S m T S S l S m S ( ( S S ( ( T T S ;.P :.J.k.k.T { T T T S I I ( S T S [ T ( { T T S { T T S I [ S [ [ T m I [ S ( ( S S I T T S [ S [ [ I T T T @.:.{ %.( I  . .( T { %.k.Y.Y. .l T S S m V V T S S T T S T T T m ( T { [ [ T T ( T [ [ ( T ;.T T T [ ( [ S S ( S l S I T T [ S S S T T T I T m S T S T S [.N.Y.%.:.I [ [ { @.@.T T T  .I T  .%.T ( [ [ T T l T m S I T ( P P T ( P ( T  .( %.( ( T P ( S S T  .( m ( T m ( T ( T S :.S ;.J.",
"N.=.P S  .~ I P ( m P P m P T P P S ( T T S S S T m T ( S T ( T T P T m P S m P S P S l T P S m S T P P T ( { P P ( @.S [ ;.Y.Y.J.@.( I ( I S T [ T I T { I %.T  .I T T [ [ I S T T T ( T S I S I [ [ T T [ [ I T ( T T [  .S ( [ { { I %.;. .[  .[ [ T ( { N.Y.Y. .T S I  .:.S S T T ( I S S T T m T T ( [ ( ( @.S [ [ [ ( %.( %.T :.[ ( T T T [ I S I T T T I { T I S [ T I  .{ S T T T T T Y.).Y.:.-.:.%.-.[ I T T ( %.{ I I :.S [ ( T ( S m I I S S T I c m  .T ( (  .( ( T { ( ( S ( S T ( #.T ( S P T T ( ( T #. .P T :.N.",
"c. .B m ( =.T ( S T T i T P m  .m I  .l P P S S T P S ( P  .S ( ( T T ( S m p l S m T T m S S S T ( T P @.%.%.( P :.( m I @.Y.Y.N.@.[  . .m T { I I T I T @.( m T I  .;.S (  .@.S T S T m T S m T S [  .m B T ( S S I m T { [ ( S @.[ {  .-. .@.T [  . .S ( { Y.Y. .T %.T I S ( T S T S I T S I I m I ( [ @.[  .@.%.I I [ ( m ( I T { ( T %.S S S l S B I T S { S T T [ I [ [ [ ( T [ ( ( T T Y.Y.).%. .#.[ %.[ T S [ @.I @.%.%.m T T [ m T p @.( l m S S m T I [ %.( %.S { -.@.{ P g T m T P S P S #.S S ( m  .T ( :. .l P  .H.",
"5.:.( P ( (  .m S m S T S m P S P P ( S T m P ( T T #.T ( P ( ( m T S S S S P m S S ( S S T m S T P P P T P  .(  .[ ( I I ;.J.S.N.T @.[ T m ( S T [ %.{ ( T [ [ %.I  .[ { T S I T { T T ( T T T [ I [ @.[ T T T T [ I ( [  .{ ( { T %.[ T ( :.[ ( ( @.( T [ J.Y.Y.T I [ ( T I m S S [ T I T T S I ( [ ( I S [ T T [ @.( :.T T T m T I T S S S S S S [ T S S T m [ T T ( T [ ( [ ( ( ( [ S [ @.!.!.J.;.m @.{ :.( %. .( [ ( ( ( :.%.S @.T T [  .T ( T { m m m T S p [ ( T P T ( T ( T ( ( ( T ( T S ( T T T S S ( T ( #.( T T -.5.",
"Y.9.P ;.T ( P S P B B S S T m S l B S ( S S P S T ( P S T T P S T S S T m T S m m T S m S P l T m m T T P m T T I [ T ;.I 9.n.J.S.l ( [ T [ S I T [ T [ S ( @.[ T [ T T T ( m { I [ T S S S I T I ( ( { S [ T I T %.I m (  . .%.@.{ %. .I [  .[ T  .( T {  .e.Y.Y.%.T T l [ S [ S { T I T T T T T T m S S S [ S [ ( T T T { T ( S @.( m S I S S g S S T m m S B T [ I S T T S S I [ T T T S T Y.Y.!.( e.(  .S :.I [ I S [ { I [ [ ( I @.{ I I S { @.S S m m S S ;.T I T m { T { m T T m T T S P T P S ( T T T P T ( T ( #.P :.Y.",
"!.( I ( ( ( B P g P S S P S B m S T S m B T P T T T T T ( S T S T S T S T l T S m S T S P P T S P T I I I ( { [ T [ [ [ @.[ S.J.Y.[ T T [ T [ I %.T I T I T  .T T S [ [ ( T T I T S [ I [ T T T T I ( T T (  .S [ S S T [ T [ @.{ :.:.[ ( [ %.{ S [ (  .I T k.Y.Y.S T ( T T [ S ( I { T T T I T S m I T S T { I [ S [ I ( I T S T { ( S T S I l T m T ( ( ( m S { S T T T I :.S ( S (  .[ m ( Y.).Y.-.c %.%.e.:.@.T %. .[ S @.{  .T [  .%.S { T T T T [ m c T ( ( T T T T T S P T P T T ( P ( m @.S ( T ( m ( P T S ( T  .T ( Y.",
"Y.( S P I S P S g m m S g S m m S S m m l T S ( S  .T ( S T l P T T l m S S S S m P m m c T P ( S T T { ( ( [ S T S I I v [ J.Y.N. .T ( I I T T T ( T @.S T [ S T S S I S T S ( T S S [ [ T T S T  .T S [ T S T [ [ I I (  .T %.T %.T I  . .%. .T [ (  .( ( 5.Y.Y.:.m T S T I I I T [ T I T [ S S T m T T S S T T S S I T S I I l [ I T B ( m T c I T { l T S S T @.T :.[ I I ( [ { T [ S S V Y.J.Y.;.T [ ( :.%.%.{ m :. .@.l I [  .-.-.S S S ( T T S { S [ T I T S S I m ( T T S S S T S S S T T g P ( S S S S T ( S ( T T P Y.",
"Y. .P ( T m ~ m S m l m S S S S S m m S P T T ( P P P l P S l T S T S S P l m S P m T S T m m ;.S l S T ( I T T { m T ( S  .Y.Y.J.[ %.I [ I I [ ( T S S  .( { %.T T { m S I I T T T S ( I l T @.T S S I ( S [ T I T [ T  . .%.T  .I T ( ( T I @. .:. .[ I ( k.J.Y.S ( S T I [ S T T I T S I ( I %.m S S m S { I T T [ [ [ I I l T I [ @.[ S T c S T T T m T [ l ( S ( I %.T ( S T S { { S m T Y.Y.J.T @. .%. .%.[ %.@. .( ( { { ( [ -.(  .S { m { T [ I g I S [ %.S l S { T I T T T { S T S T T T T T ( T ( P S { T S T ( P  .Y.",
"Y.( B T T P S l S T l  .g #.m m m T m S ( ( T m P T m ( T ( S S ( T S T m P m m S ( l ( P S ( p m l m T S S  .T S [ S I m { J.Y.J.@.S T T [ I I T S T I T %.T I S S S %.m I m I T T S [ p [ I T l { T ( @.I m T [ m ( @.m ( S @.T S T ( ( @.%.S [ I T %.I #.5.Y.J.:.S S T S T I S I T [ [ S T [ [ T S T ( S S T ( { T S [ S T [ %.e.I  .T T T T S I T {  .S T I ( [ S ( T { S @.S S [ I S l S Y.J.Y.:.@.%.@.( ( ( S %.(  .S T %.;.(  .{ ( [ { T (  .[ T T S m I I S S %.%.I T T S S I T S ( S S P ( S  .( m S ( S S T T P T ( !.",
"Q.;.( P ( S m g S S m ( P S i l P m ( P S T S ( S P T p P P S 9.S m T S T T T p S S S S T S I p T T I T T ( T S m I ( I ( :.Y.J.J.T T I [ ( %.( S [ T T [ I I I T S T S T S l S T I I ( ( [ T I l T T [ ( I  .{ { [ { ( @. .:.S I T [ { [ ( { %.[ [ @.{ ( { k.Y.). .T T ( ( T [ I c ( I I ( ( S [ I T S [ [ I I { { S ( S T T ( :.S T T [ p T T T p T T S m S I S I [ T I S I [ T l S S T m S Y.).Y.e.T  .{ T ( :.@.{ T I T ( %. .@. .I ( T T T T l T I [ [ ( S T T I ( %.T T T ( m S T ( P T S S ( S ( T m m T ( m T T ( ( -.Y.",
"J.( P m T T S S S P m S S S l S T S S S S S ( m S m S T T S T T T S T ( S S m S T l P T T [ S T T S I [ [ [ I T S T I m ( { Y.J.N.T T T T T  .[ T T [ I S I S S m [ T S m (  .S T m S T l T S T [ T S I S [ [ [ ( ( T [ %. .I @.I  .( @.{ T [ { T [ I ( T T 5.|.J.{ T [ T T [ T S  .[ T  .[ T m ( I S { T S T [ T c c I T I S T I [ T ( ( I c [ S m S I S { { S m S [ S I  .T [ m l S S m S I Y.Y.Y.m ;.T m @.( @. .T  .:.{ (  .T T { T [  .T S T [ ( [ I T T I m m T @.S [ ( T T S S I I S S ( S P T S S P T T T S P T m T ( Y.",
"Q.:.( I ~ P S S S T S P S S P S S m T m S S S S m S S T P P ( S P P S T P m { P P P T T I S T T ( S { S [ T S [ ( [ [ T [ -.[.Y.Y.V  .( ( I ( [ [ T T T ( S S T T I T [ [ S S S T S I S [  .S I S T I ( ( T -.T S [ ( @.%.%.%.%.@.[  .[ :.@.{ T ( [ %.@.[ T x.Y.Y.:.[ T T T I S S ( S I I T T [ T S @.m T l ( c T T S T I m T T ( T [ T T I T S S T T m m T [ S e.S [ m I ( I T S T T T T m T |.Y.Y.e.{ %.[ :.I  .( I  .:.[ { { [ :.:.( %.@.%.{ T T T [ { T [ I B T { m T S [ T [ T [ I ( T T T P P @.S ( P ( T T T { T T T 9.!.",
"Q.g.P T ( T p P S S S T S S S S S m P T ( P m S m S S S S ( S T S S { S S ( B T S ( S S S [ S T ( m :.T T [ p [ [ T [ T c k.!.Y.J.%.[ [ S ( I T I [ m  .T [ m { T T S S { T S T S T S S S  .m  .S [ S T T T T T [ T [ T T [ I @.[  .@.%.:.%.I @.%.( { [ T @.N.).Y.@.S T S { T T S m S T T %.S ( I ( [ T [ { I c I c m T T :.S T T m T S S { S S T S S T l S T T @.I ( I ( @.m S S I @.T S S l _.Y.Y. .%.S :.[ (  .@.[ :.{ -.@.T [ :. .T %.%.-.T :.[ [ S T { T ( S [ I [ ( ( T m T { S I ( ( S T T ( S (  .P S T S { S ( P T g.!.",
"Q.( S P ( T P P S T m ( T T S S ( T ( T P S T g m T S ( :.P ( S T S P m P P P I ( B I ( I T S T S T T T T T  .( S T [ I [ { ).J.Y.[ [ [ I (  .T I T T I T m I ( T T ( T T T T m T I S [ [ S  .%.T S I T [ T %.m { :.[ {  . .[ ( { (  .:.;.-.:. . .T  . .{ [ e.|.[. .[ I [ T :.[ T [ T S T m T I S S T I %.I T S S S I { I T ( S [ T { S T T ( S I -.T T [ I T T T ( S [ T I ( I ( S T ( S S I Y.Y.Y.:.S %. .:.@.[ @.:.T :.;.@.@.;.%.e.[ :.[  .@.{ S ( [ T ( T [ @.I { S ( [ T B I I T I :.S S T ( I  .P ( ( B m m l P T P m  .Y.",
"J.T S T S ( S S T T m P S T S l P P m T S T P S m S S S T S S m S m S S S S T T S T I T @.T ( I 6 ( S T T T %.I S %.T I T I Y.N.N.T [ T ( ( I I S T T ( I T T I S T T S S T I S I S S T m [ T ( B T S [ [ ( I [ ( [ T T ( ( T [ T T %.-.T -.(  .[  . .[ I [ ;.Y.Y.T S ( S [ I ( S T S T [ I T I m S I S ( S  .m T S S T T I I [ g I T S S T S T S :.m T T T T %.w { I [ S T T T S T T S m T m Y.Y.Y.S (  .%.[ @.[ T { { (  .%.{  .[ [ %.T { :.{ T T [ @.(  .( T [ T [ ( I  .S [ T [ B ( T T S T l S ( { S T T S l ( ( T S S P J.",
"N.T l P ( T ( T S S ( P T S ( P P T m ( #.S T m T P S ( P T S V S S P S S S @.[  .T @.[ I T S T T S T T T [ I I [ I { T T T J.e.:.[ [ T [ [  .T T T [ { { S T I S [ [ ( { S I m S m ( I { T [ @.I (  .:. .T (  .[ [ [ %.@.T ;.{ @.T  .@.(  .-.T %. .;.[ T [ %.Y.J.I ( I T T :.{ S ( T [ I S %.{ m m T T [ I T m { m ( T T { T I e.S  .T { ( T T S T T T T ( T T ( T { T I T T T ( T I [ S T T Y.Y.J.( T %. .k.@.%.I @.%.%. .@.T @. .-.{  .S -.:.;.-. .{ ( -. .[ :.(  .{  .[  .( T S T { T { { T @.( I ( @.T m P T T ( T P p ( N.",
"n.:.m P ( ( P T m m S  .( S T ( S T T l S S S m m ( T S T P T T S T m m S T S S T @.T ( S ( S T S T [ S S S S T T { { T S :.N.J.k.( ( {  .T I T S ( T ( T I T T @.T m S c S S T m S [ T [ T I [ [  . .T ( T  .S T [ ( %.[ -.{ (  .%.I -.(  . . .( :.@. .T ( %.Y.Y.{  .{ T S S ( S I S @.I T S T T T T T S B m S %.T [ ( ( T { T m I T ( [ S m T S T S T I [ I { ( T T [ v T m S I ( T T S { S Y.Y.Y. .:.%.%.{ %.%. .( #.( -.I %.%.%.[ 5.:. .%. .%. .[  .%.( I m I { T %.( [ ( %.m { S ( S B S T [ [ I T I [ m S S ( [ ( P m ;.N.",
"Y.m I T P ( T ( ( T m T T P T P  .m ( { ( P T S T T m  .T T p P T { T T ( I { T ( [ S T [ T I ( { T { [ [ S T  .T [ T T T B Y.J.J.[ %.T ( ( T [ ( ( T T :.I ( T ( B S m { I [ S T ( T [ [ T [ m e.{ :.T T @.{ %. .-.I %.-.{  .[ T I [ T [  .%.S [ :.%.[ @.c %.Y.J. . .T [ T [ { T I I S [ %.T T I S S B S m I S [ @.@.T :.[ ( T T I I [ [  .{ S T %.( T ( -.@.[ [ [ [ T T I T m T @.( T ( m T Y.Y.Y.:.:.:. .:.[ :.:.@. .:.:. .[ @.;.%.%.I {  .;.( :.:.( :.%.%.T S %.%.T  .:.:.@.T  .T @.T  .%.T T S T T [ T T S P T ( I P T m J.",
"Y.g.T P -. .-.T ( ;.( P ( ;.{ ;.#.(  .( -.#.#.;.P @.:.S  .:.( S e. .;.( ( %. .-.:.-.T T  .;.m @.T T S  .%.:. .I ;.%.:.T B k.[.Y.J.l I T :.S T %.:.:.( I [ %.e.I [ T S S ( :.k.e.T -.( %.T ;.-.:.I ( [ :.%. .9.:.%.%.( #.( %.;.:.[ -.[  .T :. .%.:.e.(  .T p J.J.J.-.l T ( %.m T @.:.I @.I S %.k.V T %.S m T e.e.B -.;.[ %.I ;.;.B :.T %. .@.[  . . .T S [ k.{ :.B [ T S T %.[ %.:.%.:.[ ( I c ).Y.[.T ( ;.( T %. .:.%.%.( :.T e.T {  .-.[ :.e.k.%.:.-.5.( %.e.e.%.( :.:.e.9.e.-.%.[ %.T { :.{ :.I %.I %.S ( T @.T :.[ :.S T 9.Y.",
"J.N.l m m l l m l p g p l u u u m l l l S u m g 6 c c l p p l p m m T m T c S l c l m l g l m c c m m 6 l l l c l c m m :.N.Y.J.J.[ l m T S ( S m g m l S c l l l m m l S p S S I l m c I l c l l S T l S p m l l p S m S m m m m l m m T m m S m m c c p :.Y.J.Y.Y.S S T c m m m u T p p m g c g p S m c S l p I l l m v m l V l u I m c l g p m p c p m m m p m l p l c c m c m l m B m p x.Y.Y.Y.Y.S m B m p S l f S S m S S [ m B m ( S m c ( c m u m m S m S S m m S S S p m p l u g p p v m c p p m p B p m p v v m p J.J.",
"N.N.k.N.N.Y.N.J.N.g.J.k.N.Y.N.J.N.J.N.J.g.N.k.Y.Y.J.Y.N.J.Y.J.J.Y.Y.Y.Y.Y.Y.Y.Y.J.Y.J.Y.Y..XI.Y.Y.Y.J.Y.Y.).Y.Y.Y.Y.J.Y.J.Y.Y.!.Y.Y.J.Y.J.Y.Y.Y.J.Y.Y.Y.[.[.J.Y.Y.J.Y.Y.S.Y.Y.J.Y.[.Y.Y.Y.Y.Y.Y.Y.Y.Y.Y.Y.).Y.Y.J.[.Y.Y.Y.|.Y.Y.Y.J.J.Y.J.Y.Y.Y.Y.Y.Y.J.Y.Y.Y.Y.Y.Y.Y.).U.Y.J.J.J.J.Y.Y.J.[.J.Y.Y.Y.Y.J.Y.Y.|.Y.J.).Y.|.Y.[.Y.).Y.Y.Y.).[.Y.Y.Y.Y.).Y.).Y.).J.Y.J.Y.J.Y.J.Y.Y.Y.Y.Y.Y.).Y.Y.Y.Y.Y.|.Y.Y.J.Y.[.Y.Y.Y.J.Y.Y.Y.Y.Y.Y.Y.Y.J.Y.Y.[.Y.Y.Y.Y.Y.J.Y.Y.Y.Y.Y.Y.Y.Y.Y.Y.Y.Y.Y.J.Y.Y.Y.J.Y.J.Y.J.J.J.J.J.Y.J.J.J.J.J.J.J.Y.",
"J.N.N.J.Y.N.J.N.k.N.N.k.k.N.J.J.Y.J.k.N.J.J.J.J.J.J.J.J.Y.J.J.J.Y.Y.Y.Y.Y.Y.[.Y.Y.Y.Y.Y.).Y.).Y.Y.Y.Y.Y.Y.Y.Y.J.Y.Y.Y.J.Y.Y.Y.).).Y.Y.Y.!.Y.Y.Y.Y.Y.Y.Y.Y.Y.J.J.Y.J.Y.J.Y.J.Y.J.Y.Y.J.Y.).Y.J.Y.Y.Y.Y.Y.Y.Y.|.|.Y.Y.Y.Y.Y.Y.).Y.[.Y.Y.Y.Y.Y.Y.Y.Y.Y.Y.Y.).Y.Y.Y.|.Y.Y.Y.Y.Y.Y.Y.Y.Y.Y.Y.|.Y.Y.Y.[.Y.).Y.Y.Y.Y.Y.[.Y.Y.Y.Y.Y.Y.Y.).Y. X|.).).Y.J.Y.Y.|.Y.[.Y.).Y.Y.J.Y.Y.[.Y.Y.J.|.Y.Y.Y.).).Y.|..X).Y.Y.).Y.[.Y.).J.Y.Y.Y.Y.Y.Y.[.Y.Y.Y.Y.Y.[.Y.|.Y.Y.J.Y.Y.Y.J.Y.Y.Y.).Y.Y.Y.Y.Y.Y.Y.J.Y.Y.Y.Y.).J.Y.Y.Y.J.J.J.Y.J.J.J.J.Y.J.J.",
"g.N.g.N.9.Y.g.S.9.N.g.N.k.J.n.J.k.N.N.N.N.N.N.k.J.J.J.S.).Y.J.J.J.e.N.k.J.J.k.S.5.N.x.J.J.J.J.N.k.N.J.N.J.Y.N.N.k.J.J.Y.Y.J.N.N.S.J.J.J.J.Y.J.J.N.Y.S.S.Y.Y.Y.J.J.k.J.N.Y.J.N.S.Y.Y.Y.J.S..XI.J.Y.).S.N.k.Y.N.J.9.S.N.N.J.J.S.Y.Y.J.Y.J.J.Y.J.Y.J.J.J.J.J.[.J.J.N.Y.J.Y.k.Y.Y.Y.N.).Y.Y.N.[.J.|.Y.J.Y.Y.N.Y.J.Y.J.Y.Y.Y.S.Y.|.Y.N.Y.Y.Y.N.Y.N.Y.N.k.Y.Y.N.Y.J.Y.J.Y.|.|.N.Y.J.[.Y.Y.J.Y.J.[.Y.Y.Y.Y.|.Y.J.J.).|.Y.J.J.[.J..XY.J.J.Y.Y.Y.J.Y.[.[.J.Y.Y.Y.N.N.J. XJ.Y.Y.).J.Y.).Y.Y.Y.J.Y.S.Y.J.Y.J.J.Y.Y.J.).Y.Y.Y.Y.Y.J.k.g.J.J.",
"( S S P ( T P P T T m m ( T P S ( p T T ( T  .c ( :.I I ;.Y.J.J.( S S m ( { S m S T S T %.S T  .[ %.I T [ [  .I [ T (  .:.T T T l ( [ T %.( ( I [ T S T  .T T T S T I I  .S -.T {  .[ S { 5.|.Y.J.%. .S I ( T [ m T m T %.{ ( [ [ :.:.[ T  .[  . .:.{ :.:. .I T [ {  .T T [ :. .S T  .@.T { %.I ( [ %.( S %. .[ %.( %.T I @.J.J.Y.e.[ { T ( :.( T S ( S T (  . .I ;.e.-.-.{ e.( [  . .%.@.e.@.@.e.[ k.-.%.I :. .{ I -.[ ( -.;. .:.@.:.%.%.[ :.e.%.@.e.T [ I :.N.Y.J.J. .[ T :.-.:.%.@.T [ S :.[ :.@.%.%.T S  .T  .{ [ l S P T m ",
"S ( ( ( P T m T T P T ( ( S ( ( ( ( ( @.T T -.( (  .( [ :.Y.k.J.m S S S S T S I S S T T S { I T ( :.{ T -.S [ [ I { @.T T T [ -.T I :. .[ T ( [ T T [ T S S ( { T [ I ( T { T  .T %.T (  .T J.Y.Y.S S I T [ ( T I I [ { S S S (  .@. .%. .( ;.T @.%.#.:.{ #.[ ( ;.( T :.( T S [ [ ( { T T ( [ T  .{ I [ ( [ I ( I ( [ I [ T e.Y.J.:.S I [ T { -.S ( S @.( I ( I %.%.@.;.@. .:.I T  . .%. .:.-.e.:.%.;.k.-. .( @.T %. .[  .@.T -.-. .%.k.:.:.%.%.:.@.%. .-.( [ :.S.Y.-.( %.(  .:.[ :.{ ( { ( m T ( ( ( %.T ( I ( S { I T S T m S ",
"P S T m T S S m S T ( S T T P T  .T ( P P T [ T  .[ @.( ;.S.J.J.m I T S I S S l m m T T [ S  .S { S %. .[ I ( S S @.T [ { T { T T I I ( T m  .T [ ( { { S { %.T [ I T S [ S { I T I { S I { Y.S.J.T [ T ( T m [ S I ( T ( T T S ;.T :.{ ;.S ;.( #.{ %. .#.T { { m m [ I I %.[ T I c [ T { [ %.{ I m { S T T S [ I T  .S m ( e.Y.J.:.@.I T { T T I T [ [ T { ( [ ;.( %.[  .[  .:.{ { T %.-.-.:. .[ S ( %.-.%.:.(  .T T { T %.@. .[ @.:.:.:. .( #.%.I [ %.I  .( T Y.J.k.-.%.T %.(  .%. .T T T [ { T T S T I T S T T T T T T S T S ",
"S u m g m m l S S m T P S T P T ( T T T S [ [ { S @.T  .I 9.J.J.S T S m T I T S B I m S I T S S S  .{ I T S T T S [ T T T S S T S I T [ T T I ( B T T T T T [ I T @.I [ T { [ I S  .m S T { Y.J.N.( T { T S ( m T T T S S I T I T :.I T [  .S I S  .T I T { [ T [ %.T m T @.[ S I T T T T %.B T T S %.[ S I T @.T [ T T S T [ Y.Y.:.T  .T I I T T -.S m I I I %.S [  .T [ %.{ T S %.#.%.[ e.:.:.T [ -.I %.%.[ T T T m @.T ( @.@.S T T e.%.[ :. .I [ T ( ( [ ( m J.Y.:.#.{ %.{ [ { -.T I S I T  .l ( T I T T m I S S T I S I p S ",
"T l T P P S @.( P P T S m ( ( P ( S T ( [ T ( { ( I (  .-.J.Y.S.m T ( T T ( [ [ T m I S I T T @.[ T T I T I @.S S T [ ( T I T m T T @.%.S m [ [ I S I T ( T [ [ T ( { [ T I I ( T { ( T I :.Y.J.N.S T T  .T @.S I S T T I T I [ #.{ %.T [ I T T T I T ( T [ T ( T T T [ T I S S T I [ T ( T I T -.T ( S %.I T I  .S  .( T T e.Y.Y.-.@.( T [ [ { T ( %.I I T T ( { [ [  .T %.[ @.( T  .I  .%.-.@.[ @.%.:.[ I I @. .T T T T T  .{ -.( {  .[ ( ( {  .%.@.( @.( @.%.Y.J.k.;.( (  .;.@.:.T T T ( T I %.[ [ S %.( I T I I T I [ m T I ",
"P T l T m l T P T ( S P T P P T ( S T I ( T -.{ T ( T ;.( Y.J.J.T S T  .T S S T T { S I S I { c T T S S S I [ I T T T { S [ S T m [ ( T T T T -.T I T [ ( ( I T m { I [ T T ( l { [ S T { e.Y.Y.J.I [ T %. .m I S T T T S @.S ( #.S @.( ( [ T S T T T I { ( S m I T S [ [ -.( S T { ( [ @.@.S ( T S [ S T { S l [ :.S ( I ( e.Y.Y.e.#.I (  .%.T T [ T [ m T {  .S { {  . .T S :.B [  .T (  .( :.( ( S e.@.:. .I m ( [ T T ( [ [ S %.T %.I { T T ( [  .T S T [ @.J.Y.e.e.@.%.:.;.-.:.I [ S T T T [ [ I T ( S T S T ( [ m [ S T T ",
"P S T m T P S T S P T T %.( P S  .T T [ T  .T T  .T { [ %.N.N.Y.S m T S T T S S T S m T B T T I S S  .m T S T T { T :.[ T I { T [ T  .m { S { T S S S T I T I T S S [ T T (  .I ( T T T [ I Y.N.Y.m I { S T [ m T T T T { ( T ( [ S T  .S S T T { [ [ T  .S [ T T S T I ( [ ( I I T T %.I T @.I { ( S { T T T T S I T T m I T Y.J.e.T m :.T %.[ [ %.T I ( [ ( T ;.T I I  . .@.[ I ( (  .[ [ I  .:.T %.%.T ( [ T [ ( ( T I S { I T T T ( [ ( :.T %.( I T T T [ ( Y.J.k.@.T %.@.( %.:.@.T  .S [ S -.T T { [ T I I T I T T S { I S ",
"g S g m S T g S S P S P ( { T P T [ I T T [ I [ m  .T #.{ k.J.J.S S S I m I m S T S S S c ( [ T m S S T S T c T S [ I T T S [ T S S m [ m S S S l m T S S [ S [ S S [ T T [ S [ T T T m S T N.J.k.T m { I T T S S [ m T T [ I [ [ T ( I T  .S S T T { @.T ( S T T T T [ T T ( S S c I I T T I S T  .S S m [ ( ( I :.T S m g %.Y.Y.e.{ I I [ @.T T T T I T [ [ ( [ [ T I S T { I I T S  .[ ( T B S S ( ( T [ S T I T T T S [ T %.I I I I m {  .[ [ @.( [ T c  .S Y.J.e. .I T S ( T m [ I S T [ S @. .T ;.m ( T T S [ I I T S m T ",
"( P S T m T P m S ( { T ( S [ T ( [ -.%.I [ [ I T T [ { 9.k.Y.J.S m S c T S  .m T B @.T m c { I I c T l S T ( S T I  . .T T %.{ [ I @.I I [ I T T [ T T { I S T m @.{ [ T ( S T  .{ T T %. .J.J.J.I ( m T S I [ T T S m  .S %.[ @.T %.{ [ [ [ S { { @.[ ( [ ( ( S m %.S %.S S S l S S  .S ( T I [ T I  .I T l T T T T T ( [ :.|.J.-.@.{  .T [ T T T ( I I ( ( -.[ S @.%.{ -.T m [ [  .@.-.[ ( { S ( I T @.[ S m [ I %.m I I T S @.I T T B I { @.T l %.@.S @.-.:.Y.J.k.:.{ I [ [ T S %.I [ l %.{ [ T ( T  .[ I %.T T ;.T T l T I ",
"S T T P m ( m P T T T ( T T T T T T [  .[ I [ S I T I #.e.J.J.J.m S T S T I I m I T S T I T ( S S T S T I I S { S @.@.I :.-.I { %.{ I I S [ I [ T T S T [ [ { T S S I %.T c m S S [ S T S :.Y.J.N.S I S S I I T T T l T T ( T ( I T S I ( T I I T  .S ( ( ( S %.S T S @.{ ( S T S T m I S I T ( T I S S S T m S T T T S [ [ -.Y.Y.e.T [ S [ I ( T %.( m T I T ( @.( T T I I ( [ T T I m T T S I T :.%.%.[ -.T S m { I S T S T [ S T m S T S %.%.T %.(  .B ( S :.N.Y.e.k.I T T T {  .I m S T T { { @.{ :.T { S S T T T I l S l m ",
"T T m T S P S T ( ( T ( ( T m m ( T [ T ( I ( ( T I { S ;.H.J.S.T m T T ( T ( T I T T T p { I T [ c [ S { T { T T I { T :.S S { %.T [ :.[ T @.T S I { I T S T T ( [ %.[ T I %.T T T ( I [ ( Y.J.Y.T T T [ T I T T I S ( { I T @.[ [  .{ @.T ( T I %.[  .T ( { I S ( { ( T T  .S S T B I T [ T T ( p T S T I ( [ T S [ I S [ I Y.J.e.%.( [ @.%.[ (  .( T T T ( [ :.[ %.{ @. .( ( ( T ( [  .(  .{ @. .[ [ T m ( S S T B p S I [ S  .T ( S [ T B c %. .[ [ I T S I ).Y.N.k.%.( [ T ( I T m  .S I T { T @.[ ( [ [ S [ S T T [ { [ I ",
"S P l m ( T P T P ( I ( V  .T T T [ S ( S T S T I S S T #.k.J.Y.m I T [ (  .T V T T S ( S T T S ( S S T S T T T S m I I :.T -.[ T S T  .[ T  .B m m S { ( S m [ T S T S %.( [ T {  .T S T  .N.J.N.S S %.T m ( T S  .S ( T T S @.T I  .[ { {  .[ T :.T ( S [ [ T l  .S ( I [ T I T p S l T [ T I [ S I m { %.[ [ [ @.S [ m T T Y.N.-.T [ T T [ T m T { T { [ @.-.( S @. .T T T [ S T T ( { S T %.[ T { %.{ @.S m m S S ( S S S @.T S T :.T ( T ( ( { T  .S [  .( J.).e.:.[ %.[ @.( T ( I T @.I m I { T T T S I :.m T I m m l I S ",
"{ P  .( T S { S T T I I S T @.S I ( T ( T ( S T I [ ( [ e.S.Y.J.S S ( I I T S S T I m I c m %.S ( l T l S B m m T I T T %.T I T :.( ( T ( m S T I T T I T I @.T T S ( T S S ( I [ I I  .T  .Y.N.N.T S T { m [ S T T  .{ I [ ( T @.( { T [ T I I T [ T T [ T S @.%.[ I T I T T T m I [ S ( T T I S T T m T S S ( T T { S T S 9.Y.J.[ S ;.[ (  .S T T ( { ( [ ( T %.( ;.B (  .T T [ I  .[ %.T ( T @.S T T ( S @.I T S S c T S %. .T S I ( I ( { ( S [ { ( [ { { -.Y.J.k.{ [ ( ( [ [ S ( [ T S T T  .[ S T S ( ( S [ T [ { S I T @.",
"T S ( T S T T T I T T ( T T T T T ( { [ S T T m T { m  .( Y.J.Y.{ m [ T S ( m S T B S S T T %.T S T S I c S m T I I [ ( [ T S S S ( [ [ I S g S m T u I T I I T T T T m T I  .I S I T S I :.Y.J.k.T ( T T [ [ T { T T I I T T T T ( S S ( T T T S [ T ( T [ T T I T T @.S T m m S T l [ T T { T S S B S T T S T T I T T T T { Y.Y.e.T %.T [ I T T { [ ( { @.%.[ { { T I S ( { T I m I ;.S %.I T ( T T T I S m { m m T T S [ I S ( T T T m { %.{ m { {  .( [ { T Y.Y.e.e.@.T ( T ( @.[ I S { T T ( l I ( T ( I T I [ T T T m T S ",
"{ l ( S S T ( T S T @.I (  .T T :.T ( S T T ( [ S [ %.T I S.J.J.c T [ I I %.S m [ [ I S m T { T c m I ( T [ :.T S %.:.@.( T T I ( T T ( T ( T I m S I I I T I S T { S ( I I [ T I S T T  . .Y.I.J.T ( T [ ( [ I I T [ ( ( S T [ T l T S T I  .( I S [ ( :.S I T S T ( T c m S T m [ T %.T ( T S T T %.T T @.{ T T m :.[ S @.%.Y.J.-.T T %.[ @. .[ @.T [ T %.( ( [ T S S T T ( ( T I ( ( %.S { S [ p S I T S m B I T T T [ 6 T I S  .T S ( T T T %.{ [ T I [ I %.Y.J.x.I @.(  .I ( T T [ ( T T I T T ( T T T [ [ ( m ( { T [ T I ",
"P ( T T P T %.T S [ T T I @.T S [ T [ I T S T T S @.( ( %.N.J.Y.S S ( [ S T m T S T l T m ( ( %.p m I %.I { l T I I S T ( S T T T :.S T S I S T T T I ( S T m [ S [ S S %.T S { T T ( I S %.Y.Y.N.I [ T T I T T T ( T [ S T S S S m S T S ( I I I ( S T I T I p T ( [ T T T S ~ S T m T c [ c m [ T T [ @.T S T T S T ( T S :.[.Y.:.[ [ T [ [ ( T T [ @.[ @.T [ T I S S T [ T [ T @.T T I  .T ( S T c S S T S T m T I S u T S m @.[ T ( I T S ( [ [ [ T { T { T Y.Y.e.:.T S ( { S [ m  .m T I %.T m S T S ( { m I T T %.S I I I ",
"( S m { ( P T m S T T T ( T T [ I T %.I ( I T S ( ( ( ( k.J.J.J.S T { m I S T m S l ( T T [ T S ( T l S ( S T S [ S [ [ ( ( S { @.[ [ B [ S T I S I [ T S S [ [ ( p I T I T T T ( T T S S #.[.Y.J.S %.T [ T T [ [ I T I I ( I I [ T T S ( I [ T I T T %.@.S S T T S T S T S m p T S S [ T T S ~ :.S S T [ { [ T T T T ( T T :.Y.Y.:.@.%.[ #.( T [ ( [ T S ( -.T T T S T T T {  .[ I T I I ( T l S T u [ T T [ m p S T u T l [ T -.T I I m T [ T ( S  .T  .T ( %.J.I.l.T T T  .T ( T [ I @.T @.T I ( I T I T [ %.m S I [ S ( T ( ",
"T T T ( P ( [ T S T T @.T ( T T S I I I T [ S S T { T T [ J.J.J.I S T S S T T T T [ I T S :.T S T S p u l S l S T {  .S T :.l :.T [ S T T T B S I T B T m m T T l T I T [ T S I T [ g T S S J.J.N.[ T S T ( [ T I  .T S T  .T T T m S ( T I ( @.I ( S T { T [ @.%. .m T T S T T T T S [ ( T S T T T ( ( T [ T S T @.T T S S  .Y.E.S.%.{ T [ %. .T T [ [ [ @.{ T T I m l { [ T %.m @.[ [ S [ I T T I m m T %.S S S [ S T T T m ( e.T T B T { l [ m { I I T ( m I N.Y.9.:.[ I I @.[ { [ { S I S ( I l S S @.[ %.( S [ T T S S T T ",
"@.T T P ( { S T T S I T S I T I ( S [ [ T S T m I T S %.%.N.J.N.I l T S I m @.S %.( [ T [ m I T T T B [ [ m S m I p S I S T [ 6 ( T T T @.T T I S l I ( [ I T [ l  .( T T T [ T [ T T S I { |.Y.J.T T { { I %.T { T T  .@.S T m I S [ [ S I S S m S T T m T T ( T T T S T S S T T p T [ S T ( S T S [ T [ T ~ T T ( [ T { T @.Y.[.:.#.~  .@.[ T :.S ( [  .%.T T ( T @.S T [ T I  .S T ( S l T ( ( [ T T T { m I S p c T T ( T @.[ I T [ T ( @.T I [ T [ T T T  .Y.J.e.I @.I ( I T S [ { [ T ( m S T S  . .T I m T T I S T S S T ",
"T P T T P I S l S ( p  .@.m [ T [ T [ T S ( S S T [ m T T :.J.J.S T S T [ T { T ( S T ( T T m S S T c S B ( S T l S I T T I S I T I T S S T m S I S S T S I I S T I I T ( I I T T [ T S S T Y.Y.N.I [ [ I T ( ( S @.( @.S ( ( S p T I T m [ T T S m c T S ~ ~ [ S ( ~ m S T T T T T S T S [ T T S { T [ T T T T T T T S m ~ ~ Y.J.e.T [ ( T [ [ ~ T S ( [ [ ( T T S T ( T T ( I l p I S S S I I  .( I  .S S c I I [ S -.T T [ { S [  .[ I T S T I [ { @.S m T %.J.J.:.I ( T { T S m S ( I I T { T l T I V ( S I S T T T S T c S ",
"P T ( T S S S S S T T I T S [ T ( T T ( [ S g T T { [ [ %.J.Y.J.T m ( T [ ( S S ( T T T [ T T I I S T S T m  .T T T T T S S @.( S S ( S T T T T T [ T T T ( [ S  .S  .I [ T c T ( T [ T S T [.Y.J.S [ ( [ T [ T  . .T T ( I I I [ S ( [ S V S l S S T T T S S [ [ S ~ } S S [ S [ S T T S T T S :.T  .[ %.T { T T [ %.} S m  .Y.Y.e.:.[ @.{ { T { T %.T ( T ( S :.( %.c [ m T m T T T S S T T @. .[  .{ ( S %.S { [ :.T T ( ( ( :.I T [ [ I [ S { ( @.I ( I ( [ [.Y.e. .[ @. .I T T { I S I T S S T [ S [ T I T { l T S S T T T ",
"P P S { S m T ( T ( m ( I T I @.T m T ( I S S T T T ( T T J.J.J.{ S T m S T m T T T S T T ( S S T S m m T S T I S [ T l { [  .[ u [ I m T m I I T [ S T T T T S { %.( T T S T [ T  .S T m :.Y.Y.J.I T T  . .m I I { S [ @.[ m { [ T S l [ S m S T S T S T :.S S T T S T T { m T T { T S T ( [ ( [ S :.S %.T T T ( [ ( T S m :.Y.Y.e.@.@.T [ :.T T [ T { m  .[ { T T T T @.[ T S [ T S  .;.( T T I [ @.m I [ T T %.( ( T S  .{ ( [ ( %.( [ [ T S S T [ ( T { T ( Y.Y.e.:.%.S T T T ( I T S T I I S S I I ( { T T T [ m S T S I [ ",
"T T S S I S I I T T [ ( @.T ( T T [ ( ( @.[ ( T T (  .{ { J.J.J.I B T T [ T @.T T S ( S S T [ I T T I [ [ T T T @.S [ T T T T [ [ [ T T T S [ ( T T S T T T g [ [ S T m T I I T {  .T m :.I Y.J.I.T T [ (  .( { T T ( T S I ( I m T ( S T S  .S ( g T T ( T T T T T T T T T [ S @.[ m ~ [ T [ T T T T S S T [ T [ T %.T S S @.Y.Y.:.[ [ [ %.:. .( { @.[ T T T T S [ [ T T T [ T B T [ ( [ { ( T  .{ I { -.T [ @.T [ [ T [ ( ( B [ ( :.m ( S I S S [ I [ T ( S  .|.Y.-.S {  .I T T { ( T T ( S I I @.T m @.{ ( S T S S I T ( { ( ",
"T T m S T T I S T S I ( T ( T S S { T { S I [ { T [ T  .S J.J.J.I I T m T { T T { I S S S [ S I S T S T S T T T S [ S T T @.T T ( T I T B T T %.S [ S I T S m S T S [ [ I T ( ( [ { T T m { Y.J.S.T T I I { T ~ m ( I T S T I I m m [ T T B [ T S [ T T m ( S S m T T  .S S T T ( { S T B { B S T T T x.S T T T ~  .T T S S  .J.J.:.[ T { { @.[ ( T { { [ [ T { c T T  .T T T [ S S S [ S T [ ( I S T [ I I T [ ( ( ( [ S ( I T T T T [ T ( I [ S m I [ S ( T { J.Y.e.{ S @.( I T S T T S T S S m ( S S [ T T  .S l S I m T T I ",
"T S  .T m T T S S [ { %.@.S @.I [ -.[ I T T :.( T %.T T :.S.Y.S.T S S T T T T m I I S c [ } T S m I T ( [ m m [ %.( T T T T T I p [ @.[ ( l @.V S ( [ ( ( I [  .T @.-.I I @.S T ( { { ( %.%.Y.J.J.( ( [ { { { T T T T  .T S { S T %.:.T T T T S [ ( T S T S T @.[ T [ @.( T ( T T T [ @.T T T [ %.[ :.:.:.c T  .T [ T %.T T  .J.[.k. .{ :.@.:.S [ { :. .:.[ [ T {  .:.:.:.[ T S T T ( T ( (  .( :.( @.( :.T T [ T  .T %.S  . .S T I :.%.@.[  .I {  .T I T ( %.:.Y.Y.N.e.:. . .{ l T { [ T T @.[ T m S [ S S m S [ I S m { ( ( T ",
"S I [ T T S S S m [ I ( S { ( ( T [ -.( I T I [ T [ T [ T H.I.I.T T T S S { I [ T I T I T T T I T T T S  .T I { T S S [ T ( T T [ T { I T S I m I T T { I [ T T ( T [ T m c T S T T { { I T J.Y.J.[ I T S T S T S :.T T T { B ( T T T T c ( B T T m T T [ T S [ T [ T S T ( S T S T T [ S [ m [  .[ T @.T T ~ S T  .T T T T T J.Y.:.@.[ [ [ T [ T  .[ :.@. .[ %.T ( T T { S l ~ { %.S m S T [ [ m [ S T S ( m ( [ -. .@.T T [ [ T %.[ {  .T %.T T -.I I S ( S { S.S.:.%.%.{ { {  .{ T I S [ T T  .[ T @.T S S T l [ T T S ( T m ",
"T T T T ( [ S ( T [ [ [ { T T T  .I T S T T T  .( T [ T T l.Y.S.S S T T @.T T T I T S T [ I T T %.T S ( T T ( S [ ( [ S [ T S T %.[ { T T I S I T T m { {  .[ S [ T S T T m T S I ( ( T T c J.J.J.I S T T [ T m @. .T ~  .@.T T [ S S S T S ( S T T T S %.[ T S %.{ [ [ T T [ T ( T  .m [ [ { [ T T ( T [ [ T S T @.T S [ m T Y.J.:.[ {  .%.%.#.:.:.:.@.:. .:.[ {  .{ T T T  .T :.T [ { [ ( [ ( @.:.%.S T @.:.S  .@.%.T ( [ [ %.@.I :.m @.S :.T [ ( T T [ I I l J.N.-.[  .{ %.S :. .( I [  .{ T { T T c ( T T T  .T { T S T ( { ",
"T ( %.S  .:.m :. .@.%.T e.-.S :.S @.T T { ( S :.I T S c k.Y.Y.Y.S T l [ m :.[ ( T -.S T [ @.p T @.;.T S  .B T @.@.;.S S %.%.I { p k.S %.[ l -.T #. .T S -.( I m (  .S T [ { T T T ( T S v J.Y.[.J.m S %.[ ( T T :.e. .{  .:.:.~ S S p { e.e.c x.%.:.T  .B e.:. .m [ %.e.:.:.@.:.T { c e.@.e. .@.m :.S m  .( S (  .( :.V m m J.Y.|.k.u @.:.:.S k.:.k.:.{ ( x.%.:.c %.%.( %.:.f { :.k.T :.m e.{ ( :.:.T :.e.e.S @.e.S ( @.T e.[ -.[ m T %.%.;. .:.%.c %.@.@.[ l N.Y.[.k.6 ( @.[ @. .%.@.T :.:.m :.S [ m  .T :.S { :.( ( T I :.:.T ",
"l p m l m c m S m m c l f l l m m c l l m S S S I [ T I N.N.J.J.J.[ %.I { S [ T T S l m m c S S m m m m S m S T m m g m m V S B S m T m S m S m m c m m m m T B B m S m m S S T S T ( [ S.I.J.J.J.k.} [ T [ T T S m S m m m S c m S S S m m S v S l m S S m m l S m S c v S S m S m S m m m T m S S S S V c T S S m T T T e.J.Y.J.k.#.T @.[ S B ~ ~ T m T m c c S v m m T c T c S g c p c g l c l m S m V c m V m c S c v c l p m m S m m S S S S T I { T T x.J.J.J.J.[ T T  .m T S l m c V l l l l l l c l m p c l m p m p l c ",
"N.Y.N.J.S.J.J.J.J.J.N.N.J.J.S.J.J.Y.J.J.S.Y.S.J.Y.[.J.Y.Y.Y.Y.|.J.Y.Y.Y.Y.Y.Y.Y.Y.Y.J.Y.Y.Y.Y.J.J.Y.J.Y.J.Y.Y.Y.Y.[.J.|.Y.Y.J.J.Y.Y.Y.[.Y.[.|.Y.Y.Y.Y.Y.J.).Y.Y.Y.Y.J.Y.J.Y.J.J.Y.Y.Y.).Y.[.Y.[.Y.Y.J.|.Y.Y.Y.[.Y.|.Y.Y.E.[.J.E.Y.Y.Y.Y.Y.Y.E.Y.Y.[.Y.Y.Y.).Y.Y.Y.).Y.).E.[.).[.Y.Y.Y.[.Y.[.Y.Y.E.E.Y.Y.J.Y.J.Y.E.[.Y.[.Y.[.|.).[.).Y..XY..XY.Y.E.Y.Y.).Y..XY.Y.E.Y.Y.J.Y.J.[.E.E.|.J.[.Y.Y.J.Y.[.).Y.).).[.[.Y.Y.Y.Y.Y.U.).J.Y.Y.Y.J.Y.J.Y.J.N.Y.J.Y.Y.Y.[.Y.|.Y.).Y.Y.J.Y.Y.Y.Y.Y.Y.Y.I.J.S.J.N.N.S.N.J.S.J.J.N.J.N.N.S.S.J.Y.",
"N.N.J.J.J.J.N.J.J.J.N.N.J.Y.Y.J.).J.J.J.Y.J.Y.Y.|.Y.[.Y.|.Y.Y.[.Y.Y._.|.).Y.[.Y.Y.Y.Y.Y.U.Y.Y.J.Y.J.Y.Y.|.Y.).Y.[.Y.[.).).N.J.S.Y.J.).)..XY.).|.[.|.Y.Y.[.Y.[.Y.).Y.[.E.|.E.Y.Y.).[.|.Y.).`..X)..XY..X)..X[.).Y.`.).Y.Y.Y.Y.Y.|.[.Y.|.Y.[.).Y.Y.|.Y.).Y.[.).Y.J.Y.Y.[.).[.Y.Y.Y.).Y.Y.[.).[.Y.Y.[.[.[.Y.[.Y.Y.Y.[.[.Y.Y.[.).|.[..X[.[.Y..X)..XY.|.[..XY.[.Y.[.Y.[.Y.Y.Y.[.).E.Y.[.Y.).Y.[.Y.[.Y.Y.Y.|.|.[.).Y.Y.[.Y.Y.Y.E.U.Y.Y.[.Y.Y.Y.[.Y.Y.Y.Y.Y.Y.Y.|.[.).).|.|.|.Y.[.[.|.Y.).Y.Y.Y.[.Y.Y.Y.Y.N.J.N.Y.I.S.N.Y.S.N.k.S.S.N.N.",
"J.Y.Y.!.Y.).).Y.Y.).Y.).).).Y.Y.[.).).).Y.[.[.[.[.[.|..X[.`.[.[.[.|.[..X[. X.X|.Y.|..X X).|.).|.[.[.[._.|..X).@X.X.X[..XY.Y.N.J.N.[..X$X X.X X@X.X.X.X@X.X@X.X`.|.`..X.X.X.X`..X.X$X.X@X@XOX.X.X`.%X$X.X.X`..X.X`.%X%X%X.X.X`.@X.X%X.X.X.X%X`..X)..X.X`.[.).Y.I.J.Y..X%X.X.X`..X).)..X`.|..X.X`.|..X`..X)..X.X.X`..X.X%X.X%X.X%XOX%X@X@X%X$X@X@X.X.X`.%X|.@X.X.X.X@X.X%X.X`..X|.|.`.`..X[..XY.J.J.J.Y.`..XOXOX%X.X@X`.@X)..X.X@X.X$X X X.X.X.X X.X.X|..XY..XY..X|..X.X.X.X.X.X.X[..X.X.X[.[.Y.[.Y.Y.|.Y.Y.|.).).Y.Y.Y.[.Y.Y.Y.Y.",
"N.-.T T [ S I T T m S T T T [ I %.{ T  .%.S :.@.:.( [  .;.T (  .{ I ;. . .T [  .%.( %.[  .{ ( { T [ @. .@.T -.S %.#.T { :.J.Y.J.J.[ T S T [ [ S S T I T ( T ( %.T [ @.[ ( T ( T %.%.@.@.:.@.[ ( [ T :.%. .[ T S S T T T [ (  .T T [ { { S { [ T ( [ T S T { J.Y.Y.:.:.T @.[ :.[ [ [ S %.{ [ %.%.@.( %.T [ [ T { { { S %.S [ T T S T %.( %.:.:.( T %. .S T %.T ( T [ ( S [ T ( [ T (  .T ~ ~ %.E.|.Y.:.B [ T :.:.T { T T T T S { T ( { [ [ I T ( { T T ( { [ @.I  .[ @.{ I @. .T :.(  .[ T [ @.{ -.( [ { @.[ I I T I ( [ T I 5.N.",
"N.e.I ( [ [ T T S S ( T I I [ I ( %.[ I T @.%.:.%. .T ( m  .%.{ T {  . .( S ( %.{ %.:.:.( I  .[ ( { S %.[ @.:.-.T ( ( ;.:.( N.J.k.T T T T T  .S S S I [ S T T [ :.[ T T {  . .%. .:.(  .T [ ( :.[ ( T  .S @.[ :.T { } %.S T T [ T T T [ [ T T  .S S ( ( ( T k.J.J.:.@.:.#.:.#.:.[ T  .:.#.( ( ( [ ( [ [ T { { [ T %.T T T T T T T ( ( T { %.( e.[ T T [ ( %.T ( { T S  .{ T [ %.T T T @.( S { J.J.Y.%.( T {  .:.%.%.[ :.%.T  .T N T T T T T  .[ I T I %.[ I [ T S S T T T T T I S [ I @.( [ T (  .( @.I [ T T T T I I @.[ [ e.N.",
"N.{ T I S [ T l m T I S [ l  .S T T [ I T T ;.( ;.{ T ( T T ( T { S I ( T I %.( ( I @.{  .T  .T %.S ( { [ [ T T @.( %.-.:.:.k.k.J.I T T T T [ l S S I T [ S [ T T T { ( [ T  .{  .S @.T :.{ @.{ m [ :.T [ T S S [ T { ( T S  .S [ S T T { S  .( T T T T T T e.Y.Y.%.%.[ %. .( ( { T @.T [ %.:.T @.T  .T %.S ( T [ S @.T T T T [ T [ { T [ [ {  .( T [ T T T [ T T [ ( T T S ( T  .T [ T S [ [ J.Y.H.%.( (  .:.%.%.( @. .@.S @.%.} ( T  .T S T { T [ [ T T I ( S l S { T %.I I T ( [ { [ T T I T -.V :.[ S m c B T S [ m [ T [ N.",
"k.;.T S T T I I S c m T l  .S S T T S S T T I @.S { S T ( [ ( T [ { [ c [ @.( %.T %.T I %.[ [ [ T [ T S T ( ( ( { @.[ ( I :.I.J.k.T T [ T [ [ T S  .m S T T T T T ( S T T %.( ( T %.[ [ [ :. .T T  .T T T %.T ( T T T [ T T T T T [ [ T S m T T T S T T S ~ ~ Y.J.{ @.[ @.:.%.%.[  .T T T %.[ [ S T T T [ T S [  .( T [ T T [ ( T %.@.[ ( @.[ T T ( T T S T T T S { T ( S S T [ { T [ [ T [ T Y.J.I.T f ( [ %.[ ( { T { @.@. .T T [ T T T S S  .S [ I S T { T ( l %.S { I ( T S S T T [ T T [ S T -.( T V S m T S m T I S T ;.N.",
"Y.k.[ @.[ [ [ T T m S S T I { T [ S S S [ T S S { S T T ( { { T [ S { %.I T T T ( I ( %.T [ ( [ ( S T [ [ [ S ( [ %. .[ #.S.Y.k.S.T T T [ T I { [ [ T S ( { [ { S S ( S [ ~ T T T T T [ :. .[ T [ T ( T [ T S [ T T ( T @.T T [ %.S { T [ S T S T [ %.T ~ T S.J.I.e.:.@.:.@.%. .%.( %.{ :.@.(  .%.T @.[ [  .%.[ ( T ( T %.{ @.%.%.T  .T T T ( [ [ %.T T [ ( ( [ [ T T S [ m ( T T ( [ { T { ( Y.Y.J.:.%. .m :.@.@.%.%.( S (  .( S { T T [ T S T T S  .T I :.{ T S S ( ;.S T ( { [ [ S T T [ [ [ @.T ( %.T m S S T T @.( %.T N.J.",
"Y.e.S %.S S T m I T S m m T T S T S S  .T [ I ( ( T T T T ( T S I S T { ( T { T T [ S ( ( I [ ( %.[ I [ T S I I T %.I T [ k.J.J.k.T S S :.@.S { T %.T ~ T T T T ( { [ [ ~ ( :.T S [ [ :.{ ( T T S  .T T ( [ T S T S T T m [ T @.T T S T ~  .T T T T T T ( { e.Y.[.S.:.:.%.:.:.:.T :.T @.T  .T ( { %.( @.T %.%.[ S :.T { [ @.T T T  .~ :.{ [ %.[ T %.{ { S %.S :.S [ [ ( ( T T S { T T [ T T T [.J.U.:. .:.[ ( T  .%.T T T [ T T :.( T { u ( m [ ( T T T S B T m l T T :.S ( ( I T T ( S I S T  .l ( T T S T l S S [ m S @.T :.Y.",
"Y.T S l ( [ T T I S T m [ S S S T T S S { I T I ( T T T I I m T ( T ( [ @.( %.T [ [ ( ( @.( [ T  .T I [ %.[ %.T [ (  .[ { ( I.k.N.m { [ T I [ S { [ S T [ [ T T ( B [ T T [ [ T ( T { [ T  . .S [ { T S [ S T S T S T [ S T [ ~ %.T T m T T ( ( T [ T [ S ( :.Y.Y.:.( @.:.T :. .%.[ { { %.( { T  .( :.T :.T ( T %. .[ T  .T [ T :.[ @.:.[ T %.S T %.T ( [ T { S S T %.T [ { [ { @.S T T T ( S Y.E.U.%.S { {  .%.%.@.( T %.~ T T [ T T [ [ m %.m T T { T T ( I S B m S S @.[ T l I T [ ( { I ( :.[ T ( I S I T [ [ S ( T m S I J.",
"N.e.T I ( ( T T m T m l T S m T T { T [ S I c T I T I I S I S I m I T S ( I T [ S T T ( T  .T ( T @.T I { T { ( T  .{ ( T e.J.J.x.T S T T S S T T m ( m S T T T T [ T T T ( S T ( T T ( ~  .T ( ~ ~ S T T T T ( S p S T S T T S S T [ m V { T [ S T T ( T T :.S.I.:.T ( T [ T ( T :.[ ( S S [ S ( T  .T T T T { m [ { { T [ T [ c @.T :.( @.T  .T { T S S m T T m { T { ~ :.(  .[ [ T T S S S J.Y.E.:.(  .T :.{ T T @.( ( @.T T l [ [  .{ T T ~ ( T T  .m m S S S T T T { S S S m I S T I ( ( @.( { T T m I m I I [ [ ( S T e.J.",
"Y.e.T [ T [ @.T m I T T I S I [ -.( ( S T ( T S %.T S I S S T T [ T  .I %.I S ( T S T T ( { 5.@.T T { I S T p T [ %.@.:.%.:.|.J.S.( [ S { T S c ( T [ ( T T [ T [ ( [ T [ T T T { T [ %.{ :.( T [ c %.[ [ T { T T V [ T T S [ S { T S ( T S l T ( m  .%. .m [ Y.Y.(  .[ { ( @.{  .B :.( @.S T :.%.( { %.@.[ S T %.( { T @.[ [ T T T [  .~ [ :.%.T T c ( ( S T m T T [ S %.[ T T @.T [ [ [ T m Y.Y.Y.T [ ~ ~ ~ ( %.S @.%.:.T @.{ T T T e.[ V T T S T [ T T S m T T T (  .T m %.S T T m I l T S T ( S I [ I I { S T ( [ I ( S e.Y.",
"N.:.I T  .%.T S I m S ( T S I S m T B @.T T S l T [ S T T T I T T T T S T  .T { ( ( I I [ [ [ T S I S T ( T T ( T %.T [ T :.Y.J.J.[ T S S [ T B m S m S S T T T ~ T S T T T T T [ [ S @.T [ m [ c T [ T [ T T [ S m S [ T T T [ S m T m S T S [ S T [ ( T ~ e.Y.U.e.#.#.S #.T [ T [ S S [ @.S S %.{ [ %.{ T [ S %.T T [ [ T [ T { ( [ { @.:.[ ( T T S T [ T T T ( T T T T S [ T T [ T [ T @.T Y.J.Y.:. .T T T m @.[ S S T g c S T @.T T m T ~ ( T T S S S S S S m V T I  .-.S ( S %. .[ [ T ( @. .%.B ( T T S T T T { @.S T :.S.",
"Y.T -.S @.( I I T I T T T T m S T S -.[  .T S S T S S S { T T S S T ( T ( T I T [ { [ I T T S T T T ( (  .{ ( T  .:.[ T { :.Y.J.S.T T S ( T @.T S S m T [ (  .T ~ T T T T [ ( [ S [ [ [  .T T T  .[ [ T S T T T S [ ~ } S T T T T S T T ( [ @.T S T ( ~ { [ e.Y.Y.4.%.S [ @.:.[ {  .{ T { ( T B ~ [ T T T T [ T { T { { T [ S m m :.@. .{ ~ :.m T { T [ T T T T [ T T T T ( @. .( T ( [ T [ [ Y.Y.J.T { :.m @.[ T [ ( [ T T T T T %. .[ T :.~ T ( %.T p T m m m I T { S { I T I I T T I [ T -.T T T -. .{ T T S [ T %.[ I @.T J.",
"-.;.T T T ( { S m S %.[ T I S ( l [ [ S  .S S S T I S S T %.T I [ T T [ I [ S [ I ;.T [ T @.I I S T T { S :.%.S @.:.@.:.%.:.Y.[.S.S T T  .T  .T T T S T S T T T T [ T ( T T { T S [ T [ T ( S S S T  .%. .~ m ( S T T m m N T c @.T [ S %.T @.@.%.%.~ { S T e.J.J.:. .{ T  .:.[ S T T :.%. .T @.T %. .{ u T B [ T %.T  .S T { T m T { [ [ :.T T c [ [ S m S ~ c m T T [ T T T [ S T ( T T @.T [.Y.Y.:.(  .T m  .( m T @.T m T T [ ( [ T T %.c S {  .c T c c m ( g S S I I %.S T m I m T S  .m T S [ T -.T S l [ S ( { [ I [ -.5.",
"N.:.%.:.S T [ S S I m T T T %.( [ T -.T ( I { ( T S T T S S m S { ( @.I [ S  .%.( T S ( %.T %.{ T  .[ I [ [ [ %.:.T %.( :.e.).Y.S.S T T %.T ~ T S T T ( T S T { { T ( T { [ m T T  .( T T T [  .T T :.T T S T m c T T S T T T ( :.@.[ [ [ ( T T ~ T [ T [ S k.J.J.( T ( #. .T :.%.T T { [ T %.( S :.@.T %.@.( T [ m T T [ T T T T S ( [ @.T :.T S T S T T S ~ S } } [ T { T ( [ T S { ( S T { ).[.Y.:.T ( { T [ T T T T @.T { T c %. . .T m ( S T [  .S S S T m T S m S @.S :.T T I [ T T T [  .%.S [ S I S T T T ( [ m ;.%.:.N.",
"Y.[ T %.T ( S I S T m ( ( T m T I T S ( T S { { I { I I T I [ I T { T [ [ ( m S T %.I T  .T { [ (  .[ [ [ @.{ [ { :.~ ( { k.Y.Y.S.S S [ T %.T { S :.( S T T ~ T T m S T T T T ( S %.T ( { { T S m %.T T m [ [ S T T m %.S S T u S [ c T S @.S  .~ T T :.T :.e.Y.J.%.f @.S @. .( @. .T { T :.@.{ T  .( @.T ( T T S S ( T S m ~ ( T S  .[ @.T T T T [ T B T S ( S [ T S T S T { T [ [ T T T { T [.Y.[.{  .[ :.T  .m  .[ } [ [ S T [ T  .[ [ m S T S T S S m m c T ( T T I I ( [ I S T I T B %.S T T [ l T S p S T T T [ [ [ T I Y.",
"[.e.I S I T  .T S T T [ I S m S [ T T T S T T T T T T [ ( S ( I T [ T  .[ T @.S T ( ( I ( { [ [ { T %.@.[ ( :.T :.:.{ T :. .Y.J.J.T [ { m T (  .T S T { T T T S T m [ S T T [ [ T ( [ :.( T ( T T T T T m T m S p T T [ T S S T ( T m T [ [ [ T [ { ( :.T T :.J.J. . .( @.( T [ T ( ( ~ ( %.S { %.T %.[ :.S  .T [ T ( T T T [ ~ [ T T { [ T ( T c T T [ T T T m %.S } T ( T @.[ { T %.[ [ m { Y.I.Y.:.T @.@.[ { %.m ( S T T T T @.m T ( ( T S S ( T V T m l T S T m T S (  .I T T S T S T T I S T m T S ( S T { { ( I T I I e.).",
"Y.[ S T T S I ( S { m S S T m T ( { I I T S @.S T S T [ S T [ %.{ T [ ( m  .S T T %.T %.T  .[ @.[  . .:.( %.T  .T ( S [ %.( J.Y.S.%.g [ S T T T T [ T %.T T S m S T T  .V T ( S S S T T S T T m c T @.B  .S S T c T S S B c V T T S m [ @.( T T { T T T m [ :.S.J.:.:.T T [ ( %. .:.[ e.[ #.{ %.( :.[ [ S  .T { [ c T T T S { S T T ~ { { T [ %.( :.S [ T S S S T T T [ T :.T @. . .T T T [ S Y.E.[.x.#.T { T [ m S S T T T m :.( T { S T N S m S [ T S S S S c m B T l T [ S [ T T l S  .( S S S S [ T B T S m T [ S ( T I T Y.",
"Y.e.[ [ S T I S T S S T l I S m T m [ S [ T m T ( S I S I T { ( @.[ S [ [ ( [ T [ T :.[ [ { [  .[ T [ #.{ { S T T %.@.T #.H.Y.J.J.S @.S [ S ( T T m T T S ( [ ~ c T T T ( T T [ T @.[ [ ~ { T T [ T T S  .S c g T ( T [ S p ~ B T T T S T T T T ( { [ { T S e.Y.Y.e.%.( { ( ( T [ @.T ( [ @.{ :.{ [ :.T :.S #.T T T %.( T T ( { ( T { T  .[  .T T T ( [ T ~ { S @.( ( { [ { [ T T (  .S T T T ).Y.Y.:.( :.T ( T T [ ( m T T { ( T T T T %.S T S T T T B S S T [ T S T ( ( T I T T m T I [ l T S S T T -.( S [ ( S S T S  .I k.Y.",
"Y.( S T I { S m T @.S T S S m l I S S S T T S [ T T I I ( [ T { @. .{ ( { @.@.I T @.T :.@.S [ T %.T (  .[ { { T T [ [  .[ e.I.I.k.T T S S [ :.m T ( ~ ( T ( T ( m T m T T S S T T  .{ %.[ S T T T T T [ T m S S T T T T T T S T T [ T T T T T c ~ @.~ T T T :.Y.S.J.{ #.m :.:.%.( T @. .( T { T T :.[ [ [ %.T { ( T T ( T  .{ c [ S T [ { ( T { T  .T S [ T S [ T T T %.@.m [ T T [ T T T T ~ Y.J.[.x.S [ @.{ { T :.~ { [ [ T T T T T T S S S T [ T S S T T T ( S S m T { T T S S [ S S m T l T I I S { I T l [ S I T T T T [ [.",
"Y.[ [ m ( I T ( T S T T [ l I S T S T m [ I T m ( T T T [ S { T {  . .S { [  .T %.T T ( [ [ :. . .(  .{ [ T [ T { T [  .( :.J.I.S.T S [  .[ [ ( S T T ( ( T T S ( T [ T S S T c T T ( T ( { T [  .m T T [ T S T S l T S T S T S ( T [ ~ T { { T S [ T S T @.:.Y.Y.:.#.~ %.~ :.( T T { T { %.:.[ %.T %.{ [ [ ( T [ ( [ [ @.T [ ( { T T [ T [  .m T T ( { T T T S S ~ [ T ( S :.T %.T ( S S ~ S E.|.Y.@.T [ ( S T T ( T { @. . .[ { T T c [ c m S [ m T m [ T T T [ m T T T T [ m l { I T [ p T T ( S I T T m T T @.I I T S I @.J.",
"J.k.m [ S [ S m m S g S T I T I S I S T I T m l I I T m T [ [ T I [ T %.T ( ( @.( T ~ ( @.T  .( T T @.( T [ ( T T [ T { S :.Y.I.S.T T S T %.:.( S [ S S S ( T T m T [ [ m T { T c g B T ~ { [ T V T S [ S T B T T [ T m S T S ( S [ ( S S T S ( S [ T T T { :.Y.J.T @. .( #.( { T T [ T T [ T  .[ { T  .T :.T %.T S [ %.T ( { ~ [ %.T T T [ T ( S T S m T T T T S @.@.{ ( T T [ [ T S ( S [ m [.J.Y.T ( [ ( [ T S T S c [ %.T @.( ( T { ~ T  .{ S m V T T T S [ T l m T S T m c S m S S S [ I [ ( T S S S l T I T S T S { S k.Y.",
"_.k.I I  .S [ T T T S  .T S T T  .S [ T ( S  .[ T T I T [ T m S ( ( @. .%.I  .{ [ S [ ( @.( :.:. .{ %.:.:.@.%.( @.( [ T  .:.).Y.I.T ( ( ( ( S T T T [ T i.S S T %.S T S S m ( c m m T T %.S T T [ T T T T T T ( { T ( m T T T T S S T T @.T %.T T S T T T T x.Y.J.x.:.%.#.T S { { { @.( @.:.@. .@.{  .T  .@. .[ T (  .[ { T T ~ [ T T @.T T T T { T T S T T [ ( m @.( T @.[ [ ( T T  .%.T  .( [.[.J.e.#.{ [ T S ( c { T [ T [ %.S @.T ( } T T m [ m ( T T S ( { T S T S T S T B T S T T T -.{  .I T [ T T m { S T [ T [ I I N.).",
"Y.[ [ T [ T T T T [ S T [ ( T [ S S T g T T S T S m S  .[ [ S [ T { [ m { { [ %.%.%.[ %.{ @.@.:. .( @.[ T  .{ { %.%.[  .T S Y.J.E.[ T S T ( T [ S S T S S { ~ T ( [ T m [ T S l S T T S S  .S T { T T T T [ T T S T T S m T [ S T T [ S @.S [ T T [ S ( S N @.[.Y.e.:.@.T :.( %. .:.( T :.#.[  .S :.( :.%. .T [ T %.%.%.( { T T [ T T m %.T { m S T { [ ( m { ( ( [ T T [ e.S T T ( [ T ( T [ ).).`.[ :.T T l { T [ { [ [  .[ [ T S S T S T S T T T T S ~ T S T S } S S S S S S S u S T T S %.{ [ l T S T T [  .S [ T ( T %.( ).",
"!.( S T ( I S T [ m T T l T I T [ T { ( [ T [ S T S { S ( S ( T ( [ -. .%.{ {  .T [  .%.:.T @.{ {  .T T  .( :.%.T  .[ S :.:.[.Y.Y.T ( S ( T  .m T S T S  .S T ( ( S T T { T T S T T T m T T T [ T T T S T T T S [ [ [ T S S S T T T m ( T T { T [ p T T ~ [ e.[.Y.:. .{ (  .:.[ @. .T T @.( :.%.T :.:.T  .( :.T ( ( %. .%.S T %.T T @.{ T m T m T ( S { ( ( [ T [ T S T [ T T ( ( T S S ( T @.).[.Y.( @.[ (  .[ { [ S [ T ( [ [ T T :.S T S [ T T [ T c [ T T l S S S S [ T T m T T m S T S ( [ T B m B %.S ( T ( S { T T m  .Y.",
"N.k.S ( I [ m S S T S T T [ S T S T T [ T T I ( T ( T [ ( [ T S [ %.(  .{ ( [ @.T  .[ T  .( ( %. .:.%.[ :.%.[ T [ @.S @.S %.Y.J.Y.( S ( T T { T m S S T m T T T T T T T ~ ~ [ T m T S T S T S  .( T T T [ T T T T S T [ S T T m c T [ T S T @.T T T ( T T T e.Y.E.%.T :.:.{  .S T ( %.[ %. .#.{ T T ( @.%.%.( ( T S %. .@.%.T  . .T ( ~ T T m T T T T T S  .T [ p [ T %.T %.T [ T  .T [ T S T [.Y.Y.T T S [ ~ T S S ( T T ( S T T { T ( T [ S T S [ S T S T S S B T S S T ( T T g ( S T T T T ( S I S T T { B S S S ( T I T e.S.",
"N.I l T ( T ( T I S S S S S T T ( -.( %.{ :.[ T I m [ { ( [ ( { %.( T ;.@.[ %.S [ @.@. . .%.:.@.m :.:.:.@. .[  .:.%.@.%. .#.E.x.J.S [ T T T [ m T T S [ @.T %.T S T T T } S ( S T S T T } S (  .T [ :.( ( T S T ( ( ( ( ( T %.{ [ T S T [ S T [ T S S T T [ %.J.E.N :.( ( %.:.[ V :.%.:.T @.:.:.:.T %.T T T x.T [ T { %. .( %.T %. .T :.[ T S T S T [ ( :.S (  .[ [ ( T @.T ] T S [ T S T [ ~ Y.Y.Y.:.@.T m ( { [ T T S [ T  .@.@.m T @.:.S T T T [ %.T T T ( c S u T T T m S S T T I T T  .T ( [ T I T ( [ S I [ T ( T T p [ S.",
"J.m T T T ( S I S m S I S I T S [ [ ( S ( S { %.T T {  .I T { %.{  .S (  .I ( @.S @.T @. .{ @.#. .:.%.( { [ m @.( { T  .%.c H.k.i.T T T ( ~ ~ S g S N %.T { T S S T S m S S S T m S S S T ~ ~ S T ~ ~ T S ( T T T [ B ~ T ( T T { S T S ~ [ T S S T m T ~ T %.J.k.#.%. .T ( T :.@.%.@.%.[ :. . .%.( ~ T S :.:.[ ~ ~ T :.%.%.( { S @.T  .S :.[ T m ( T { S [ T T %.T T %.T  .{ m { :.( { S c T Y.J.S.[ %.T [ T T [ ( S [ [  .T T ~ T B  .T S g T S c T T ( %.S S T T m S m T S T T T T [ [ ( S { I m m { T T T S T T T I T T c J.",
"Y.%.T T [ ( ( [ I S T T @.T @.%.%.[  .@. .[ %.T T [ ( [ :.:.:.( :.[ [ :.:.[ %.:.:.%. .:.:.:.:.:.%.@. .:.%.[  .T %.T :.T :.e.E.I.Y.T T ( T T  .%.T T S [ ( [ ( :. .S T S m S T [  .T T T T { [ S @.~ [  .[ { %.{ S S S }  .T { ( T T T T T S :.S T  .T T ~ S :.).`.%.[ [ :. . .( :.[  .%.@.@.@.%.:.[ @.:.:. .S @.:.:.:. .%.:. .[ T ( T  . .( %.T T S [ T T T [ T { ( T S @. .#.! (  .T S S ~ T Y.Y.J.@.T T T ( ~ @.[ T S { T S T T  .%.T T S ( S ( T T {  .{ S ~ S T ( c T T T { [ T [ I ( S [ ( I ( T l I T I T ( (  .( { T :.J.",
"S.J.p m c c p m u 6 : p 6 u p w 6 6 6 w u l S p : 6 6 6 6 p v u u p p u v u 6 6 6 6 u p 2 u 6 u - 6 2 u 6 p v u 6 p c m e.Y.E.Y.J.[ c v p p p p u p p p 6 6 p u 6 u u p u u 6 p p 6 6 u u u 6 w 6 2 6 6 6 u u u 6 6 6 p 6 u 6 u 6 6 6 6 6 u p u - 6 p u u ~ Y.|.Y.k.c c m m p p 6 u 6 m 6 u 6 p u u u l p p 6 p c u 6 u u p u 6 2 : $ 6 6 u u p w 6 6 p u 6 6 p p u 6 : 6 6 6 6 6 2 : - - 6  .J.J.Y.Y.~ u c p u 6 u 6 c c p u u p u 2 6 u u 6 6 6 u 2 u u 6 6 v : u $ 2 2 2 6 6 2 u : p u 6 : 6 p f 6 6 6 w 6 p l p p l m l N.J.",
"J.J.N.J.J.N.I.J.J.x.N.e.k.e.N.N.k.;.N.k.N.e.k.x.k.e.k.e.S.k.l.k.x.e.k.:.e.e.k.e.x.e.x.k.x.k.S.S.k.k.S.S.S.H.U.H.J.J.Y.J.J.Y.Y.Y.Y.k.Y.I.J.J.I.J.J.J.I.S.J.x.S.k.k.x.J.J.S.x.S.e.S.S.S.S.x.e.e.e.k.e.x.:.e.k.e.k.k.x.k.e.e.e.S.x.x.e.k.x.S.S.J.J.J.Y.Y.J.E.J.Y.Y.Y.J.J.Y.Y.J.J.S.S.k.S.k.x.e.k.e.k.i.H.S.x.k.k.k.:.:.x.:.i.e.e.e.e.e.e.:.e.e.x.k.e.e.k.k.:.:.x.:.:.e.x.x.e.x.J.x.S.x.S.S.S.S.J.J.Y.Y.I.J.J.J.J.S.J.S.J.k.k.x.S.e.e.e.x.e.k.:.S.e.k.k.S.e.i.e.e.:.:.:.e.e.e.:.e.e.x.e.k.e.-.-.k.:.:.-.-.-.:.k.S.J.J.J.J.N.J.N.Y.J.",
"S.N.S.I.J.J.N.N.k.N.S.S.J.J.Y.Y.J.J.N.Y.Y.[.J.Y.J.Y.Y.Y.Y.Y.J.Y.Y.J.J.Y.Y.J.E.J.J.Y.Y.Y.S.Y.Y.Y.J.S.J.Y.I.Y.J.Y.J.Y.J.Y.Y.Y.Y.Y.Y.Y.Y.Y.Y.Y.Y.Y.Y.[.Y.).Y.Y.Y.Y.E.Y.Y.[.J.[.Y.Y.Y.[.[.[.Y.).Y.Y.Y.Y.Y.Y.Y.Y.Y.Y.Y.Y.Y.Y.Y.Y.Y.Y.E.Y.J.|.Y.E.E.[.Y.Y.Y.[.!.[.Y.).E.E.J.|.Y.E.J.Y.J.J.J.Y.J.Y.S.Y.Y.J.J.J.J.Y.Y.Y.Y.Y.J.E.Y.Y.Y.).Y.U.Y.Y.Y.Y.Y.).J.Y.Y.).E.Y.Y.|.Y.|.Y.Y.Y.Y.J.Y.Y.J.Y.[.Y.Y.Y.Y.|.E.E.E.Y.Y.Y.Y.Y.Y.Y.).Y.Y.Y.Y.Y.Y.Y.Y.Y.J.Y.Y.Y.[.Y.Y.Y.Y.Y.Y.Y.Y.Y.|.Y.Y.Y.Y.Y.Y.Y.|.Y.Y.J.Y.J.Y.J.Y.J.Y.J.Y.Y.J.J.Y.N.Y.N.J.",
"Y.Y.[.Y.).Y.Y.Y.|.).[.Y.[.Y.[.). X[.).Y.[.).|.). X).[.|..XY.J.J.Y.Y.[.)..X).[.Y.).[.[.)..X[.[.[..X|.[.[..X|..X.X.X[.|.[..X.X)..X%X.X@X[.$X.X`..X%X.X$X.X|.)..X).).|.).[.|.Y.[.Y..X.X|.|.).Y.Y.J.Y.Y.).[..X|.|.|.%X.X.X.X.X[.[.[.`.|.`.[..X.X%X.X$X`.@XOX@X.X%X.X%X.X.X.X%X.X|.Y..X[.`.)..X|.`.[.`.|..X)..X[.).Y.|.|..X|.|.[.Y.Y.J.U.[.Y.`.).[.)..XY.).).`..X`..X`.`..X.X`.`..X`..X)..X.X.X`..X|..X.X|.[.`.[..X).`..X.X`..X).[.[..X.X.X.X.X[.`.[.`.|.[.[.|.).).Y.Y.J.Y.[..X[.|.).`.Y.|.)..X X[.|.).).[.Y.)..X.X|..X).).|..X[.[.Y.",
"[ #.{ ( k.e.e.:.-.S.J.e.S.k.e.x.:.%.:.;.k.:.{ k.9.:.:.-.).).J.J.J.:.:. .S.:.@.k.@.:.:. .e.:.:.S.:.:.S.:.e.k.e.[ :.k.e.e.J.e.:.:.:.k.e.e.e.S.k.J.S.J.x.S.Y.S.S.k.S.e.S.e.J.x.:.:.S.S.k.x.e..XY.Y.J.J.:.H.H.e.k.:.%.k.e.:.J.e.:.J.e.S.J.J.J.Y.k.e.J.J.e.:.S.J.k.k.k.S.k.x.k.S.k.:.e.S.J.k.k.S.:.J.k.k.x.x.e.I.k.:.x.J.k.e.x.x.[.Y.Y.Y.Y.S.S.Y.J.S.J.[.S.J.S.S.:.S.S.E.H.E.J.Y.J.:.J.S.e.:.J.Y.J.k.:.J.Y.I.I.e.).J.I.S.J.J.S.Y.Y.:.S.J.S.J.S.Y.k.:.:.x.J.I.S.k.J.|.Y.Y.J..Xe.J.Y.S.S.J.S.S.e.x.e.k.N.k.k.J.e.e.k.9.k.Y.N.e.:.9.k.k.",
"T v T T m T  .I I m l S T S T I I I [ T T m T S I T T S [ J.Y.S.( S @.T ( [ S [ ( { T T T T ( T ( [  .{ [ S T T T T ( [ g S @.T T T :.{ [ T T [ { T @.%.{ T %.[  .[ %.[  .S %.%.[  .( T  .i.[.J.J.S T T [ [ :.S  .[ T [ T [ [ [ :.T :.:.{ T [  .T  . .{ [ S T S T S T { T [ T @.[ [ ( %.:.[ %.( { T  .T { S { %.{ ( :.%.%.~ e.Y.[.:.:.[ :. .:.@.#. .@.%.:.T  . .T { :.:.%.{ [  . .T [ %. .[ %.T :.[  .S [ [ T  .:.( T [ ( ( { { [ %.[ { @.[ ( [  .T ( [ T m T :.Y.J.e.:. .{ :.4.{ @.%.[ ( ( I T T ( ( S T T S ( T { T S S @.T T ",
"l T m S l T { B S I T I T S T S I T I S T I T { I I S T [ Y.J.Y.{ S ( { [ S [ T T [ S ( T %.[ { T S ~ [ T T T T T T T ~ m V T @.T  .{ [ { T T { ( @.T [ T  .( T [ %.[ :.@.T [ T T @.{ [  .:.Y.Y.Y.{ T  .[ @.@.{ T ( [  .@.{ S [ S [ ( @.{ %.{ S { %.T T T ( S T T m T T T %.T { T S T :.{ %.[ %.T :.:.:.%.%.~ [ @.:. .:.T :.e.Y.Y.e.@.@.%.:.S :.T { @.[ ( ( [ %.[ [ S %.( :.T %.S ( S ( T [ T :.(  .[ [ [ T { T T [ T  .{ T T [ S T ( @.%.%. .T T  .T } S T S [ U.J. .@.[ :.#. .{ ( { T T T [ [ ( [ S S { [ { T m S T ( T  .S T ",
"B T c ( I m T m g S m c T l T m S c T S S B [ S I S S S T k.Y.Y.S T I %.T T %. .T [ T T { ( T S S [ S S T S [ T T T { T ~ T S S T S ~ @.[ { T T m { T [ @.T @.S T {  .{  .( ( T { T %.( :. .Y.S.Y.!  .~ %.T @.{ [ S { T  .{ ( [ ~ T @.T [ T ( S @.T ( [ S S T S m T  .( @.@.[ T [ T T T T @.T [  .@.( T %.%.[ T  .T :.[ @.@.S.[.Y.%.{ @.:.T :.:.:.T @.T ( T [ %.m [ [ [ :.S [ [ @.p ~ ~ T @.T S S T T S ( @.[ T [ m T ( [ [ ( T T T T @.S [ T [ [ T [ S T T { ( E.U.:.p  .:. .(  .S  .S m T S  .T T T ( %.S @.m I T S T T S I S ",
"T S T S m T T S S S S I m T m m S T m S c T S I T S T S %.Y.J.U.T [ T T [ ( { T T T S ~ ~ T T @.~ S ( T m { ~ T S S m m p [ m %.T { T ~ ( [ T T T  .T [ T %.[ T [ T ( T [ [ { @.T %.T ( S :.Y.J.J.@.[ { { :.:.T T ( T %.[ @.( @.@.%.[ m ( T { T [ @.~ @.T [ T m T [ S [ T ( T [ T S T ( S e.[ T [ %.[  .T  .T  .T :.@.[ S %.:.Y.Y.e.@.{ :.( :.[ T ( ( ( V  .@.S T [ T T ( @.T [ T T T { m [ S  .{ @.{ T ( [ S T ( T T [ T T T S B [ [ @.T ( %.@.[ T [ T T { T :.J.Y.e.:.T %.[ { %.( ( T m ( T T T [ S ( T  .T I T [ T T T c T S ",
"S T T S I I S S T S [ T T S [ S T m T S T l { I T c [ I ;.Y.[.J.%.I @.[ %.S  .T @.( { T T T ( T } S T T ( T [ ~ T m T c T S [ T T T @.T ( T T @.[ ( [ ( [ @.T ( T T [ ( [ T [ S ( [ T @.( :.|.Y.Y.S  .( %.@.( ( T T %.T :.T ( { T ( ( e. .%.:.T [ [  . .%.T T T @.T [ { [ T T { T @.[ T ( [ %.[ S T @.%.@. .:.m @.S :.[ @.%.k.J.Y.e.e.:.%. . .S T %.[ [ ( [ [  .:.[ [ T { [ S  .( S ( [ T [ T T [ (  .T [ [ %.m ~ [ ( [ T %.[ T T [ @.[  .( ( T T [ [ T  .T  .e.Y.J.S.e.#. .:.T @.T { [ T T ( T ( T [ [ @.{ ( T ( T T m S S T T ",
"S S S B S g S m T I T S T I I S T S T m S I ( T T T B I  .[.Y.Y.;.m T [ ( T T %.T @.{ { ( [ T T ~ T S T m T S T S T S T [ S ( m %.%.T  .[ T c [ S [ [ @.T %.T ( { @.T T ( %.T @.[ T T T  .l.E.Y.J.@.T T { T ( { T [ [ T S  .S ( :.{ S :.@.[ %.S ( ( @.[ %. .S  .( S [ S ( [ c T ~ S T S @. .T [ T %.T ( S %.( @.( @.( ( ( { e.J.[.k.:.:.S @. .S (  .~ %.T @.T T  .%.( ( S T [ S m [ T T ~ [ B { S [ @.[ p :.[ { c  .( %.T :.T :.{ %.T :.S [ { [ T @.( @.T %.T e.Y.Y.k.e.#.:.:.T  .( T { ( { S T @.T [ %.[  .T T S c m S S ( S S ",
"S m T I T c I m m B T S [ T S S T S m S T [ S I T S m S T S.Y.J.( [ { T @. .T T { T  .T T T T T ( T T T T T T T T T T V S S ( T [ { S T ( T S T T T T m { ( T ( S T T T T { :.[ [ T { T  .S E.U.Y.S [ [ T T %.( ( [ ( T S (  .T S ( T %.T ( %.T %.( [ S ( [ [ T T T  .T { { m T T S [ T T @. .S T T { { { { [ { [ [ [ { { S @.J.S.:.@.%.:. .[ ( @.[ [ [  .{ [ ( ( [ (  .T [ {  .@.( ( T @.} { T T ( (  .@.T ( T [ T (  .T { T ( [ ( [ T T T @.(  .T S #.T ~ [ ( ).Y.k.S #.[ :. .[ T [ { [ [ [ S @.I  .( T @.I { T S T S T T T S ",
"S { T T m I S m l l l l m S S m l S m m m T [ T S S S S T Y.J.J.T S ( [ T [ ( ( S T T { T ( T ( S T S S T T [ S @.S T c S T [ T m ( T [ T [ T T T S T T [ T S [ T ~ T T S @.S ~ T { [ S ( :.J.E.S.S T T S { S [ T T T  .~ ~ T T S [ S { m @.T T {  .T T T [ T S ( T T :.S T T T S S m ~ T ( T T S T T S T  .@.( T @. .[ T { e.E.S.:.@.:.T #.~ { ~ [ @. .T T T [ T { T S S %.S T T m T T [ { T  .m @.[  .S { T { T [ T T ( m [ T T ( ( T ( [ S { V S T T T T  .e.J.Y.e.:.~ ~ T ( T { { { T ~ [ T [ T T ( T { T T S { S T V S T T ",
"S m S m T S c m m c T T T S T m T m { c S S m T %.( S S ( Y.Y.J.[ B -. .( T [ m [ @.~ T S T T S T T { T T T m T S [ S m S %.T T %.S ( [ S T [ T T ~ T T %.[  .%.:. .[ [ T ~ T  .@. .%.[ [ :.Y.J.J.T ( #.T { (  .{ [ S @.{ :.S (  .T [ T :.[ { :.:.T ( S  .T m T  .B ( m ( ( T S T T [ [ S :.( %.k.[ %.T { ( ( [ :.( :. .( [ x.Y.J.S :. .:.( ( T [ [ :.T T T [ T [ T ( T [ T T ( [ T T S @.@. .S c ( @.( ( ( T { { ( S [ T [ { { ( S T T T ( ( @.%.T ( T T %.T :.[.Y.:.p T {  .( [ T T T S T T [ [ @.I ( { S S m S S T T T S l T ",
"I I I B m S T g m T S m T B T S S S T T I T T T S I S S :.Y.Y.J.[ [ T %.T T { S ~ T T [ T S [ S T S T T S S T p T T T T S T S S :.[ S ( B T T ( T %.S ( [ { { m T T S T T T { T S T T T ( @.J.Y.Y.{ T S [ T [ T [ T S @.( {  .( { ( %.[ ~ ( T  .{ :.T  .V %.S T c T S T m S ( [ T T T { T T ( T T ( { ( [ ( [ (  . . . .T T  .[.J.:.%.( [ :.%. .%.( T %.%. .T [ S ( S [ T ( S [ ( [ T S T c T T T [ S  .T [ T #.S S T T T ~ T T T T S S T [ T S T ( [ ( T T S :.Y.J.:.:.S @.T ( T T ( [ ( %.T  .@.%.T g I T I T I ( I I S I S T ",
"I [ S I T S m S S S S S S S I S T [ { T { T [ T S T T m S Y.J.S.[  . .T :.[ %. .@.T T T T %.S T T S T S T T T l T p T {  .S [ T { S [ S { T S %.~ [ @.@.( T ( T T T [ T [ T T T T ( T [ { T Y.J.I.( :.T ( %.:.T T ( %.T :.{ ( [ @.( ( T :.~  .( @.T %.[ [ ~ %.T T T S T T ( S T B [ { ( [ :.[ { ( T :.{ @.( ( { #.[ %.T ( [ x.Y.Y.:.%.:.:.T :.{ @.:.@.[ [ [  .T T [ T T [ T %.m T m T T S T T S ( { @.[ T ( T S  .[ ( ( ( [ { T [ ( { S T [ T [ [ %.@.%.T T [ %.Y.Y.:.T ( { ( %. .@.( T T S ( [ ( :.@.[ ( T [ { [ T I I S T S ( ",
"S m m m m T S l l m S T T S S T g T S T S T m S I S S I #.Y.J.S.[ @.%.%.:.[ ( [ T [ S :.S T S S ~ m ( ( S @. .m + c T u S T m { [ S T [ @.m S %.T T T T  .[ S T ~ T T %.T ( T @.[ [ S I ( :.J.S.S.m [  .%.{  .%.T S  .:.@.%.T :.[ [ @.e.%.:.[ @.[ S S T S T T [ T S m m :.:.T ( m T T T  .@.T :.@. . .:.T %.~ [ { #. .[ T [ k.Y.J.[ %.(  .:.S @.T  .:. . .[ m %.S T T T S T @.T T [ - p $ c ( c T T T @.[ :.@.T T T ( S T [ T T %.( S [ T T T %.T [ T %.~ %.m S.I.J.e.:.:. .@.( T  .S :.T T m T T %.[ m T T T T S S  .%.S T S T ",
"S S T m S p m T S m T T { m @.l I I  .S T [ S T S m I T { Y.|.U. .[ [ T @.( T :.S %.T T S ~ :.T [ [ %.T T T ( T l m ~ ~ S S %.( S T T T T T S c T T T T ( T ( %.%.T %.T { T T ~ T T S T S  .J.J.J. .[ [ @.~ [ ( %.[ T %.T @. . .T ( ( [ e.{  .T T T T %.S T [ %.@.T ( T [ @.( T [ T T { ( T @.} [ T T [  .T T { :.T @.T T { :.Y.Y.e.@.( %.%.T [ [ [ {  .[ %.{  .S  .:.@.:.( T ( T c [ m S B ( T  .T ( ( ( T %.m { T S T m [ T { @.S T [ T T { { T m :. .S [ T :.E.Y.e.e.@.[ [ T ( B @.{ T { ( T ( l ( I %.( [ T m I T S T T m S ",
"l l m m V m l S V T S I S T S S S S m T I I m m S T S T [ ).Y.J.%.T T %.[ %.@.S ( ( T T %.~ { S { T T [ T T g S T S T S T S T S T T T m T %.m T T ( c m S T S T S T T m T { S ~ ~ T ~  .{ #.J.Y.J.T T S [ T :.S S :.S [ [  .[ T @.( ( @. .@.( T T T m  .[ T [ ( T T T T ~ ~ T T T T T ( T %.T T %.T T [ [ [ :.m ( ( T m [ [ e.[.Y.k.[ { S :.T [ (  .{ ( { :.( T T  .T [ ( T T m @.S T S T m c %.( T @.T T ( { S S T T S T [ T ( {  .T { T T T @.S %.( { T S T :.Y.[.:.e.T T { { T [ } { S ( T { [  .[  .T T S S m T T S V m S l ",
"B S m S S S S S B S S I I T m S T T T I  .S T S { I T S %.J.|.Y. .( ( S T T { m m { T  .[ [ T S ( T S T ~ ~ m S T T S %.S T m m B S T ( [ [ T m T S ( S m T T S T T T T T T T :.:.T T ~ v :.Y.Y.J.[ T S {  .[  .@.@.( { T (  .(  .[ @.%.( ( %.{ T ( T T  .[ [ T [ T ( T [ S  .T T [ T ( %.T  .{ { [ { @.@.[ %.T  .S :.( %.T e.J.Y.:.%.T { [ @.%. .B @. .#.] [ ( ( ( %.[ [ S S T { S T [ [ T T T  .[ T ( T T %.T T m [ %.} %. .T %.@.T T  .S S [  .( :.m  . .S ( J.J.:.{ {  .T [ [ #.%.%.{ { ~ T T ( [ [ ( I T S @.m S [ T T S S ",
"m T c S l m T S I m u T S m m [ [ %.I S [ S { T m T S l I J.Y.[.T T T T { [  .T { T S S T S T ( T %.%.S m B S T ~ T T T S [ T ( c T T S ~ ~ %.T [ %.S T S T c [ ( [ T  .S { T { S T [ S T %.Y.E.J.[ T T T  .T  .( c T %.[ %.@.[ ( %.T :.T S  .T T S T S :.@.T %.T { ( p ( [ T m T  .S  .T %.@.T  .[ T ( :.:.( { T ( { { [ S :.[.J.:.[ @.%.( [ [ T %.%.{ T m ( @.@.e.( { T T T [ ~ T c S S :.T S T T S  .(  .:.( T T T S c { T T { %.c T T %.~ T T ( T T [ ( (  .Y.E.%.f ~ :.[ T T :.V  . .T T [ T ( S [ B @.c m m S T [ m T T S ",
"l m m l m B S T S S m I p S T [ [ I  .T T m T S I m I T :.Y.Y.Y.:.S %.( T %.T [ T ~ T S T T ( T { S T ( S S c S S T T T T S S S T T T T [ T S {  .( [ T T { [ S S { @.T [ S T ( T T T T T  .|.I.J.T { @.S [ { ( T ( T  .:.T :. .:.{ :.%.:.%.T ( [ T T S T { T %.:.(  .T [ T ( ( S T T [ [ [ T T [ T T [ [ ( { ( [ [ { %.{ T e.Y.Y.x.:.[ @.[ %.:. .:.[  .:.@.@.@.@.( @.:.T m T T m T T T ( ~ T T p m ( [  .[ S T T S T (  .T %.( [ ( [ ( T [ @.T [ c :.@.S T T  .J.J.:.:.{ v  .[  .T @.@.%.[ [ T [ S @.%.T ( { S S S I I ( S T S ",
"m S m S m S T S S T m T I T T I I ( I T T I B S S S S S ( Y.Y.Y.@.[ m ( ( T T S [ @.S T T T T [ T T T S T ( T S S T T [ T T v S ( T T T { T ( T @.@.S %.{ m T T m %.S T T T %.T ( T T T m %.Y.E.x. .T T [ [  .( ( ~ T ( { [ ( T { ( { [ ( { @. .[ ( @.%. .[ (  .c ( [ @.#.T S m ~ { T  .T :.T S T T T @.[ (  .%.T :.:.:.~ { e.[.S.S.[ (  .[ :.%.[ :.( :. .S T  .%. .[ ( T [ [ T @.T m ( S T T T m c T m { ( ( @.T [ T T T m T T ( ( T %.T ( [ ( T [ ( [ [ T T @.J.Y.e.:.~ @.( [ T T %. .T  .S { T T S [ T T S S T [ S T m I I T ",
"S m l I m T S c u I c T [ m T [ [ S S %.@.S T l T S I S m N.).Y.I ( :.T :.T { [ S [ ( [ :.S T { { T T T T T T T S T [ %.%.g T V { T T m T S [ { S [ T T ( T S T [ T ~ S [ T ( T [ [ T S ~ T Y.Y.J.T { T [ T  .%.{ %.T [ :.T  .[ [ [ @.%. .[ %.T [ T [ { [ { @.T T T @.@. .T T [ T  .@.S @.S { S T T %.[  .[ { T :.:.%.T [ @. .|.Y.:.@.{ %.%.T %.%.%.{ T [ %.[ { [ { T T [ T [ T @.S S S [ @.m c c S S %.m T S m S ( l S ~ S T T  .[ T [  .T T T T { %.T m c T [ |.Y.[ c T S ( T  . .@.{ ( T  .{ S S @.T I m I S T S S I S S B S ",
"l S m T l m S m S S S B l S S T T [ { S S T l I m S S S @.Y.Y.Y.(  .T S T T S @.m T m T T } [ T c T S T S S T [ S [ T ( T ( T p c ~ T [ m T T %.~ } T  .T T T { [ T [ T ~ T T ( T { T T S :.Y.Y.I.@.[ T T ( ( T T c T T T %.S ( (  . .T T %.{ S T ( T  .T [ ( ( [ ( { :.[ { %.T T @.[ [ T %.T @.m T ( [ T ( [ [ S :.[  .T ~ :.[.J.[ @.:.( T T ( T ( T [ %.[ {  . .:.( T T T %.c T T S @.~ [ S T T S T T S  .T [ m T m m S T S T [  .T T S %.T T S [ ( ( T [ ~ k.Y.Y.:. .{ @.{ B [ { ( { ( S S T T S T T S ( T T c I I I S T S I ",
"I m m S m m l m I I T l T { -.T T T [ T ( T [ S I T T T %.Y.Y.J.[ [ [ { [ T S ~ T S T S  .~ ( ( ( S T T T S [ T T T @.( T T T T S T T S [ T T T } [  .T [ T { T T T T T ( [ [ m [ T T S [  .[.Y.I.~ %.T @.T { [ @.@.[ @.:.( ( { T T S T T T [ S ( T ( %.[ T @.%.[ @.%.( %.[ :.~ [ [ [ [ {  .( T [ S [ ~ @.T  .T  . .(  .T T :.Y.Y.e.( %.{ ! T { ~ %.%.@. .( @.%. .[ @.e.@.@.[ T [ T ( { %.( [ T T S T T T T { T S T T T m T ( S :.S { m T T T T { T  .[ T [ ( S [.Y.k.S T T @.[ %.( :.~ T T T T { T T S T ( T S T m T S T S { T ",
"V I T l m l m T m m l S S ( T T m S l T m I B T I T T S T Y.J.Y.[ T T  .[ S S f T S T T c S T T { T c T T { T T [  .:.T T [ ( S S { T T T [ ( T T { T T c T ( S ( T @.S S T T T T @.T T T @.Y.J.J.[ S [ { [ [ T S @.S T S @.( @.T T @.T T ~ [ [ T @.T T  .%.T ( { T @.{ T @.[ [ [ S B %.@.:.( [  .m { T T @.[ ~ %.%.(  .T :.S [.J.S.( [ {  .@.@.[ ( T ( T [  .[ [ %. .:. . .%.T T  . .{ T S T T T  .%.%.S T ~ T S T T [ p @.T @.S ( S T S T @.S S [ m  .{ %.@.@.Y.). .e.#.[ (  .( @.{ [ S @.[ [ T :.[ S @.{ I c S m { T c ( S S ",
"S m S B m p S m S B m m T B { T T S T S S T T B T T S m I Y.).I.{ T { T { ( [ T m T T T [ [ [ S [ T [ ( @.S [ T  .[ [ T T T T S { ~ [ T T m m T T T m ( ( T T T  .m T m S T T :.( S T S T :.Y.Y.Y.{ %.(  .%.{ T T [ T T @.~ @.{ S { [  .[ [ [  .[ [  .T %.@. .[ @. . . .:. .:.N  . .%.{ @.[  .( %. .{ T  .( [ { @.T [ T [ [ e.[.|.:.%.(  .@.:. .@.( ( (  .:. .[ T T [ [ %.S @.S { :. .T T { T ( ( T  .S [ ( u T T m T [ S ( ~ S ( T ( T T T @.( T [ [ T T  .( :.).|.k.[  .#.( ( @. .[ [ T [ { T ( m [ [ ( [ T S T S I T T I S m ",
"c l m S S m S T B S m S %.S p T m S S S m (  .T S T l T S Y.J.J.c T T ( T [ T S ~ S m [ T S T [ g T m S T T %.T S ( S ( T T ~ { m T ( ( T S { T S T m T @.T T T ~ [ T T T { [ :.T [ T T T %.E.Y.S.[ { [ [ #.{ ( m @.T #.T [ ( ( [ %.( @.T %.:.{ T ~ T T %.%.[ :.c :.:.:.:.T @.:.T  .( %.( { (  .T [ [ { S { ( [ [  .{ T [ [ T J.J.T %. .[ { T %.( B [ @.T T T  .~ T T [ T T @.%.:.:.[ [ T [ S %.T ( T  .T { c S S @.S  .T %.[ [ S %.S ~ [ [ [ T [ T T ~ @.:.~ S Y.J.:.( T T  . .T S ~ S T T T @.T S ~ [ T T S m I ( S T T { S m ",
"[ S l l V l m m T T S m l S S ( [ T T l S m T T S I :.T [ Y.J.N.( T T T T S { { V T T  .T T ( { %.T  .T m S [ T ( ~ T T :.@.T T { T T ( S S S T :.@.S S B T T T @.%.[ T ( T T T T m T T ~ %.[.Y.J.@.@. . .( :.{ @.(  .%. . .@.%.{ :.%.T T ( :.T :.[ { ( %.@.:.:.:.:.%.:.:.@.@.:.k. .:.:.e.( %.( %. .T :.( T :.T :.} T ( %.@.:.S.Y.:. .%.~  . .{ (  . .T S ( :. .( %.@.( :. .:.T @.:.%.( e.T %.S :.:.T ( S m T m ( :. .( T S %.%.%.T T T m T :.S T T { T { {  .:.k.U.:.:.@.[ :. .T ~ ( T T T @.@.@. .T :.e. .( T T T T S l I [ S ",
"m l m B S m S m l T l T m c ( I S S S S S T {  .T T S B l J.N.S.S T T ~ T T T T m S S S  .T T T [ T S T T [ [ { T m S [ { T m %.{ ( ( T S T T T T S S T T T T :. .[ T S S T S T T m T S T S I.e.S.( [ ( [ { %.T T T T T %.:. . . .T [ T T %.:.( T [ S  .:.:.T T :.%.{ :.:.e.T %.@.S { %.#. .@.%.( @.T { [ %.T [ } T { ~ ( S S J.S.:. .T ( [ %.%.[ [ T T [ :.%.T  .%.[ [ m %.( %.[ { T ( [  .[ T T { T [ %.%.T T N T { T T @.T @.{ m [ T T { S T  . .S { { %.[ S I.H.:.e.:.@.@.%.[ @.T ~ :.@.%. .[ T T ( I I [ S S T S m m c S { ",
"m I I l S m ( T m m T T T  .m ( I I S B S T S T S T I S :.Y.Y.Y.I S ( m T S m T S S S S  .T :.( :.@.{ T [ [ @.S  .T :.T :.( :.S m [ T T T ( :.T T T  .S } %.} T  .:.T m T (  .T {  .T [ ( :.Y.Y.Y.T T S T T %.{ T (  .( :.:.:.:.%. .:.%.:.:.:.:.~ %.e.:. . .:.e.%.:.e.e.e.:.k.e.c  .e.:.%.:.%.:.:. .:.{ S [  . .B :.%.{ @.( S.|.[.{ [  .[ T %.:.T @.@.:.[ %.@.%.{ { :.:.%.@.V :.J. .:.:.[ ( [ %.@.~ @.:.{  . .:.T u [ {  .:.%.e.[ [ T T T T  .T :.T e.:.[ S  .k.[.Y.:.%.%.%.{ #. .%.[ :. .:.:.:.e.(  .T m I T @.%.( %.S T p S T ",
"p S c p S g l u p B l p p l c m c T p c c S p c p l l g N.Y.J.J.I c c c l S v c B c c m v S p m m m p ~ S m p T S c c l T c c v p T v v T l S m m p T m S ~ m V S T g S B S c S c c c p m J.J.Y.J.m f p m S c c S S v T B T %.S u T m T T T ~ T S ~ { T S T ~ T S ( T [ T m g m S p T [ S ~ T [ T T m B S S S m p c c l p T E.[.|.J.c p m p B T S m c m m T S S m p p m T T v N g T V ( c ~ v m T 6 p  .m m u c m 6 u V m S v ~ T c m S m S c c g p S m c p S ).I.Y.x.f S S S m T B T T V T l p m S u S g S m m S p c S c 6 u p ",
"N.k.k.N.N.S.J.N.S.S.J.N.J.J.Y.J.N.N.J.J.J.J.J.J.J.J.Y.J.Y.Y.Y.Y.Y.J.Y.J.Y.J.Y.H.Y.J.Y.Y.Y.Y.).Y.Y.Y.|.Y.Y.J.Y.J.Y.Y.Y.Y.Y.Y.E.Y.Y.Y.Y.Y.Y.E.Y.Y.Y.J.Y.Y.Y.E.|.I.Y.J.Y.J.Y.J.E.Y.Y.Y.Y.Y.Y.Y.Y.Y.Y.I.Y.J.J.Y.).Y.Y.E.Y.Y.Y.J.Y.E.E.J.Y.Y.J.Y.Y.Y.Y.I.Y.J.S.Y.I.Y.Y.Y.Y.Y.Y.Y.Y.Y.Y.Y.[.Y.Y.H.Y.J.Y.Y.Y.Y.Y.I.[.E.Y.Y.[.Y.).Y.|.Y.Y.Y.|.Y.Y.Y.Y.Y.Y.Y.Y.Y.E.I.Y.Y.E.Y.Y.Y.Y.Y.Y.E.Y.J.Y.Y.E.E.E.J.J.J.Y.J.Y.Y.Y.E.J.I.J.J.J.J.I.J.J.J.Y.Y.I.I.Y.J.Y.S.U.Y.Y.Y.Y.Y.Y.J.J.S.J.S.J.J.S.S.J.J.S.S.J.J.J.S.I.S.N.N.J.J.I.N.J.k.J.S.N.J.",
"N.S.N.N.J.J.J.J.J.J.J.S.J.Y.Y.J.Y.J.Y.Y.Y.Y.J.Y.Y.Y.U.Y.Y.[.Y.Y.Y.J.Y.J.Y.E.J.Y.Y.Y.J.Y.Y.).Y.Y.Y.Y.E.E.Y.|.Y.Y.Y.Y.E.Y.Y.).Y.Y.Y.[.Y.Y.E.|.E.Y.|.Y.Y.Y.Y.Y.Y.Y.Y.Y.U.Y.Y.E.J.Y.Y.Y.Y.Y.|.Y.Y.[.Y.Y.J.Y.Y.Y.J.Y.Y.E.J.Y.Y.Y.J.E.).Y.Y.Y.Y.Y.Y.Y.Y.Y.Y.Y.Y.).E.Y.E.Y.Y.E.Y.).Y.Y.Y.Y.E.Y.Y.E.Y.Y.Y.E.Y.|.Y.Y.Y.Y.Y.[.Y.Y.[.Y.E.E.Y.Y.Y.Y.Y.Y.Y.Y.Y.Y.Y.Y.Y.).Y.Y.J.Y.Y.).Y.Y.|.E.E.E.Y.Y.Y.E.U.Y.Y.Y.Y.Y.[.Y.E.E.J.Y.J.J.J.J.I.Y.J.Y.J.Y.Y.Y.S.Y.Y.J.J.Y.J.Y.Y.Y.I.Y.J.J.J.I.Y.Y.J.J.S.J.Y.Y.J.Y.S.I.S.J.Y.N.J.J.J.N.S.J.S.J.J.Y.",
"Y.Y.).)..X).).[.[.|.[.[..X[..X.X X[..X.X.X|. X|._.|.[.Y..X[..X|..X X@X)..X$X@X%X@X`.@X`.`.`.OX.X.X.X.X.X.X[..X`..X|.).|..XE.Y.H.J..X)..X.X.X.X.X@X$X.X.X%X.X.X.X%X|..X.XOX.X.X.X.X|..X.X.X.X.X.X@X.X@X`.$X%X$X$X&X$X%X.X`..X.X`.%X.X.X.X$X.X.X`..X.X|.)..X[.|.J.Y.Y.[.[.`.|.|..X.X.X`.`.OX.X`.`.OX.X.X.X%X.X%X.X$X.X$X$X@X@X.X.X.X|..X.X@X.X%X`.OX%X$X.X$X.X`.).`..X.X`.$X`..X%X%X[.[.Y.[.|.|.J.Y.J.E.Y..X).[.[..X|.[.[..X)..X.X.X.X.X[..X.X.X.X$X|.|..X@X.X.X.X.X.X|.Y..X`..X`..X).|.[.`.%X.X.X.X[.[.Y..X[.).|.|.Y.Y.Y.Y.Y.Y.J.",
"@.[ :.T e. .T T ( m T @.[ %.:.k.e.e.-.( 9.:. .k.S 9.[ x.N.:.:.:.k.:.:.:.%.k.:.x.[ Y.:.:.S.e.e.e.k.@.e.:.x.k.( k.k.x.:.e.:.$XJ.J.J.J.( @.e.e.:. . .:.( :.e.( T %.:.e.x.%.%.k.[ e. .~ S :.e.J.l.i.H.#.:.{ T Y.:.:.e.S.e.e.e.Y.S.k.x.S.e. .%.Y.@.%.J.J.e. .#.k..XY.Y.Y.k.:.[ x.:.%. .T e.@.e.e.( e.e.k.:.k.:.e.%.e.S.:.@. .k.J.e.e.i.k.S.e.:.:.Y.:.:.x.S.Y.e.J.J.J.I.S.S.k.:.J.:. .:.k.S.S.e.k.J.Y.J.Y.Y.|.:.x.S.S.k.J.k.e.e.k.x.:.:.k.x.S.x.k.e.:.k.J.S.[ :.S.k.J.e.S.e.e.e.e.e.J.e.S.S.k.:.:.S.k.:.e.e.J.-.e.S.%.:.e.N.k.e.k.( N.",
"S.:.T T [  .T  .T I [ I I S { [ I {  .{  .T -.-.:.( :.%.%.%.@.@.( T %.:.[ %.:.:.:. .:.:.%.[ %.#. .( %. . .T :.{ [  .{  .[ k.H.J.S.T T T T [  .T T [ @.@.T [  .%.( [ :.{ [ {  .T [ ( [  . .( #.:.%.:.:.{ { %.[  . .( T ( @.%.:.T { [ @.~ ( T  .T T { :.( ~ c x.E.Y.T S { T S { T T T T ( [ S  .( @.T @.%.@.T @. .:.[ %.T { T [  .T { T [ [ T %.m %.( ( m S T @.[ ( @.{ [  .T T { [ ( (  .{ c [ ).Y.I. .[ [ S [ %.[ :.@. .%.S ( ( T [ T S  .[ { :.[ [ @.[ [ T T T { S  .[ @.(  .[ T [ %.T @.{ T T @.( [ T %.S S T @.T  .[ I T 5.N.",
"S.e.T [ ( T T I m I I I T { ( S [ @.[  . .@.g ;.[ ( %.( [ [ T  .T  .[ @.( T [ [ T @.T @.%.[ [ { { %.{ ( [ @.:.%.[ :.( T %.x.E.Y.J.T m T [ ( T S T ( T %.%.( T ( [ ( %.@.%.T T { ( { T :. .:.( %.[  .[ :.%.%.( T [ ( ( [ T  .T [ T T (  .{ ( { T T S ( [ S [ k.Y.E. .S ( T ( T T S T m @.T T T [  .T ( :.:.:.[ %.{ @.@.:.T  .T T S ( T :.T T  .T ( ( T ( T [ T  .[ [ %.@.{ [ [ ( T { #.:.T [ T Y.Y.Y. . .T (  .T { [ [ :.( T {  . .( ( { ( %.:.T [ ( T S S T T S ( [ { %.T { { T [ T T [ T %.{ %.T T T :.T %.T S T T T @.{ [ e.N.",
"N.[ I I S [ T T :.T S S T T [ S [ T [ T [  .T { [ ( T T %.%.{ T  .S T ~ [ ( T { T ( @.T :.T :.[ %.T ( m  .[ [ { [ T [ ( {  .[.k.J.T T m { ~ [ T T { S T  .m %.S S T { [ { [ :.{ [ %.T T :. . .T :.T [ T :.%.T [ S { T ~  .[ [  . .S S m  .S %.T T T S [ T ( :.Y.|.S T T ~ [ T ~ T T T S T S S T T [ ( (  .%.:.T T :.( T T @.( T ~ ( %.S ~ T { T ( T ~ [ { ( T S S %.T T S { T ( %.%. .~ ( {  .Y.E.U. .V ~  .@.S  .S @.{ T T { T S T  .T [ [ ( S [ T ( S S S ( T S ( { T [ S T T ( T S T { ( T T T T T S T I I  .T T %.m [ T ( N.",
"k.-.I S T { T B T T S T (  .{ I S m ( S @.T I T [ [ T ( ( %.S ;.( [ ( ( { %.T :.T ( [ %.(  .[ { [  .[ T [ [ { [ %.T  . .[ k.Y.Y.S.T [  .T  .:.~ T T T [ S %.[ T [ [ m S ( @.[ T [ T T ( :.:.T T ( @.T ( T T T [ T m S S S [ ( T T [ { T  .[ [ { ( [ T [ T T @.Y.E. .S T T T T @.S T T T m { [ @.[ ( T T S @.S { T [ T S S :.T ( T T T T ~ ( [ T T S T T S T ( T ( @.:.T S @.%.:.T ( T T T  .S Y.J.Y.e.@.[ T %.%.{ ( [ T T ( ( T ~ %.T [ T T ( S S ( T T S T S T S T T T T T T ( T ( T T T T [ T [ c T m S m { T m T I T S T -.N.",
"J.e.T T [ [ T { ( S T S T T @.S T [ T ( T I T S T S [ T [ ( :.T ( T T @.%.T @.T [ [ %. .[ [  .T T { [ { [ T { @.%.{ {  .@.S.J.J.S.T [ [ @.T ~ T T ( T { S [ [ [ ( (  .T ( { ( T T [ ( T [ { :.[ [ T ( { [ [ T [ T T T S ( T m ~ [ T { T T T T T { T T { T T J.Y.Y.(  .S T T ~ [ T [ T S T T [ T %.{ [ [ T %.( T T S ( [ [ [ [ { T { T ( [ ~ T S T m T S [ ( S T [ S %.( %.( T S %.~ @.T T [ [ ).Y.J.e.@.%.T :.T [ S :.T T T T T [ ( %.T [ T { T { { T S T T %.T m S T T S S T c S %.T ( T T T S T T T S S T T [  .I  .I T S k.J.",
"Y.e.S %.S S T [ I T T T I T m T T I T T m T l S T ( [ T ( [ { T [ ( T T T c S T [ T T :.{  .[ [  .T @.@.( @.%.T ( [ m :.[ S.J.J.J.[ [ S ( [ c S { T T [ T ~ S [ T ( [ T { T ( S ~ ( T T { [ [ @.[ ( T [ { ( T T [ S T { @.S T S T } T { T S  .T [ { T [ { [ e.Y.Y.:.T m [ T ( T S [ T T [ [ S ( {  .[ { { [ ~  .[ ( T { (  .( ( T %.( { [ %.%.( T @.[ [  .{ T T  . .S T ~ :.:.@.[ T T  .S { T [.).).:.%.[ [ [ @.[ :.%.T ( ~ T  . .@.@.T  .T T @. .%.S S T ~ S T m T [ T T ~ ~ %.S S S l S [ ( [ T  .m  .( { I T [ [ B S @.I :.Y.",
"Y.:.{ S [ S T { %.T I I [ [ I [ I T T S T T T I [ S [ { { [ ( S ( S [ :.%. .( T [ { %.:.( @.%.T %.T (  .@.@.%.T T @.T [  .[ Y.S.S.S [ [ T [ m T T [ [ T T T T T { [ { [ ( T ( T [ [ ( T [ T T S [ T [ T %.T %.S [ S T [  .T %.T %.T ( c ( T [ T T T S T S T :.).Y.T ( T T T @.T T T ( [ [ T %.( [ T [ @.{ T  .[ [ T @.{ T T { { m T { ( ( @.[ S ( T S T T @.{ S T T T %.T [ :.@.:.S T T ( T T Y.Y.Y.e.l %.[ T [ @. .[ T @.S @.~ ( %.%.{ @.T  .T T T ~ S [ S S S S T T T @.S [ S T T T T [ [ ( T T S T m T ( [ [ %.S T T S [ e.Y.",
"N.e.I T ( { ( ( T T T I I T S [ T I { S m S T [ I T T @.T [ T S ( T { @.S ( S ( T [ T T  .T { @.T ( T  .{ %.T  .{ %.%.[ { S.S.J.e.T m :.m T T S T T T S T ( T [ T T [ { T S T T T T T  .( @.( T m %.[ [ %.[ [ ( T S T @.m T S T T S T T m T T T [ ( T T S S @.J.J.%.S m S m T T S S @.T S @.S [ S { ( S [ @.S T T ~ T { T T T %.T T T [ T :.T  .S [ m T S ~ ~ m { T m { T { {  .S ~ { { S S T Y.J.S.:.@.T %.T [ ( T [ T T [ T T m { T ( ( S T { ( T ( m m ( S [ m T T T [ T T S T m S c S ( T T c ~ S T S T T T ( [ [ [ S T e.J.",
"Y.e.T [ T { @.T S S T T %.( S [ T T T T @.T T T { T I T ( S S T  .T ( @.@.@.%.S [ T  .[  . .T [ ( { :.%.[ @.(  .%.:.:.{ @.S.Y.Y.S.T ( @.T S T T S T [ [ :.[ [ { [ ( %.T [ S ( T m @.T T  .~ { S T c T T  .T ( [ T  .T S :. .T T [ @.[ { [ [ S [  .T ( S S S e.Y.Y.:.T { S S T p T V T T %.T [ :.T @.:.%.T  .%.T { T @.T S T { m T T :.@.{ [ T ~ S S m B T %.@.T S S ( T @.T [ T { S :.[ T S S [..XJ.S S c %.%.@.@.T  .%.(  .S T @.{ T %.%.T [ T T m S T [ T T T m T S S T B T m [ T [ S T {  .S S T S S [  .( S T ( ( T ( S 9.Y.",
"S.-.T T  . .T [ ( S S T S T T I I ( I %.I T [ S T { S [ S T T S %.%.S T [ [ T T ( T ( :.T ( S [ %.{ T [ ( [ T  .T ( ( [  .e.J.J.J.T ~ m S T S [ S T S T T [ ( [ (  .T [ [ T ( S S T [ [ T @.S :.T S T ( ( {  .T { [ T { S m [ m T c m m T [ @.[ T ( T ( S ~ x.Y.Y.:.S S S [ T T S [ S T T [ T S T T S T @.T T %.%.( [ [ ( T S [ S T [ :.( [ S T T S m T m S S T T S ~ @.T [ T T T ( { { S S m Y.U.Y.:.%.{ [ T ( T :.T T @.@.S @.T %.T S { T T T T S S S [ T T T T m T T S S m B T T m S [ T S { T T T T T T T { T T [ @.S T :.N.",
"Y.T :.S  .[ T I T m S I S S T T %.T ( I I [ [ ( (  .I S T [ T T ;.S  .[ %.[ S T [ ( [ %.( %.[ { ( %.{  .@.T [ T %.T [ T  . .J.S.I.~ @.l [ T e.( ~ S T { T T [ [ @.T [ T ( %.[ T ~ T T [ T ( [ T T T [ S T [  .S [ T ( S T T m S T S ( T [ T @.[ { @.T T T ~ :.Y.J.( ~ T T [ e.S T T T T T S [ T [ T T :.{ T :.[ %.[ T ( T { @.[ T [ %.S T T T T ( T T T ( T T S ( T @.[ %.T @.( { %. .( ( T T Y.[.E.(  .%.[ e.( { [  . .( [ ( T T [ ( T T T  .T [ [ [ S ( S S S S S S S T u m T %.T T T T ( T T T T  .T I ( I T ( T %.( I @.T J.",
"N.@.S B [ -.I  . .I S T S S T [ m [  .S T [ T S S S m T T T S %.T [ T T T T T ( S ( { @.( T T [ S  .{ @.S @.T [ T [ T ( T :.U.U.J.T T T T T T S T ( T T m [ T T { T { ( S T { @.T m T T T %.T ( m  .T [ S S S S S T %.T S T T c T S T S  .T S @.:.[ T S T ~ :.Y.J.@.T T T S T T S [ T } S T S T T T [ [ T [ { %.%.S T  .[ T T T ~ } T [ T T p [ S m V T T S T T T S T  .T { ( [ T ( S T S T T Y.S.Y.:. .( %. .S { T T ~ T T [ { S ( [  .S S S ( ( } m T T [ S { S S V T c S m T m  .c T S T T c T T m T S I I :.( ( :.%.l T %.J.",
"N.-.@.-.S I ( S T I T S T T { S I T S I T I T T { T T S S [ %. . .T ( T [ T @.T T S %.! @.( :.[  .@.%. .%.( ( { [ [ ( { T e.Y.U.J.S } S [ T T [ T S T T S [ T T ( @.( T [ [ S  .[ [ [ T T T T ( T [ { %.T { ( T c T S S T T T T  .S [  .:.T T { T T T [ T S k.J.Y.[ T T T B m S S  .T S T S [ T  .{ { T ( T T S ( T @.S { T T [ :.{ { T ~ T T T l S [ S c T T T :.{ T @. .S  .S T S @.[ S T T Y.Y.Y.T { @.T :.T [ [ %.{ { %.T T S [ T T [ T T ( T  .T m m V T T ( ~ T V T T { S ( ~ [ T T S [ T T S T :.%.T { T T { { m :.@.:.N.",
"Y.e.I -.T ( T I ( T S S T S B S m T T T [ ( T  .T S T I { T [ [ @.T T [ T [ { @.T { S ( ( { [ ( ( %.T T {  .S %.T T T ( ( x.I.E.J.S T T ( T T T [ ( S T T T [ m T u T T  .( [ [ ~ [ T { (  .T ( B T [ S T T T u T T V S T T [ ( m 6 ( S [ [  .S T T T [ T [ e.Y.E.@.[ T T { m m V T T T T T S T T S T m T [ T T S S [ ( T %.T T  .T [ m m ( S S m S T T m c [ T S ( T T { T T m S %.T [ m S ~ |.Y.Y.@.%.T { T T @.%.( [ S ( T [ ( [ T T S T T T T T T T m [ m T S T S S { S S S S T T { S T T T S  .T m m %.S [ S ( T {  .T -.Y.",
"|.5.T S T T @.{ %.I T T T S m S [ T I T ( [ [ %.{ T T T T T  .N ( I (  .[ T [ ~ [ (  .:.S %. .[  .T %.:.S %.@.T  .T { T T e.S.J.J.T { { [ T %.{  .T T T T T [ S @.T { S ( T ( T T S {  .T @.T S T S T T T T [ m l S S T ~ S T T T T T [ @.[ @.[ } [ ( T T S e.Y.[.%.T T T T :.T S T T [ T T { T T S [ [ [ S [ [ ( [ S [ [ T [ T  .[ [ [ S m ( m m ( S T S T T T [ T T c { m T T T T %.m ( { S E.Y.J.:.(  .[ S @.@. .%. .( [ T [  .m T ( ~ T T T T S ( T ( S T S ( T T T ( S T T T [ [ T T T { T [ S T S ( m S ( ( ( I T I I e.|.",
"Y.[ S T T S {  .( m S T m [ T S S I I ( T I T [ T [ m S T T V ( [ -.[ T S %.S S S T B T T :.[ l %.( [  . .T B :.T :.{ T %.x.S.J.S.%.S S S [ S [ T S {  .S S T ( [ T T T { [ %.%.S [ T T ( { T :.S p S [ T :.T T [ T g c T S T T T { T :.[ e.[ %.m S T T m { k.Y.Y.:.m T V T T T T [ T T T %.T T [ c m :.T %.T [ m T S ( ~  .T T g T ( S m T } T S @.T [ S %.S S T S S %.{ @.[ @.T m [ T [ c T Y.Y.Y.%.:.( :.T T T c @.@. .}  .{ ( [ c m m c S S B T S T T S S T ( S S ( T T S T T T T T T T [ [ T S c [ {  .@.@.( ( S { I T T Y.",
"Y.5.( ( S T T B [ S S T S T m T S S S T %.T  .( T T T [ T I T S ( T T [ T T :.%.{ %.T :.%.{ [ T [ [ %.[ ( @.{  .[  .{ ( [ x.Y.J.S.T { [ S [ @.T T { T [ T ( S [  .T T ( ( { [ ( { T T %.( T T [ S c T S :.S T S T S S S S T S T T ~  .S [ T T S T ~ S T T S S.Y.|.:.[ S [ T T ~ S T T S ( %.T S T c { T  .{ T [ T T %.[ } ~ S S [ [ T c B T ~ T { S S {  .S T T S m ~ T ~ T [ T S T T T { T T Y.Y.Y.J.:. .S #.@.@.[  .%.( [ %.~ [ [ [ m T B m ( T T T S T T ( T T S T S [ T [ S ~ S T T S T S { %.m [ I ( S [ [ S S T S  .T k.Y.",
"Y.( S I I [ S T @.I I I m T m S S S T ( T ( B m S [ I T ( @.T T T ( T [ T { T ( T T T ( T T ( { { @.T T {  .[ T #.{ ( [ T e.Y.S.S.%.T [ T  .( ( T S T T { { [ T T c T [ T :.[ T { %.T { T [ [ [ ( p T :.S T m T m S T ( T T T S T ( T T m [ { T T ( T T T [ k.Y.E.:.S S T ( T T S { ( [ T T T T { T ~ S ( T [  .T ( T [ S T S T :.S { [ T S [ T m T T S T T S T T %.T T T [ S T T  .T [ S m S Y.J.E.x.#.:.%.:.:.( @.T @.T { T [ T T T T ( T S T T T ~ ~ T T S T T T T S  .%.T S S } T T S T S ~ T T { [ ( T S -.S T T T I T { ).",
").:.[ T ( T m ( [ S ( T S [ T T T { T S  .( [ V S T T T T m ( @.@.T [ (  .[ [ { T { T [  .S { { [ ( :.%. .( %.( @. .T T %.k.Y.S.k.[ %.( @.[ %.T ( B T [ S T ( T ( [ [ S [ ( T T T T [ S T T [ :.c :.%.T ( T B T S m T m S T [ T T T { T  . .[ ~ { T %.c T T S.).[.:.T T %.T T T  .m  .[ @.T T T T [ @.[ { { m T T T T S S T T S [ T [ ( ( T V S  .[ [ ~ { [ ( T T T @.[ %.S T %.@.T T [ m T T Y.Y.E.H.#.:.#.{ e. .S [ [  .( T T @.S ( T S T T [ T T S T  .T T S S c { %.} S T S T m ( T T T T ~ T T @.[ %.T T T  .m T T [ ( :.Y.",
"J.k.m [ S ( S T T S m S l S S T I { T S I T c T m { T T m [ @.S S [ T  .S %.T T T S T [ T ( T [ { T %. .{ [ T ( T %. .( T S.Y.E.S.[ T T T @.T %.S T T ( T ( T { S T V ~ S T T T c S m T S T T S [ S T  .S ~ ~ { S T S T S T T :.S T %.T ( [ S T T { S T S T e.Y.Y.T T T T T S T T ~ ~ T S S S %.T T T %.S S S S S l S T S T S S T S T @.{ T T c S ( T T S T T [ T [ %.T S T T T T ( S T m S S |.J.J.e.T { @.( [ T [ [ T T T B T T S T T S T S [ S T m @.T m [ T T T T m T ( T B T T { ( S S T [ T ( %.[ S S S I S S T S [ S k.Y.",
").:.( T { [ [ I S m S T T m T m T S S T [ I S m I ( [ S T ( T ( ( T S T T T T T T T T T ( { :.{  .S @.T  .T T %.@.{ T T [ e.[.E.J.S [ [ T T S T [ [ T T ( T T { [ S T { S T ~ c m S T ( T T T S S S T T T T S T T T [ S [ T T S ( ( [ T  .B T S T T T T T T e.Y.Y.%.S T T T ~ ( T  .~ [ T T T T T T T T T c T c S S T ( T S T S ( T T S :.T  .T T m T T S T [ T :.T  .S ( ~ T S S  .T T T S T .XY.J.e.T @.[ @.[ [ %.@.T ( :.T T  .T [ m T T T T S c T ( [ T T { S [ T T ( [ T T T S T T N T { T %.T S ( { T T m { T  .T T I e.).",
"Y.[ [ I { T T T %.T m T S S S T S S S { I I m S I T T T T [ @.[  . .%.m @.T T T S S ( { T { ( @.T  .m { {  .[  . .S T [ %.e.E.Y.J.{ ~ [ [ %.( S T S T m [ ( T T [ ( S p T T T S T T T S T [ m S @.T [ ( S T T [ T T T [ m ( T [ %.{ ( ( S :.T %.T u S T ~ #.:..XY.( T [ T [ @.@.( T T T T T S T T @.T S T S T S T ~ S T T %.S S T S T T T S T S T T T [ T T @.T T T T %.T ( [ [ T %.p S S T T |.Y.Y. .e.( :.@. .@.[ {  .l %. .[ { :.T T T T [ ( m S T @.S  .m :.T c T [ T T T [ c  .T S S %.T [ l %.[ T @.T I %.T ( T { T @.( ).",
"|.( S T ( I S ( %.T S T B ( S S ( ( [ I T S [ S m S { T [ T %.{ T [ T [ %.( p ~ ~ T T m :. .( [ @.%.{ { %.( ( %.T @.( S ( e.E.Y.J.[ %.T  .T ( S S  .{ T T c T T %.T [ T [ ( S T T S [ [ { [ T ~ [ T S S T S [ T T ~ T @.[ T T [ T m T T ( T :.T [ ~ T m [ S x.).[.[ S S { T @.( { T T T ( T [ T [ T [ S T S [ B T S T S T T T T T T T T  .S } T ~ T S T { (  .T [ T T T [ c  .( ( T T S T T S Y.Y.J.%.( :.{ %.@.T  .( [ %.T [ ( %.T  .T T S T m [ [ ~ T [ [ T ~ T S ( { ( ( %.T T ( ( c T %.{ T m T T I T T T ( @.m ( T T m  .Y.",
"S.k.S [ T %.S T B S m T I T S T S S ( ( I %.S T S [ S { ~ I ( T T  .[ ( T [ T [ m  .~ T ( ( ( { [ [ ( [ T %.T { ( :.T %.[ :.Y.S.S.[  .@.( %.T T T m T T [ T T @.S T T T S T S T T S T T S T S %.S T [  .S T T T T [ T [ T T T S @.( T ( S T [  .T  .T T S S { J.Y.T S S T T ( { c T T T S  . .T T S S ( T T m m S S T T S { S T [ T T S ( [ m S T { ( [ S [ T S T { S [ S T @.[ T ( T T [ T m J.Y.Y. .[ ( T ( [ S S [ [ @.%.T ( T  .S %.{ ( { ( { T l [ T  .(  .[ V ~ [ @.{ { @.S m { T S T T T T I S S [ [ T S I S ( T T T e.N.",
"N.I l I [ I [ ( T T [ m T T ( I ( [ S I T @.T T [ @.[ ( { ~  .I  .}  .@.@.T T S :.@.( [ :.[ ( { { T :.:.%. . .%.[ %.%.%.{ :.Y.x.J. .:.@.#.T :.@. .[ T [  .S [ @.( T T S [ @.( T m T ~ ( :.T %.@.T %.{ m { T S S @.T [ %.T  .[ m :.T ( :.T S  .[ [ [ { ( { T e.J.).{ T T T T T :.T B S S S m [ T T :.S ~ S S T S { T S S T T T T @.T S S  .m T T S T [ [ T { S { [ S ( S S T :.S ( [  .( m T @.Y.Y.J.:.:.@.@.e.@.:.:. .( S S #.%. .T g ( [ %.e.@.T { e.T T [  .T [ T [ T :.( [ T [ ( S [ T :.T T I T T S S S T I ( T ( T T p ( N.",
"N.:.m T ( { T T S S T [ T [ T S T T m { #.{ S I S { T  .T  .T %.~ ( [ T ( T T %. .{ T S { %.[ [ @.[ @.:.{ ( T :.%.%.T @.T :.S.S.e.[ [ %.%.T  .S S %.T @.@.@.~ T T } ~ T S S S S S T S %.T ( m m { S T :.T T T S S ( S [ (  .T [ :.( [ T ( { ~ ~ T  .S T S T %.Y.Y.{ T ~ T [ ~ T T ( S { T ~ T S T T S { m T m ( m T S T T ( T T S ( T T m T T T ~ S T ~ T @.S [ { T ( { } ~ T S ~ ~ T ( T T T Y.U.Y.:.:. .:. . . .T [ %. .:.[  .( [ [ T T  .T  .T S T @.S :.[ T T T T T S ( ( S [ [ T T S S m T T ( T T T { S I S T ( ( I m -.N.",
"Y.%.I I ( ( [ T ( T T T %.[ S -.[ [ %.:.@.#.I [ T T :.( #.T  .%.{ T :.I ( T T :.{ { :.[ :.:.:.[ [ %.:.%.S [ T m :.@.@.{ ( S.Y.Y.Y.T ( [ { :.@.:.S @.{ [ ( T :.:.( [ T [ T T :.S [  .[  .:.%.( :.:.T %.@.[ [ @.( l T [ T ( T [  .T S (  .[ %.:.{ T T T S (  .k.Y.|.[ T T T S @.m T T T [ ( S { T T T ( S T T ( :.{  .( [ T ( %.! [ ( T ~ %.T [ @.( S T #.[  . .T T T T S ( T T @.@.T %.S S T { [.[.Y.{ :.:.%.:.:.@.:.%.@.[ #.:.:.(  .@.@.T ( S T :.{ T ( :.:. .@.%.%.{ V {  .:. .:.T { T ( T ( I ( ( m m { S T T [ (  .[ ( T :.J.",
"Y.k.T I -.%.:.I %.m S c l T m p l m T T B { ( c p m c T N c T p T T c T S S S m m m p V T T m S c S m S m v m p p u f p %.Y.Y.S.l.v N c T T S T T S m S B S T T m T v ~ S T T T S p S S m m T S u ( T m ~ m m S S l B T S ~ [ T T T v T c m m m c m c m g m J.).Y.e.f u m V m T S m T T S c  .T m m c S V ~ c S ( c B S T c m T m c @.{ S c p m c u T m S [ S T T S l  .m ~ S S S m S c c c S Y.E.E.:.6 m B c ~ S S S T m T m m T S m S T T S ! ~ c ~  .S B l %.T T v [ m T S T m c c p c S V S I I u S m c m :.S :.{ -.S T e.Y.",
"J.J.S.J.J.S.J.J.J.N.J.J.J.J.Y.J.J.J.Y.J.J.S.J.N.S.N.J.J.Y.Y.Y.J.J.J.Y.Y.J.J.Y.S.J.J.J.J.J.Y.E.Y.J.J.Y.J.Y.I.Y.J.Y.J.Y.U.E.E.Y.J.Y.S.J.J.J.I.E.I.Y.Y.Y.Y.J.J.Y.J.Y.J.Y.J.J.J.Y.Y.Y.Y.Y.J.Y.Y.Y.Y.Y.J.Y.J.U.U.).Y.Y.J.Y.Y.E.U.Y.Y.Y.I.E.Y.Y.J.Y.Y.Y.E.E.Y.Y.Y.Y.Y.Y.J.Y.Y.Y.Y.Y.Y.Y.Y.[.Y.E.I.Y.Y.Y.J.Y.I.Y.E.Y.J.Y.E.E.E.E.J.Y.Y.Y.J.).Y.J.J.I.Y.Y.J.E.J.J.Y.J.Y.Y.Y.Y.Y.Y.E.Y.J.Y.J.E.Y.J.J.Y.J.I.J.I.S.Y.Y.[.J.Y.J.E.Y.J.J.Y.J.J.J.Y.J.Y.S.E.Y.Y.J.Y.S.J.J.Y.Y.J.J.E.E.E.U.J.Y.J.k.x.J.U.H.J.J.J.N.Y.Y.S.S.J.J.J.J.J.N.U.H.Y.J.",
"S.k.N.N.J.J.J.k.S.S.N.N.S.J.I.J.J.J.N.J.J.Y.J.H.J.J.J.I.J.Y.Y.Y.Y.E.Y.Y.J.J.J.Y.Y.J.U.U.J.E.Y.Y.Y.Y.J.Y.Y.Y.S.J.J.J.E.E.Y.E.E.E.J.J.S.J.J.Y.Y.Y.E.Y.Y.J.J.E.Y.J.J.Y.J.E.U.Y.Y.Y.Y.[.Y.Y.Y.|.Y.Y.J.J.Y.J.Y.|.Y.).Y.Y.Y.Y.J.[.Y.Y.Y.Y.J.Y.E.Y.J.Y.Y.J.E.E.Y.).Y.Y.Y.Y.Y.Y.Y.Y.E.E.Y.Y.Y.|.Y.).Y.Y.Y.J.J.Y.Y.Y.Y.Y.Y.Y.Y.|.Y..XY.|.[.E.|.Y.Y.Y.Y.|.Y.Y.Y.Y.Y.Y.I.Y.E.Y.Y.Y.Y.E.J.Y.Y.Y.E.E.Y.E.Y.E.Y.Y.J.Y.J.Y.Y.Y.Y.Y.S.Y.I.E.U.Y.J.Y.J.Y.Y.I.Y.|.Y.Y.E.Y.Y.Y.Y.Y.Y.Y.Y.E.E.Y.Y.[.Y.Y.J.J.I.Y.H.Y.N.J.S.J.J.I.N.J.J.k.N.I.S.J.S.J.",
"|.Y.[.Y.|.[.|.Y.Y.Y.Y.Y..X[.[.[.[.Y.[.[..XY.[.Y.Y.).Y.Y.Y.J.J.J.Y.[.[.[.`.)..X|..X.X|.)..X[..X).`.|..X.X%X[..X)..X.X.X[.`.|..X|..X[..X`.$X.X%X.X.X`..X)..X).).|.).)..X|.[.[.|.[..X.X.X|.|.E.Y.S.J.Y.[.)..X)..X)..X`..X.X.X.X.X`..X.X.X`.OX`.`..X%X.X.X[._.`..X.X@X.X.X.X%X.X.X|..X_._.|..X[.[.)..X|.`.|..X[.).[..X`.`.|.[.|.|.J.Y.J.E.[.[.).`.`..X[.|.|..X`..X|..X.X.X[..X|.|.|..X`..X.X.X.X|.[.).[.[.)..X[.[.Y.).E.|.[..X|.|.Y.[.[.).)..X|.[.|.|.Y.[.Y.[.Y.Y.Y.Y.I.Y.Y.[.Y.).|..XY.Y.Y.[.E.|.).).|.[.Y.|.Y.Y.Y.Y.Y.Y.Y.[.[.).[.",
"e.k.5.@.N.J.J.N.k.Y.J.k.Y.N.N.J.J.k.Y.S.J.J.Y.N.N.S.J.S.[.Y.N.J.Y.S.x.x.J.J.k.J.:.k.e.S.S.k.e.S.S.J.S.e.J.S.e.Y.k.S.x.J.S.J.%.k.x.e.x.i.S.Y.S.I.Y.S.Y.I.Y.J.J.S.Y.x.J.x.J.J.S.e.Y.Y.Y.J.S.$XJ.J.S.Y.:.J.e.Y.J.k.e.e.S.k.S.S.e.|.[.S.J.S.S.).k.S.k.@.S.S.J.J.S.J.e.Y.I.U.S.J.Y.Y.Y.k.[.Y.J.[.I.Y.Y.k.J.Y.E..XJ.Y.[.[.Y.Y.Y.Y..XY.J.J.|.E.I.J.[.|.J.k.S.J.J.J.H.Y.S.).[.Y.J.Y.|.J.J.J.e.S.S.Y.Y.J.k.J.I.I.Y.J.`.E.Y.J.J.Y.J.Y.|.|.Y.Y.Y.J.J.Y.J.S.Y.Y.Y.Y.J.J.S.[.Y.Y.J.[.J.|.|.Y.Y.[.Y.Y.J.Y.Y.|.|.|.Y.).J.Y.Y.Y.Y.).|.Y.N.J.J.Y.",
"[ m I S { S I T { I S I { S {  .T T S S T m T l [ T T S :.Y.E.J.S c  .T T T { c T S T { T T @.T [ [ [ ( ( S @.T T S [ T { T T ( S T %.~ T T [ ( T ~ S T S S [ S  .T S T ( S @.T [ ( { T T  .[.I.e.T T T { %.:.~ ( T T { ( ( [ { :.@.:.%.%.{  .(  . .%.@.[ [ @.T  .(  . .:.%.:.%. . . .T e.#.%.:.e.%.:.%.:.%.T :.:.:.:.%.#.[ x.Y.H.e.~ N  .S @.( T T [ T @.T @.[ ( ( [ [ [ S S S T T T S T T T T  .[ [ m ( ( S m S T T m T T S %.T m T T [ T %.S T S T T m S S T Y.Y.k.%.[ T  . .T (  .T @.:.I [ :.[ %.T I I T S I S T l S T S S ",
"I T T T T S { [ I I T T [ T [ T T [ T I T %.T T T [ S T e.J.J.J.~ S { T T [ { T m ~ T ( S { ( T T [ T  .%.{ T T T  .( ( S ( T  .( ( T S S T S m T S T { T [ T ( S [ T { S T T T T %.T ( T @.Y.|.Y.[ S T ( %.%.[ T [ T ( { ( ( T #.@. .@.:. .T @. .@.(  .( T [ :.{ :.( @.( %.S  .%.@.%.:.%.#.( :. .:.#.:.@.T @. .@.:.:.:.:.e.e.Y.Y.%.T ~ S (  .[ T [ [ :.[ { @.[  .%.T %.T S { [ c T T T ( ~ ~ [ S [ T [ [ S S T S T T T T T { %.T @.T T T #.S @.[ T S { T m m ~ Y.J.i.%.[ :.[ T {  .[ @.[ T (  .( T T I S [ ( T I ( S T S T T T ",
"T [ m ( [ S [ I ( I ( [ { ( T  .I m I I T S T { I [  .I :.I.Y.S.( T ( T S T ( S [ T ( T T S { %.T  . .( T [ [ :.%.S { T T T S T T T  .T T S ( T T T [ T ( [ { T S [ %.S T T T T @.@.T T ( :.Y.U.I.[ T [  .( ( T [ S T { (  .[ T  .[ [  .:.T ( { @.[ T @.T (  .T  .( %.{ @.@.:.%. .:.T { :.%.:.:.@.e.i.:.:.T :.:.@.( :.#.{ e.e.Y.J.%.T { T @.:.[ @.[ T @.[ T @.@.[ %.T %. .[ { S ~ T T @.T ~ { T S T T T :.[ { ( ( %.m ( %.m %.( m ~ %.%.@. .@.[ [ ~ T T S T ~ S S.J.k.:.%.#. .] @.%.(  .-.[ ( %.{ T B l T [ T T [ T T S T T S S ",
"T T S I T S c m S T { ( S T T ( S S T m T S m I T T T S :.Y.J.J.T T T ~ T  .S ( S T S m S } ( T ( S m S T T m @.@.S S S @.T T { T { S ( S @.S ( S ( T T %.{ T ( [ [ T T T ( ( T [ :.T T N %.Y.J.S.[ S T T %. .T S [ T S ~  .~ T T T T T ( { S T V [ m T S ~ ~ %.T  . .T [ { T ( T %.T  .S :.:.@.S [  .{ T %.T %.%.:.%.:. .%.:.Y.Y.e.S S S T  .T T { ( T T { S T S %.( T T m S T m %.( T T [ @.[ [ {  .T S @.T [ T { S T S T T T T T T ( T  .S  .T [ T T m T m S J.Y.e.e.[ @.( ( #.:.~ T T S [ %.S [ ( T S { S T S m [ I S S S T ",
"B T [ I m m S T S B S T S T ( T S S T S S S [ T S T ( T k.Y.J.S.m } { T { ( T T T S S T [ }  .[ [ T [ T  .S T T [ S [ T ( { %.[ ( T ( T T m S T T c S T %.[  .[ m T T %.{ T [ T  .@.( [ ~ :.Y.J.J.S T ~ [ T T T T T S [ T T T [ [ T @.T ( T T m T T T S T ( T S T { m { T %.@.S ( { T  . .:.T ( @. .@.:.@.%.T @.:.:.:.:.%.%.:.Y.J.:.( @.[ T { { T T %.T { T T T S { [ m S T T ( T [ ( T [ T  .T @.T  .@.T [ T T T S T B T T ~ { m T T T [ T ( c T T  .T T [ S { ).J.H.i.[ T { T @.{ [ I { ( T T ( { [ T T T T l T S T T S [ ( T ",
"T I [ m T T m m T { I [ T T I T [ I S S m l T T S T T m  .Y.Y.Y.-.S I %.m T T T T T S [ S T T T T T ~ :.T T m S T { S T {  .T ~ %.[ T T ( m [ T  .T T [ T S ~ [ T S c T T T T [ [ [ S ~ ~ i.Y.J.S.%.m S T T S T ( [ T T T { ( T  .T T T T T T [ T [ T [ T [ S T c { ~ S ( T T { #.T T ( [ ( T %.%.@.( %.{ :.:.%.:.#.@.T @.%.e.Y.J.k.@.T T %.( S T %. .[ { T S [ :.%.[ S %.[ ( ( [ T S T T  .@.{ T ( T  .[ :.(  .{ T [  .T @.T [ ( %.S  .T S S S { T T T S S T [ Y.J.k.:. .[ T T S [ ( ( T T ( [ -.:.T %.T ( T T [ m S T [ m T T ",
"I S I T T S T [ [ m [ T [ T T S { S m S I T I S T T [ T T J.I.J.T S T S  .T S T T ( { T ( S T S T [ S T T T V ~ T T S [ T T T T [ S T [ T S S T T S T T } S S T T ( [ S ( [ ( :.%.S S T  . .Y.S.J.T [ T T T [ S ( T { T [ T [ T ~ T { T ( T ( [ ( [ ( ( %.T T T T T [ T { ~ [ T %.( ( [ ( %.:.S  . .~ %.{ %.%.%.@.:.:.@.T T x.J.[.e.T T T T T ( { T [ { { T [ T :.T ( S ( T [ [ S T [ T %.@.@.T ( T [ ( { [ S ~ ~ T T [ T [ T T [ ( { T T S ( T T T S ( S m T S Y.S.S.{ ( S ( ( [ T T (  .( T [ :.I [ %.{ I T [ S S T S S S [ S ",
"S ( S T S S S T T T m T T I S T m S l m m m m I T T m T e.J.Y.I.T S S T S T S T T S S S T T T T S T T T S T T T S T T ( [ T ( T T ( T [ T T S m S [ T T T T T m T T S { S  .S @.~ S [ T [ @.Y.Y.x.[ S ( m { S T T T { T [ ~ T m ( T [ T T :.T S S S S ~ ~ T T T p m S S S T T [ [ T S ( ( S [ T T T @.~ ~ @. .@.( %.%.{ T [ e.Y.S.@.S T m S B T S T [ T S ~ T %.[ :.( %.T T S S T { T  .T @.[ T S ~ ( T T T S ~ S T S T S m  .S c { T T S S c :.S S S T S m T T I.E.e.:.{ ( S [ T T T [ T I  . .( [ ( T T T m T T [ I I S T I T ",
"S T c T I { [ T c S T T { I I S T l T T S S l T T T I I :.J.Y.N.m { S S T S S S T T T T T [ @.T S T  .m T [ T T S T S T T ( T S T l @.[ m [ S T ~ B T m T [ :.T [ T { :.T %.m [  .T  .T [ { [.Y.J.( T S S S T S [ [  . .S ~ T T ( m T  .T T T ~  .[ [ T S T T  . .%.T ( {  . .m [ [  .S S ( ( T @.T T [ :.( S %.:.( :.@.T :.:.Y.I.( T T T S T T T S [ { T S T [ @.:.:.:.( m %.{ :.( [ T T S [ T %.( [ @.[ T T :.{ S m c S m [ T T T [ ( S u T T T @.S [ T p T S [.U.k.x.@.T %.I I T %.[ ( { T %.:.( [ T [ ( T S @.{ T T S T [ @.",
"( T S [  .T T ( [ T S T I I m T T I S T l I l T I T T S T Y.Y.J.[ S T g T S S T T T T T T { T [ T T T T T ~ T @.T { S g ( T S [ T %.( T T S c S m S S S T { S [ S T T T { T T T T T S %.~ :.Y.U.k.T [ [ T { [ T T T S { @.T S T { T ( T %.( ~ S T  .S S T T S S [ S T T T [ T  .S S { @.(  .S :.:.S T  . . .T T {  .{ T { ( k.Y.Y.e.S S B T [ S V } T T T %.T @.%.( [ ( T @.S [ T [ T T [ T T T [ [ e.[ { T T T T ( T S B [ T [ ( T T m 6 m S ~ T S S S S T S T Y.Y.e.T T %.[ T I T I { ( %.T T [ [ ( T [ %.T T I I m S S T S T ",
"S T S T [ ( I T T [ ( T [ S T m T I c I T T S S S S T l %.Y.Y.J.T S [ T [ T [ T ~ B %.T T S T T [ @.T ( { } @.T T T T [ T T S S { T  .S T S  .T S S T T B T T T [ T %.{ @.( T T T :.@.T ( %.U.J.S.T ( S [ T T ( T T T [ :.T ( S @.T { T T ~ :.T T m T T T S { m T S { { T T T S T T m { T { S ( @.%.[ [ %.( [ {  .:.:.[ ( T S.Y.Y.:.T S T ( e.T T T ( [ [ (  .{ @.T [ T ( T :.S %.T S T { ~ @.{ @.S T T T m  .m T @.S T T T [ ~ T m T S  .S ( m T T { [ T S T T ).J.:.@.T %.[ @.T T ( ( [ [ ( { I [ :.I { T T T S T S T S S T T ",
"S { S m I I S { T ( T T I S S T S T T I S S m I B T T S S I.J.Y.S T I m T I S I S [ S T m %.T [ ~ T T S ( T %.T S S T [ T T S T ~ { [ T m T [ T l T T [ m S T S S ( T T [  .( T T  .S [ S ( Y.I.S.T { T T @.T T S ( T ( T ( { V T %.T  .S T T T T p T T T T S T m ~ T @.@.S S ( S m T [ T T T ( T  .T [ T  .[ %.[ :.T T T #.@.J.Y.:.S [ ( T :.S T ( T T T T T ( T S T [ T [ T T T [ S T T S S [ T T T [ T ( T S S T S S T S T T T S S %.S T T S T [ T { S m S S Y.Y.:.:.T [ [  .S T I [ [ T ( %.@.;.{ m T [ T T T T T T S c m T ",
"m T I T T T S T I l S T m I ( S T T [ m S T S S T S S ( l.J.Y.J.T S ( T T T S ( I S [ T [ [ %.%.[ @. .T T S S T T S T S ( S { S T T T S T T m T l T S m [ S :.[ T @.%.( T S [ m T { S } m :.J.J.J.S { S %.T ~ T S T ~ %.[ T [ [ ( { T { %.T { S T m m T { T T [ T S ( T :.%.~ ~ T ( ( T T [ %.%.%.{ [ @. .T [  .:.{ %.%.T { e.Y.J.%.~ { [ T  .( T T ( T { T [ T { T @.( T { [ m [ ( T T T T @.T :.T T ( [ T  .S T c c m m g { ~ T ~ T T S T S S T c ( T m T S { Y.Y.x.:.%.T ( [ ( [ T T [ [ %.{ @.( ( I { [ [ m [ T T m S S T T ",
"T I S T m T T S I S S ( T @.T I I I I I I T S T c S m ( l.|.Y.J.T S S [ T S m T T T S T T T T T %.T m T T T S p ( } T T ( T T T [ T m T T S S m S S S T B T m ~ T m m [ T S %.S T ( T  .T %.J.Y.S.T T T  .T ( c T ( T T T ( [ [ T T { [ [  .( S S S 6 c T T T T [ T T ( T T S T S ( T [ T ( ( { { S T T [ (  .T %.@.{ T %.( T Y.J.:.T { S { T { S [ ( T T ( ( T ( ( [ T S [ @.T T [ T B { { S [ :.@.T [ T T T T c S S S m T T T T c c S S [ T S g %.T T S T N S Y.Y.k.k.@.I { T  .T I S [ T [ @.[ @.[  .[ I T T l ( S S m l m S ",
"S m T m S T @.T T I T [ { T I S T [ %.T I ( I T S { I S T J.J.I.m S T I [ I ( S T { T [ [ T ( [ @.T [ S [ T T S m ( T T T ~ S S T S T S T T m c S S T T c ~ T m T S S { T ( @.:.@.T  .@.T T Y.k.S.S T T T ( S T T ( T T T T T T S T { T T T [ T ( l T ( [ T S ( S [ [ [ [ T T T T ( T [ ( [ [ [ { T [ { @.@.:.:.:.[ %.[ %.m :.J.E.:.{ c [ ( %.{ T { [ [ T T T @.[ [ T ( [ S [ T ( S S { T T ( [ ( l T T [ T ( S T T T T ( T T T m S m S T T T T { [ T T T S S T [.J.k.T [ T ( { -.@.T ( [ T T @.;.S @.[ ( m { [  .{ ( I { T { c ",
"T { T ( ( T c T S { S I m T S T [ [ T [ T [ I T m ( l T e.I.Y.J.I S g @.T %.( T S m ( ( T T { T T %.~ m { [ T m S [ {  .T  .c f S S T m S T m m m S V c l T T :.m T ~ ( [  .S ( ( T ( S m :.Y.Y.S.( S T T { [ ( S S T  .S [ V ( ( T T [ c [ m ( T T S S m ( { m S ( [ S T { S { T T S T (  .m %.%.T ~ @.@.:.@.( T %.[ ( ( ( e.Y.S.e.{ m m ( @.T S T S T T T S [ T T m @.S S  .~ T  .{ m T T T [ ( @.T %.B c m S T T g c m ~ m m T  .T m %.T S %.:.T T m S S l T J.Y.k.T S T T T ( ( ( -.I %.@.[ :.@.[ [ T T (  .( m ( S T l S S ",
"T T ( S  .I  .S T S ( T [ [ T ( ( T I T m T S T [ [ T S l.I.J.J.m T @.T S { T T { T T S :.T T T S T ( ( ( ( T @.[ T S S T V [ m  .T [ S T c T m S S T T S T T :.m S T %. .T  .%.[ @.@. .%.e.Y.J.J.T [ T T { m S [ S T S [  .T T S T  .S T T T [ T T ( ~ [ S T [ T S  .T %.T  .( [ %. .( T T ( :.@.m T :.%.@.%.( :.:.%.:. .@.e.J.J.%.T [ ( ~ } ~ T [ T S S T :.T [ T T T T T [ T T S T m T }  .T T T T [ [ S S S c l T m ( B T p l S { ( [ ~ ( S [ c [ { T m m c Y.Y.l.:.{ ( { ( T T { { T T ;.( %.S  .T { (  .T I T %.T I I ( I ",
"T T S T T T S S I I T ( I l [ ( [ %.T m T S S T T T T T e.J.Y.J.T S S S S @.T B T T m T T [ S T m S T T [  .T { T T S T T S T T  .S T ~ T T S S S S S ( m S T S S m m S ( T [ { T @.~  .N ( Y.Y.S.( T T T { S T T [ T [ T T T { m %.S ~ S S T T T m ~ ~ T T ( S 6 T ( S ( [ ( T [ :.( T %.{ T T S T T :.[ ( S %.T  . .:.T [ e.Y.k.S.@.( T ( T %.[ m T  .T ( [ T T T m [  .T  .T T m S T m  .T T  .~ } c T :.S ( c  .T T T m T S B T T [ T m  .( T T T ( S S m T Y.Y.e.l.T %.[ ( ( { T %.%.S ( I %.T [  .T ( I  .T I S T T p S S ",
"T { { T T I { S m l I T [ [ @.T -.T ( T T S I T T ( T S S k.Y.S.I m I T T [ [ T I T ~ [ ~ [ T T T T  .T %.T T T T T [ p T S  .~ T %.{ T T T S S m m S T T T [ T ( (  .T :.{ [ T T S S { S :.|.I.J.[ S T %.{ T T @.T { [ [ T T S { T %.[ T ( T T m [ T [ T T T m c ( T T ( [ T ( [ c @.%.@.%.( S T %.:.:.[ :.:.T [ ( @.:.%.[ k.Y.Y.k.@.%.@. .(  .[ T [ [ %.{ S ~ T T @.( [ [ ( B ( T T T [ S S [  .%.@.S B [ S T [ S T p { T ( T S S T m ( T  .T T T [ T T S B S ).Y.l.%.[  .[ (  .[ :.S [ (  .I I I ;.[ ( T ( { ( S I [ [ [ T I ",
"[ T S I S S m c m T T T ( T { T [ [ S @.T I T T S { S { -.Y.J.J.l T S ( S  .m T T T T T T T S m S S T m T [ S S S u c S c ( S [ T T T @.S T S T S T m { S T ( S T T T S T [ ( ( S ( S T B %.J.Y.S.[ [ ~ T S T T T T [ T T [ T T T T ( ~ S [ S S S S T ( S ( S ( S T T  .T {  .( T m ( S T ( T  .T [ ( [ ( %.T [ T T T ( [ T :.[.J.:.m [ T T T T T } T T T [ S T m T T [ T [ T T m T S T m S T T T ( S ( S T [ T g g S T T T T %.S S T S T T [ c m T m T T T c T J.Y.e. .( { ( T @.%.@.B T { T [ T  .( ( T @.T [ S T I [ S T I [ ",
"T S I m S S %.S T S T T [ ( %.( [ [ ( T T T m I ( I @.S k.Y.Y.J.T S T I T B c S ( T I T  .T [ T T S T S S S 6 B m S T m T S S T m T ~ ~ ( S T T S S S c T S :.S T T T T T [ T T { T T S T :.).S.J.T T T  .T T S T T T T %.S ~ T T T T T [ S [ m T T [ S @.T T S { %.T T T T T T T T [ ( S T [ T  .S T  .%.{ { S { @.@. .[ ( e.Y.Y.e.[ T T T %.T T  . .[ ( T T T [ T [ ~ ( m @.T T T S ( T S ~ m T T T T T T T S S m m T [ T [ T S T T [ T S m m m T T [ T m S T |.J.k.e.S [  .T @.[ { ( I S [ [ { T  .T [ ( I { [ T [ S B ( { T ",
"T I l I m S S T %.T T  .T m ( %.T [  .T { T I I [ S I %. .|.Y.Y.:.S @.m T T T S I I V m @.( T [ B T S T [ c S S S ( T S S  .T m  .T S T S [ c T T m m { m :.m [ @.%.[  .T [ T T T ( m T ~ T Y.J.J.%.T T [  .m  .T  .S S T { m T :.T T T  .S ( T [ T [ [ ( T S T ( [ m T T %.[ S T [ ( @.T [ w T  .[ ( [  .%.( @.( %.T :.[ :.S E.Y.e.:. .T ( :.( T T T ~ T T ( T T  .( m @.T [ S T S T T S  .m S (  .T { T ( S l m m S S m @.S T { T S :.T T S T T T S T B S S p Y.[.k.:.[ { S [ S S m  .T S T { [ [ T -.[ %.m I I  .T T S T T T ",
"I I S S S m I S T T T [  . . .T [ T S I { S { T S T S S e.Y.Y.Y.T S T [ %.I %.I T  .T T T [ T T %.S S T S T T S T T S { m T T T ( T S T T T S T ( l [ T T g T T ( [ T m ~ S T { T S T c [ :.Y.I.Y.T [ T ( ( [ { T T [ T T S { { T T { T  .[ ( [ T :.S T [ [ T S @.~ T [  .T { S T [ S [ [ { [ [ :.[ [ T  .[ ( [  .S :.T ( [ :.Y.Y.:.B @.T { %.[ T ( T T { T [ T  .T  .S T T { S T S T m T S S S T S T  .{ c T V S T T T S ( [ m ( S T m S T S T [ T S S S T S [ Y.Y.e.T [ S S T [ T T  .I T [ ( %.[ ( p ( { I T [ p T m m T T T ",
"T S I T m S S T m T (  .T ( { T S @. .{ I [  .I I I I ( :.J.J.Y.( T S T ( T T [ T T [ [ T [ m T [ S { T S [ S T m T m T T ( S T S T [ T T T S  .T S T T T T T S ~ ~ [ { S T T T T %.T T T :.Y.E.S.{ S T ~ T @.T T T [ %.T T S S T %.T %.T [ T S [ :.T T S T T T g T (  .T [  .S S ( T T T T { S ( { %.[ [ [  .[ [ %.[ %.{ [ :.Y.I.:.} T T [ ( ~ T T S ( ( [ T [ T S [  .S S { S T [ S ~ S T ( S B T T T S S m T m S T T m T T T S ( m T S T T %.S T [ T S ( m [ Y.Y.-. .I I S T B I T T T T I [ p @.S {  .S m I m S S l m S I ( ",
"I S T I S T ( {  .( S [ %.S I T I :.I [ [ [ T %.-.[ ( T k.Y.Y.e.S I T [ [ T ;.( { @.[ m :.S ( m } T [ [ T S T S S c S T T T { T m ( @.[ T T S m  .T [ T { ( [ m m [ :.T B T S T [ #. .T T :.E.S.S. .%.T [ T  .T S S [ ( %.S T S T T { { ( S %.m S S T T %.%. .T S  .( S T ~ ~ [ S [ { @.e.T [ ~ %.[ T @.:.S :.T %.( %.[ #. .:.S.I.T T @.S T e. .T T T [ m T T T [ ( S T T T T [ T S S T T S T S  .S ~ { m T S S T T T ( ( ( T T c S T [ [ c T T T T T ( m ( @.T J.N.e.[  .l :.[ %.[ I { [ T T I { T ( m [ m  .@.I l { B S T T I ",
"m T m T T m T S T T  .{ I ( T { %.[ @.( @.@.l I T [ T T %.Y.J.k.@.T T S ( [ T ( T @.( %.[ ( I T S T ~ m T T T S m S S T T T T S T T T ~ T S T ( T S S T T ~ S %.{ T S m T T T T ~ T { S {  .J.J.x.T ( T S ~ ( T } @.S [ T [ T T ~ T T ~ T  .{ [ S T [ %.%.[ T [ [ ( T ( [  .S T S T T T [ ( [ %.@. .( ~ [ [ @.T T [ [ T T %. .S.S.:.{ T T [ m  .S T T ~ S T ( T T ( [ ( S T S S T T S T S { T [ S T S T c ( S T T ( T ~ S T S T m S T T T S S T S T S S S T S T J.J.:.@.@. .[ [ { I I [ T %.I { ( T  .T ( S T T [ T T S T ( S S ",
"S T { I S m S ( T T S  .( ( T @.:.I %.( @.[  .[ I T ( T #.H.Y.Y.T S S S { %.I :.T T ( ( :.@. .[ [ T T m T T { T %.@. .T ( T ~ S ( T  . .T T  .T T T T S [ T :.T T S ( S T T  .T { #.T ~ ( %.E.I.J.T T T S T  .T } ~ ~ %.@.%.%.T #.~ { S { { @.( %.{ [ [ @.%.%.[  .T ( T ( T ~ T S S @.( T  .%.%.:.( [ {  .T [ [ T { [ T ~ { S.Y.Y.{ ( { [ S [ T #.T @.(  .[ :.T T ( { T ( T e.:.( { } @.( T ( T T T [ T %.T T [ [ T T T T T { %.T S [ T S T S T :.T %.T T S T T Y.Y.e.T { I I T %.S T I { T { T @.%.[ m T T T T @.{ I S @.S T I ",
"m S m [ ( T c [ T { { S ( T ( { [ ( ( [ S @.%.( S T T S S.J.J.J.c m m c T  .S T S T S T T @.T S m T T S { @.@.S S V  .~ ~ T S m u %.T S T T m [ S c S T #. .~ [ ( [ T S T T S ( m N T N c k.J.E.I.m S m S T S T T S ~ T T T  .T T [ T S [ :. .:.T S  .%.S #.{ T S { T T T @.T ( S c S ( ( T %.%.~ %.{ [ m @.%.T B T T S m v J.Y.J.e.v m T T S %. .T T ( [ T  .e.( { T :.m  .~  .%.S ~ %.T [ T %.{ S #.:.[  .c S  .c S T S %.T ( ~ S V S T [ T T @.m :.[ S S m e.J.Y.e.u S T S T [ I T [ T @.l [ l m [ I T T T T [ S ( { T c S I ",
"k.e.k.k.x.e.S.k.x.S.H.H.k.x.J.J.J.S.J.S.N.N.Y.S.J.J.J.N.J.I.Y.I.N.N.Y.S.J.J.Y.J.J.N.J.H.k.S.J.J.J.S.Y.J.J.S.J.J.S.S.Y.U.J.J.Y.J.U.I.Y.J.J.S.J.I.I.k.J.J.H.J.Y.J.J.J.Y.J.I.J.E.Y.Y.J.J.J.J.J.E.E.Y.S.J.J.U.I.Y.J.J.S.E.U.S.S.J.J.J.S.Y.J.I.J.I.U.J.S.J.J.U.I.J.S.J.S.Y.J.J.J.J.J.S.i.U.J.S.k.J.J.J.J.J.S.J.H.E.H.J.S.Y.J.I.I.J.J.J.J.I.J.J.J.Y.J.J.S.J.J.S.H.U.U.J.S.Y.Y.U.H.J.H.J.H.H.H.J.S.J.S.J.H.Y.J.J.J.J.J.J.k.I.J.S.S.S.S.S.S.I.J.J.I.Y.I.I.S.J.J.J.N.N.J.Y.N.J.S.I.N.S.J.J.S.S.S.k.N.N.N.N.x.k.N.l.e.J.k.k.k.N.k.k.e.9.S.",
"J.N.N.N.S.J.J.N.S.S.J.J.N.Y.J.N.S.I.J.J.N.Y.S.J.J.Y.J.J.S.J.J.Y.J.Y.J.J.J.Y.J.Y.N.Y.J.J.J.Y.J.J.J.N.J.Y.J.Y.Y.Y.Y.Y.E.E.Y.[.Y.Y.Y.J.E.Y.Y.Y.Y.Y.Y.J.I.Y.E.Y.J.Y.J.Y.S.Y.J.E.S.E.J.J.J.Y.Y.Y.Y.Y.E.E.Y.Y.Y.E.Y.J.Y.Y.Y.Y.I.Y.J.Y.Y.J.Y.Y.Y.E.E.E.J.Y.Y.Y.J.E.Y.Y.Y.E.Y.Y.Y.Y.Y.Y.Y.Y.J.Y.J.Y.Y.Y.Y.J.J.J.J.J.S.U.J.Y.J.Y.J.Y.I.E.Y.E.Y.Y.E.Y.Y.Y.Y.Y.J.Y.Y.Y.Y.Y.J.Y.J.Y.Y.Y.Y.Y.Y.Y.Y.Y.Y.Y.Y.Y.Y.E.Y.|.Y.J.Y.J.E.I.I.Y.Y.Y.I.Y.I.Y.J.Y.Y.J.S.Y.I.J.J.Y.Y.J.J.Y.I.Y.J.U.N.J.Y.J.Y.N.N.Y.J.S.N.J.J.J.S.S.S.S.J.Y.J.N.J.N.N.N.N.J.",
"N.N.J.J.Y.J.Y.Y.Y.Y.Y.Y.).Y.J.J.Y.Y.Y.Y.[.Y.[.[..X[.).).Y.Y.J.Y.).Y.[.[.[.[._.).[.|.).Y.).Y.[.).).[.[.).|.).).)..X).|.Y.[.U.Y.J.I.Y.|.Y.`.[.`.|.`.).|.|..X[.E.Y..X).`.).|.[..X[.`.[..X|..X)..XE..X[..X`.%X.X.X)..X|..X|.[.[.).Y.Y.Y.).[.[.[.|.Y.|.Y.[.).E.E.Y.S.I.J.[.).[.|.|.|.`.).`.)..X[.[.Y.[.[.).|.[.Y.Y.[.|.[.).Y.).[.[.Y..X[..X[..X[.).)..X.X@X|..X|.[.Y.[.)..X).`.|.|.Y.[.Y.E.Y.Y.Y.Y.J.I.I.Y.|.[.[.[.Y.).[.[.).).|.).Y.`.|..X[..X[.[.Y.).Y.[.[.|.).Y.Y.[.|.Y.Y.[.|.[.Y.|.Y.).Y.|.Y.Y.Y.|.Y.Y.Y.Y.Y.Y.J.Y.N.J.J.J.N.J.N.",
"k.-.k.e.N.N.;.e.T N.k.N.N.N.k.N.S.e.k.S.N.J.J.S.e.k.S.J.J.J.k.J.N.N.J.k.J.J.Y.J.Y.k.[.Y.Y.Y.Y.J.J.N.E.[.S.S.Y.|.Y.S.Y.J.).).J.J.S.Y.Y.E.Y.E.E.Y.J.Y.Y.Y.Y.Y.Y.).Y.Y.).Y..XJ.Y.|.:.J.Y.Y.Y.E.Y.[.J.Y.Y.|.Y.[..XY.Y..XY.).).).Y.`.Y.J.Y.[.Y.[.).[.|.).Y.|.Y..XJ.J.S.Y.J.Y.Y.).|.[.Y.Y.Y.).Y.[.[..X|.Y.).[.Y.[.Y.Y.J.S.x.Y.J.|.Y.[.Y.Y.[..XY.Y.).[.Y.[.Y..XY..XY..X.X.X)..X)..XY.Y.|.`.)..XY.Y..XJ.H.J.Y..X[.Y..X.X[..XY.`.Y..X[.).|..X.X.XY..X).J.Y.Y.J.Y.J.[.Y.).Y.Y.Y.[.Y.Y.).[.Y.Y.Y.Y.J.Y.[.).).)._..XY.Y.|.|.Y.J.Y.|.Y.Y.S.Y.",
"k.N.S S T T I c g S S { T l [ %.@.T I S I ( I [ S { :.:.( T T I @.S [ m ;.[ T S T S %.T @.I ( I ( S T  .:.[ :.@.[ T T T :.[.Y.I.J.:.%.S :.#.:. .S T m @.:.T :.%.:.x.e.@.:.@.:.%.:.:.:.%.:.:.:. .S :.:.%.:.e.:.T T [ @.%.k.%.@.{ :.T [ %.:.:.:.T @.@.T S T @.[.J.I.k.T [ T @.@.T T m T S T ( T ~  . .:.S ( T %.m [ S [ S T :.[ [ :.S :.T ~ @.:.T T %.%.( T :. .@.:.%.:.T T @.{  .{ :.:.T %.T e.U.Y.J.Y.e.%. .:.:.[ [ %.T :.T ( S { ( :.:.[ { :.T :. .@.T -.-.-.[ :.:.:.( [ I e.S ( S [ [ T S  .B :.{ :.( T S [ T T T @.T T m J.k.",
"N.e.T { [ T S l c S I S S S I S I [ I [ I T I T T I T T T T T ( T [ m S S T I I S I T T m ( I T T ;.T @.( ( S ( T [ [ S T x.H.I.J.[ [  .#.~ ( S T [ ( [ ( %.#.%.:.@.:.:.:.%.T %.:.@.:.:.#.%.T :.:. . .%.~ %.S #.T [ [ %.( [ T T @.[ T T [ T [ T T [ T ( T T S.Y.I.%.T [ S [ T { S T S %.T ~ T ( [ S T  .{ T { :.T S S { S S S S T ( T [ S [ } @.T T T  .{ { S  .[ [ { :.%. .%.S [ T ( :.[ [ S S.J.Y. .S ( %.( [  .@.{ { T T ( ( [ ( T ( T { %.%.[ T T @.I [ T S I I T ( I [ T m { S S I T T I I T ( S ( I T @.I m S S [ { ( e.N.",
"Y.e.T T T m S m S c m S S c [ m S { @.T I T T I [ T S ( [ S S { T I I T @.S T S S S T [ T T ( c ( [ :.T T  .T [ [ [ { [ [ k.I.J.J.( %.T :.{ %.S T T } [ @.} :.%.:. .:.:.:.T :.:.:.:.#.{ :.~ :.T %.[  .@.:.~ :.:.%.[ :.[ @.(  .%.[ S :.T  .T  .[ ( [ [ T T { S.Y.|.~ T T T S :.T ( B ( ( ( T ( T %.m [ T { S T T T S T T T m T S :.{ T T { ~ } [ T T T %. .@.T T %.T [ %.[ [ ~ %.[ S ( T T T ( J.J.J.:.%.[ ( :.%.[ ( %.T [ T  .( @.T T T @.[ S %.;.T [ T T ( { ( I I T ( ( I %.T T S S m T T T [ { [ [ ( I I T B S S T T ( S 5.J.",
"k.-.I S S m S I m m m S c T T I S T I p { B B m S I S { S T T T T I S S S T I S S I T T [ { I :.S S I [ { T (  .T @.S T S x.Y.S.k.{ T @.m :.T T T T S S S @.( [ @.[ T [ ( ( T [  .#.T  .{ :.@.T [ } T %.[ [ T { [ { T T  .@.[ S S T S m S T T T T T T T T T e.J.J.{ S T T ( T ( S [ S S ~ (  .T T { S T S T T T m m S T S ( S m S T T [ [ ( m T S  .{ T S ( T S T %.@.m T ( T [ T S @.[ S ( S Y.J.J.:.T { [ @.{ @. .( T c ( [ I T T S S S %.%.I I [ I I m T S  .S I l T S S T m m S S T S S I [ S m S m m I m T S T I T S I ;.S.",
"J.5.T T I S g B m l S m m B ( S I I S B S m m l S T S m T T u m { S T ( I B m m S p S S %.S -.T S T l ( ( T [ %.(  . .S  .k.Y.J.J. .%.[ T [ S ( S T S ( %. .[ ( :.:.%.S :.( T ( ~ { ( [ :.( S (  .[ [ ( T T ( T [ T T [ %.T m T [ ( S ~ T ( { [  . .( T T T J.J.Y.{ [ { T ( T ( T ( T S ( ~ } ( T T T c m ~ T m T m T m T T T T S [ T N S [ [ [ T T } ~ m ( S S  .S T [ T T { T { T %. .T { T Y.Y.J.e.@.{ @.:.@. .{ %.S [ ( ( [ %. .{ S T  .%.S T S I m T T I I T T S S S T [ S T m [ S S I I T T S T S S S [ m S S [ T T S x.J.",
"Y.e.S @.S S T m m S S m I S B m S S S [ S l S S I S m S T ( T c T S T T ( c S T I S T S T S T S S c S S ( [ [ { T T S %.S x.J.k.S.%.T T @.S [ [ T [ T @.[ [ T [ T [ T :.%.[ { T T %.@.(  .:.{ (  .( ( T T T T S T @.T @.@.( T { @.( T %.T T :.T [ T T T ~ ~ x.Y.Y.e.S T %.[ T T [ ( T { { T T [ T [ T  .~ m S ( T T T T T c m S T [ ( T T { ( %.[ @.S T T T T  .( T S  .T @.%.@.[ @.T  .T %.T Y.Y.Y. .( T :.{ :.{ :.[ [ T [ T T :.@.[ T T ( T ( S S S { S [ m T ( S T S T ( m V S T S T I T m T l T m [ T S S S T S S S { I -.Y.",
"Y.;.{ S T S [ l S m S m T l B S S S I B S m l S T S T S T S T l S S [ [ T m T S T T T [ T S S S T S T S [ { %.T [ T T T T e.Y.J.k.[ %.@.%.T { T ( T T T  .[ T T [  .@.[ @.( T T %.[  .%. . . .T :.( [ [ %.T { T {  . .%.[ T ( S T T @.S { { :.( T [ ~ S N ~ k.Y.Y.@.[ T S { :.~ ( { [ T %.T T S T T T %. .T [ S T S T S S S S S ( T [ m T T ( T ( [ ~ T T T [ S T T T T S [ @.[ } T } T T T [ I.Y.Y.( w ( :.%.[ { %.%.[ [ T I T :.T @.( [ I [ I T S I [ I m I m T m ( T I [ m B S { S I S T T c S T T T T T S T I S T T S [ e.Y.",
"J.T m m I S p S l l S l S S B B S m S [ m S m m m S S S I S T I S S I T S S m S m T S T ( ( S m S S I ( T ( T T T %.T T ~ #.I.S.x.[ T @. .[ S  .T { S @.[  .T T [ [ ( T [  .:.T T [ T %.T @.T @.[ [ @.T T T T { T [ [ @.T ( T T T [ T T S T %. .[ { S T ~ T :.J.J.[ m [ T T :.T T  .T T T T T T T T S  .T T S T S T T T S m T S c l T T m T T [ T T T ( S ( T [ ~ ( ( T T T T %.[ T T %.S } ~ J.Y.I.:.m @.{ ( { [ :. .[ T %.[ T T S [ T S T {  .T T S S m T I S T S I S S S S S I S S T T S S m p [ ( T m p S T T S T T g S S Y.",
"Y.e.T { I m m l l m T S S T m S m m S S m m V T m l S m T T [ T { S [ ( m I I T m m m l -.I I S S S m  .T ( m T [ T { T S k.Y.J.k. .%.( T T T m ( [  .[ } } :.[  . .@.@.[ [ @.[ %.[ T :.:.@.S T { T [ ( { :.{ [ { T [ T @.[ T T S S T V c T T T ( ( ( T S T S.J.J.[ T S T m [ S m m T T T [ S T [ T T :.( S T T T T [ p S T T S T m  .S [ S T T ( S S S c T [ T [ T S S T S S l T ( :.( T S T E.E.J.%.{ [ ( c (  .{ @. .@.( ;. .T ( I ( { l T S T T ( S S S T S m m T m T S I I S m ( m T T I T m S T m [ c T T T T { T { S e.Y.",
"J.-.S ;.S m c l m B S S S T c [ m S S m S S m V S S S I S T T T m S T T S T w T l V S S S T m m S I %.[ S I T [ T T S %.T S.Y.S.x.S %.@.[ [ T { T T S T %.@.{ [ { @.[ [ :.( T { [ %.T :.[ @.~ ( :.( T @.[ T T %.S ( [ T [ [ T T T T T T T S T [ T [ { T S @.k.J.J.T T T S  .T T S S V ~ S S T { T T S S T S ~ ~ [ S S m T T S T %.T { T T ( S T m  .T @.T @.T T @.{ { T [ ( { T ( T ~ T T T T Y.Y.J.( %.T [  .@.%.:.T [ m I I I I @.T T S :.S c T T T T T ( T S T S ( m S ( T S S T m S m S S T S m S ( T ( S l m S S S :.S :.J.",
"Y.T :.S %.T I l m l B S S T S S S m S S m g { B S S T m S T S S I S m S S l @.S S T S ( T m ( S S [ T I  .I I I ( T [ T S e.Y.J.S.%.%.T #.%.( @.T [ [ { T ( T T ( %.T ( [  .%.[ T { :.T {  .[ ( %.T %.@.[ S { S { T T ( [ ( %.T  .T T T T ( ( { T [ { T [ [ S.Y.J.T S ~ ( T @.T T T ~ ~ S m ( c @.c  .T T T @.%.( S m T T T @.S [ S ( T { T { m m T [ T T T T S  .(  .T [ [ [ T [ ( ( ( S T @.Y.Y.Y. .#.@.[ :.T ( {  .( { T @.T  .[ @.T T S [ S { [ S m T m m ( T I ( T S T S T S I m S T S S B T S [ T I ( m S { T ( ( T %.T J.",
"N.@.S m [ [ S m B S S S T S m S m T S S m S T I m m S S S S l S T T T S S S { T m m T T S m S m m I S T S @.%.S T @.S T m k.Y.S.x.@. .( { T } %.S ( S T l [ T T S S ( { T :.:.@.S :.%. .S :.T [ T ~ ( T S B T T S S T T S %.S T T T T T T S ( T T T T T S ( k.Y.S.[ T ( T S S T S [ S T S T S S S S ~ [ S [ %.T S S T T m S S T T T (  .m [ m T S S m ( T T S [ T [ T { [ T [ [ T S T T S T m J.J.J. . . .S @.T S  .[ [ [ [ [ I [ T I I m S S T I S m T m S T T m T I ( S %.I I B I S S I T B I S S T S B [ S T S [ {  .l T  .J.",
"N.;.%.-.S T T S m m T m [ S I S [ I ;.I T S S c S m S S m T { T T [ I l T S m m I T I m I I T ( S @.[ T m T m ( T T T T S k.Y.J.e.%. .T :.T :.T S S  .[ S ( {  .[ T T T ( [ S [ S [ T ( T {  . .T T %. .T c c T m S [ T [ @.T S @.T %.~ T S T T [ { S T S S x.S.J.T ~ T T S S T T T T T S S { T ~ T T T ( T T T { [ T { [ S [ [ [ %.( [ S T ( S B m T T T [ ( %. .{ T ( ( T T ~ T S %.T T T S Y.Y.S.#. .%.( %.[ { @.[ { { (  .[ :.S  .T { [ I g [ T S m T l p 6 T S ( [ { T T T ( m T l m m ( I [ c ( B ( c [ S T T [ m :.%.-.N.",
"Y.e.T -.I T S m m S S S I T T T m T T S I g T S T S l S S S S S ( { m m I m S l m S m S S m l S S S S T T T [ I [ ( T [ { S.e.J.e. .{ S :.T T ( T T S T S T T T S T T T T [ S @.T T T [ [ %.T %.T ( T T T T T c T T m T S [ [ @.T T S { T { T m T  .T T ~ T e.Y.J.{ T ~ ( S S T S T S T m [ T ( T ( S T T [ T T S S S c T S S T e.T T S S @.T c m T S [ S T T S %.{ T m [ [ S S T [ [ T T S c Y.J.Y.T ;.T ( [ T ( @.T T S { T ( [ [ T T S [ S m m [ B m S l l m [ m S T m [ I I l S T m ( I T T %.[ T m S T m S S T T [  .T :.Y.",
"!.( I ( { T S S S S T I I S T T T I T m S S I V T T T I S B ( S ( { S I T S S T T I p m I m c S I B T S [ I I I T S I T { k.J.S.x.T @.%. . .( [ @.[ T T @.[ T T [ m ( [ T %.{ ( ! (  .[ ( T S T S [ [ ( S T ( T c @.S [  .T S T %.~ [ ~ T [ [ T  .T T { S T k.J.J.T c S m [ T {  .[ [ T T { T T T T T T T m T S S T T m T ~ } T %.( S (  .g ( c c S m m T T } [ { [ ( T T T [ T T T [ T @.S %.I.Y.Y.( I  .%. .%.%.( [ [ @.[  .( %.T ( T ( T [ S I I T l T l T I I S T T [ m { S T T [ I T T S [ I [ %.T T m T B T g [ I @.I [ Y.",
"Y.( S T I S T T p S I T T S m S I c l l S T [ %.g S S S T  .S m T c S T l S T p m T u I S T I ( S S S [ T  .:.%.l [ ( [ S :.J.x.k.[ S %.( [ S S T S ( %. .[ S T  .T ( { [ ( [ :.~ T T [ T T ( T { T ( m T S S T m  .S m (  .l T S [  .[ T [ T { T T %.T [ T S.Y.J.:.m T S ~ S T T S ( T T c S S ( S S T m S S T T @.S { T T :.S S T T ( S  .S m T  .T m c [ T T S S T S T %.S [ [ %.[ T S m @.Y.Y.Y.;.T S T { ( T %.S T ( -.{ @.[ %.:.{ m T S T %.{ c I I T :.( S S T @.%.[ T T T S I S S S I l T T S T I T [ T S T S ( T T T Y.",
"Y. .T ( S m l m m m c S T m T m ( T S T I S T S S T l S { m S I ( m S I S m T B T S m S T S I I S S T %.T I -.[ T S ( I T Y.J.J.S.%. .{ @.[ T ( [ ( T T :.( :.~ [ c T T T T :.%. .T T T ( T @.[ @.(  .%.( S T T ( [ T [ T [ [ S ( T [  .T T S T [ @. .T ~ [ S.S.J.S T m S T [ T ( S T S S {  .( [ S T  .[ T T S S S S T l m ( S %.B [ p [ S T T m S { S T T [ S :.T T p T [ ( T { T [ ( T m T Y.J.J.k.( ( T [ -. . .@.[ ( ( [ ( ( [  .[ [ ( I S T g I T T T ( T T I S T I T ( T S m T m T T T l %.T { S I S S S S I T I ( T @.Y.",
"Y.{ S T S S B m S T S I m T l I m S S T T m m ( m S T T [ T m { T m T S B V m S S l m I T T T S T S c S T I I %.T :.S @.m %.S.e.e.%.( ( [ @.m S T [ S T T [ @.~ S S T T T [ @.T [ S S { T T [  .m  .S @.@.T S S T T %.@.@.c T T ( [ T %.T %.( [ T ( [ @.~ S x.J.S.:.S T [ [ ( T S [ T T T T S { T T S S S [ m { T T S S T T S T S B S T T S S T S S S S T T T T S T T { T  .S ( T T I  .S S I Y.J.).-. .T ( ( [ [ I [ { I S [ [ %.[  . .( T S T T S S T S ( [ ( T l T I I @.T T l T S [ ( I T T m T T S I m T S T S S S I T [ ).",
").-.( I I S S m B T S S S m S S T T [ m T S S S T S S I T T T T T S ( m S l S c p m S T T m [ T I @.S S S T [ m T  .%.I ( -.S.x.J.:.{  .:.%.@.T m ( T [ [ T T S T T [ @.T  .T T ( S [ p [ { ( %.T @.( T T T [ T T [ T [ {  .[ ( @.S [ T [ [ %.( T [ [ :.T T S.Y.Y.T T T  .[ T { T c T T [ S [ ( S S ( ~ T p S S T S S T T T T T T T S [ T ( T ( ( 6 m S T S T T T T %. .[ T { T %.@.T I T S T Y.[.Y.5.:.[ I ( %. .:.@.{ { ( T [ @.{ [ T T T T S [ T S T ( I  .m S S S S [ T %.c S p S S T m T S S I T ( T S I S I S T T [ ( -.Y.",
"J.x.m T m S l T m T S S l m l m ( I T S S m l S T m S c B T T I S I m T c m T S S [ T I l T S ( [ T T I S I [ S S T m S T :.J.S.k.:.[ { T [ T ( T T ( [ S { T T T T ~ ~ m T T S m [ B S T S T T S T T T [ T S S T [ %.T T [ T T T ( ( ( S T [ T T T T T ~ T e.Y.J.[ T { T T ( T T S T S B [ m T T S T @.T S m T m l T T S T m S ( T m %.T T S [ m S S S S S S [ T [ T T T %.T { T T T [ m B S Y.J.Y.( T T T ( S ( @.T S I ( [ [ @.:.T @.T T I { S T I @.S S S S S l S I T ( I S p S S T S c m m p I m S m T l I S S T S T S k.Y.",
"[.-.[ T S l T S T S T S T S T m T S [ S T T m S S S S m T m [ T I T T I m m m S T [ I S T I I m I T T T T T S T I S T m S e.Y.I.k.[ [ [ @.%.:.[ T [ ( T %.T  .T [ T T S T S T c T c T m T T T { T T S T T T T S T T ~ ~  .T ( %.T %.( T T T T m  .T T [ ~ T J.J.Y.{ ~ T T T T T } } T T T S T T T S T T T S ~ c S S S S T S T S @.~ T S ( T T m T T S c T ~ T c { T T S { T ( S T I [ T T S S Y.Y.J.%.S { T T I [ S [ I ;.-.[  .{ [ ( I [ ( @.m T I T I T T I I T S T m S S T g T S S I T I V S T m S m T T T I S B T T I T e.).",
"Y.[ { T T S l S I m l ( S T S S { S T w T T m T m S m l m S m T T S T I T m I T T ( ( T S [ T p T T ( { T T T T m T S { I :.J.N.k. .( { %.S [ { T %.T c T T S T %.S T l %.[ T T S S S T @.[ T [ T T T T S [ S  .T @.S } T S c [  .T { [ ( %.( [ ~ [ S { [ S :.Y.Y.[ [ [ S [ [ @.( { T T T m S T [ T S T { S S S T T S m S T T S T ~ m T T T T T S T S S T @.S T } T S T [  .T T m ( T S T c m Y.Y.J.T T ( @.%. .S T { I { @.(  .-.-.[ [ ( T T  .l ( T T T l I I 6 { T { T m S l S S T [ m ( m T S [ m T S T T { T T T { S %.( ).",
").{ S S [ S m S I m S I T { m S T T S T T l I I I S m I T T m m T S %.m I S { T [ m [ I ( S l T m S I T T I I T S T S l T k.J.J.J.{ [ T  .T  .~ T { ( T T T S ( @.T ( T %.T T ( { T T T :.~ { T [ S S @.T T @.S { m T [ ( T { T T S ( T { ( [ [ T T T T T ~ x.Y.Y.{ T S } T %.%.T T ( T [ ~ T T [ T T m T m @.S S S S m S S T T m T S T ( T T T S T T T T } S [ S T S S T c I %.[ S T S S T T Y.[.Y.#.m  .[ @. .{ { [ { %.%.@.I :.( %.[ %.T :.T T ( T I ( I { S S T { S T S S T T T S T S I S m [ S T m T S ( T T m T T T m @.Y.",
"J.T S I S I T m m S m S S S S l T @.S T m S ( S T I l m S T S T B T T B T T S I S T T [ T T T m m ( S T I T T I S [ S I T x.J.N.k.T [ T  .( ( S T { [ ( T T T S m T T @.S [ @.m T T T T ~ T T { S S T @.T T [ T T T } @.T [ T S ( T T T T ( [ [ T  .T ( S [ k.Y.Y. .p ~ S S T ( T S T [ T T S I c T ( { T S %.T S T S I m m T S l S T S S I T S m I T I S S I [ S T S T S T T { S T S I T T S J.J.J.T #.S T T %.T [ T m @.( I %.%.:.[ I T T [ @.T p [ [ T [ I [ [ S ( m S T S [ m T S T S S S T S m S m S S l ( S T [ T S S T J.",
"N.T l T ( T S ( S S S l T S T ( @.S T S S T m [ [ [ S T T S T m S m T S I m T m ( T ( S S { T ( T m T ( S S S ( %.B [ T T e.J.:.N.[ @.( :.%.[ @.{ ( { T T  .T T S T S I T T [ S  . .[ T T T T  .S ( ( ( T T [ @.{ [ ( T :. .:.[ T [ T T T m ( [  .T @.T S ( J.J.S.T  .S m T T @.m [ S T S S { @.l m T T @.l T l T ( T m l m T S  .S T  .S m S T p T T T T T { { [ m S m T l I I I @.[ T S T [ J.J.Y.{ %.T { :.%.{ T  .[ m S (  .;.I T T  .S -.%.T T :.{ I S %.[ @. .I T T m T B T @.S I I -. .g @.c I m T [ g I S S ( I T p ( N.",
"S.-.m T [ ( m m S S S { S I m S I I I S [ I c m S T T S S S m S T T I T S S S T S S B T S I S #.T T { I T S S T S S T S T -.k.:.e.( ( [ [ T T [ {  .T :. .{ T ( T %.T %.S S ~ S S [ ( @.I ( S ( T T  .%.%.T ( T T { ( } T { T :.( { ( { T %.S ~ S T S ~ T  .e.J.J.( T T T [ S ( ~ S S #.T T S T [ %.T I S I T S S S S { S [ S [ T S m T I T T m I [ T T S I S T I T T T T [ I S T m S T S I S J.J.S.[ T (  .{ [ { [ T  .:.:.[ %.%.{ [ [ T [ ( ( I { S { T @.S T S T T { [ ( I I c T S T S I I T T T T S m B m I S T T [ T m :.N.",
"Y. .T I ( ( T T S S [ { %.( [ I %.@.l [ T T ;.T T m ( S { T { S [ I T T S T :.[ m T S I I I #.S ( S T S T T [ ( I T S T T :.Y.J.J.T @.T %.@.T @.#.{ { ( %.[ :.[ [ ( T T [ { T S T T {  . .{ ( [ @.T ( ( %.( %.:.%.:.@.@.%.T #. .[ T T :.T %.%.[ S {  .~ T [ N.Y.Y.( T T T S ( S S S ~ T T T ( S ( T T T T T 9. .( :.T T  .T [ T T S T T { S %.T T T T S T ( ( T m { [ c T T T T :.S ( S S m T Y.Y.J.{ T ( S [ @.:.( T  .%.( [ { %.{ I S I (  .T  .[ @.( %.T T ( @.T #.{ { ( ;.T  .m I S { T T T S S S c T S T T I ( @.{ ( T :.J.",
"Y.k.T T :.%. .S S T T S ( @.[ S T [ S ( T :.#. .S I I T S [ { l ( I T I  .S m ( l m m m [ T T  .S T S m T [ [ { S V S m v S.J.N.S.m T I [  .S [ ( ( T  .#.:.:.[ m { m { ( ( k.:.m T %.[ [ %.[ [ v %. . .%.I %.( ( T T %.:.@.T #.~  .S ( ( T  .@.S ~ T T S m Y.Y.U. .c m m T [ T [ S T  .S S :.T V l l T { #.m :.T m @.{ m { %.[ m T %.e.S T c T I m T T m %.(  .%.T { [ T [ T [ T T %.( m S S |.Y.Y.#.c S S l ;.#.{ T %.S @.[  .%.S T [ I  .T #.#.m T %.S ( %.{ :.( m %.I { -.@. .T ( T p { S I T m m ( S m T  .T -.[ ;.S T e.Y.",
"J.J.S.J.J.N.J.N.N.k.S.S.k.e.S.S.k.k.N.k.k.k.S.S.S.e.k.k.N.k.J.N.S.x.S.k.k.l.H.S.N.k.N.N.k.k.S.S.J.H.J.I.J.N.Y.J.N.J.J.I.S.I.J.N.J.k.J.J.J.J.Y.N.N.k.J.H.J.S.J.J.N.k.J.S.k.x.H.H.k.x.H.J.J.N.N.S.H.k.H.l.N.S.H.S.S.S.Y.J.k.k.J.H.J.l.J.H.J.S.Y.J.J.J.Y.J.J.S.J.N.J.k.S.U.J.S.Y.J.J.N.Y.J.S.H.S.I.N.k.J.S.S.k.J.S.N.k.S.N.N.k.N.N.S.k.H.k.l.l.k.S.e.e.N.N.k.k.k.S.l.k.J.S.x.k.J.N.I.k.J.U.H.N.J.J.J.J.J.S.N.N.J.N.J.N.J.H.k.k.k.k.e.e.k.k.k.e.S.x.l.e.k.k.9.e.N.k.e.e.k.e.k.9.S.N.k.k.N.k.9.:.k.k.k.e.S.k.e.e.k.N.I.J.J.S.J.N.Y.J.",
"N.e.S.N.k.N.N.J.N.J.N.N.e.J.J.N.k.N.N.N.k.J.Y.Y.J.Y.J.S.J.Y.J.J.J.N.J.Y.J.Y.J.Y.J.J.J.J.N.Y.J.Y.S.Y.J.J.Y.Y.J.Y.N.Y.H.Y.Y.Y.J.J.S.J.S.U.J.Y.J.J.J.J.J.Y.J.U.J.Y.Y.J.N.Y.J.Y.J.J.I.Y.E.Y.I.Y.J.Y.Y.J.Y.Y.Y.Y.Y.Y.Y.Y.Y.Y.J.Y.Y.Y.Y.U.Y.Y.Y.J.N.Y.J.Y.J.Y.Y.Y.J.Y.I.Y.Y.Y.Y.Y.Y.J.Y.Y.J.).Y.Y.J.Y.Y.Y.J.J.Y.J.Y.Y.Y.Y.Y.Y.Y.Y.Y.Y.Y.Y.Y.Y.Y.Y.J.Y.J.Y.J.).Y.I.Y.Y.Y.Y.J.J.J.Y.S.J.Y.J.J.Y.J.Y.Y.Y.Y.Y.J.J.J.Y.Y.J.Y.Y.J.Y.Y.J.J.J.J.J.J.N.J.N.Y.J.Y.Y.J.J.Y.J.J.Y.J.Y.N.J.J.J.Y.Y.J.N.J.Y.J.N.S.J.S.J.N.J.N.J.N.Y.J.S.J.Y.N.N.k.J.",
"N.S.S.S.S.N.J.N.J.N.J.J.Y.N.J.N.J.J.N.N.J.J.Y.J.Y.I.N.J.J.J.J.N.J.J.Y.J.Y.Y.Y.J.J.Y.J.Y.Y.J.Y.J.Y.Y.Y.Y.Y.J.Y.J.Y.Y.Y.Y.|.Y.Y.Y.[.J.Y.Y.Y.Y.J.J.J.J.Y.Y.Y.Y.Y.Y.Y.Y.Y.N.Y.J.Y.N.J.J.Y.J.Y.J.Y.J.Y.Y.Y.Y.Y.Y.Y.Y.Y.|.Y.[.|.Y.Y.J.Y.Y.Y.Y.[.Y.Y.Y.Y.Y.Y.Y.Y.Y.[.Y.[.Y.Y.Y.Y.Y.Y.Y.Y.Y.Y.Y.Y.J.Y.J.Y.Y.Y.Y.).Y.Y.Y.Y.[.Y.Y.Y.Y.Y.J.Y.Y.Y.Y.[.Y.Y.J.Y.Y.Y.Y.).Y.I.Y.Y.Y.Y.Y.Y.Y.Y.J.).J.Y.J.Y.Y.Y.Y.|.Y.Y.Y.Y.Y.Y.Y.).Y.Y.Y.Y.Y.Y.J.J.Y.Y.Y.Y.Y.Y.Y.Y.J.Y.J.J.Y.J.J.Y.Y.J.Y.).Y.).J.Y.J.Y.J.Y.Y.N.J.Y.J.Y.Y.Y.J.J.J.Y.Y.Y.J.Y.J.J.N.",
"e.5.e.e.e.N.N.Y.e.x.x.N.J.J.k.N.e.k.e.e.k.k.;.x.N.e.5.:.Y.J.S.J.J.5.9.k.N.N.9.k.5.k.e.5.S.e.k.Y.J.N.J.N.J.J.J.J.e.k.N.J.Y.J.N.J.Y.k.x.e.Y.Y.J.N.J.k.Y.J.Y.Y.J.J.Y.k.Y.N.Y.e.9.5.J.J.N.J.S.@XJ.J.N.Y.k.J.J.Y.J.e.k.N.J.J.).J.J.Y.Y.Y.|.Y.J.).H.J.J.;.J.J.J.Y.N.Y.k.Y.J.Y.J.Y.Y.Y.J.J.Y.J.S.Y.k.J.J.S.N.Y.J. XY.Y.J.Y.J.J.J.Y.|.J.S.J.Y.k.N.J.J.J.N.k.N.J.N.J.N.J.Y.[.Y.Y.J.Y.J.N.Y.k.e.9.N.Y.Y.J.l.e.J.J.Y.N..XY.Y.J.Y.J.J.[.Y.N.Y.J.J.J.k.N.Y.k.N.k.N.S.S.N.k.).J.J.N.Y.k.Y.Y.J.Y.J.S.J.N.J.J.J.J.N.J.).S.J.J.J.Y.Y.Y.J.9.N.g.N.",
"( m [ T T @.(  .[ B S T  .[ @.( [ l ( [  .T T T [ [ ( [ S.J.Y.S.[ T T T [ I I V S [ S T [ T [ (  .( T T ( ( { %.T ( :. .-.T I ( %.S ( T [  .@.T T S [ T  .[ :.:.:.T T T  .( T T I  .T S  .S.Y.J.Y.@.%.S %.{ { I S S l T :.{ I [ -.:.;.(  . .T  . .{ T T ;.:.%.@. .-.:.{ ;.:.:.T  .( @.{ S %.-.@.-. .( -.:.:.:. .e.:.:.T #.;.Y.J.N.J.%.I T I T T T m T T T { [ S ( [ :.T [ ( T T -.[  .@.%.-.:.T T I %.[ [ T :.( ( S { S %.%.{ S ( ( [ :.( T I I T S [ S T I T k.N.J.J.k.( T :. .-.( ( I ( ( [ T T T @.( I S S T  .:.:.m S T T m ",
"T T m m S m S S S ( ( { [ T T I ( ( I I [ @.[ [ ( ( T { k.Y.N.S.T T T T T T T S S I T I I { ( T S %.[ ( { ( ( [ { :.[ T m [ I %.T T T T I  .{ { m S T @.T { T T T { T ( S T S I I T T [ [ :.Y.Y.S.T I T [ T [ ( [ @.T I I T S I ( I @.@. .@.[ ( ( %.I { [ { I  . . .( { %.@.%. .I %.-.:.@. .[ @.[ [ ( @. .@.-.( %.#.:.%.T :. .Y.I.#.[ S S T T [ T [ T @.T S T  .{ T I @.T @.[ ( S %.@.%.( [ T ( [ [ I T T T { S [ T ( T S T S T I [ I I { { T T T ( T T T c S [ J.Y.e.{ T %.( [ [ T T  .T ( T ( S T S S I [ T T S ( T  .S @.T S ",
"[ T I S I S S { ( ( [ ( [ [ ( [ ( ( @.T @.T ( [ ( T [ [ k.Y.J.J.{ S ( { ( S  .I T S I T { T %.T [ T [ T [  .S @.@.I I ( T [ S S T T I ( T S { S S m [ I [ I T T %.T @.T T S T S [ T T T @.k.Y.Y.Y.%.T T [ T %.%.{ [ T ( T T T @.:.%. . .@.[ I T ;.{ T { [ S @.T @.{ { -.;. . .%.@.T #.( @.[ %. .%.%.:.(  .[ { [ { ;.;.%.%.;.k.Y.Y.[ ( T T I %.T [ T S [ T S T %. .I :.I  .{ T ( ( I  .T [ %.T S T S T [ T T @.{ T { ( T T T T  .S [ [ I @.T ( I T T T [ S T S T J.J.k.[  .( %.%.[ T I I T [ [ @.I I l g T T T T #.S T I @.( S T ",
"( T S S S S B S l T T [ T ;.T I T I ( I S %.T ( S T T  .e.Y.N.J.I T T S T  .I T S [ S m I [ S T T { S m { S S T S [ S I T I m T m I T  .S { S ( S T B T T T I [ I S I T T ( S S { %.S m T -.J.J.J.[ { ( T %. .T [ %.T { T [ { I ( I I c I  .[ T [  .T { m ( [ { T @.[ S [ { %.I [ -.T { T :.[  .T ( T T S [ { T T [ ( %.T [  .J.J.%.( T T S I %.S ( T T S I { T T [ ( { S T B T S [ { m ( ( T S T ( %.T I T S T I [ I ( l T T T T S S { m %.T ( T T T T S ( m B H.Y.k.@.I { [ T T ( T I S g T T { T S I l T m T S T ( I T S S T ",
"( T { T S S T I I S S I ( [ [ { I S [ S T (  .[ ( T T I k.J.J.k.T ( ( S ( S T I @.I S S T T { T T T S T [ m I m I S T S T T T S [ I @.@.I l I S m S m B T ( ( S I T I S T T %.T [ I { @.( k.Y.J.J.S @.I I T [ T T @.T S @.I S [ [ [ @.%.[ [ S S I T T { [ T (  .T [  .(  .{ I ( T ( T S ( %.T T { %. .(  .[ [ { #.T [ { I  .:.J.J.:.{ { T I [ ( I I ( T T ( ( T [ @.%.S T ( { m S I  .T ( T ( T T [ [ p %.[ S T I T ( T [ S T T T T T S T T ( m T I ( I I  .T T Y.J.S.e.T { @.I [ [ [ S [  .I T ( T ( m T ( T S T T T P T P ( S ",
"l ( T @.S I T [ I I T T B T I I T S [ T m T S { T [ T ( e.Y.J.N.B T I [ [ ( ( S T I m T T S ( T S T S [ S m T S I [ T { S I S T I m [ I { S m I T ( T T S T ( @.p { T T T S ( T I T T T [ :.Y.Y.J.S %.@.T  .T ( T { T [ T { T :.T T [ [ [ %.@.T [ ( [ @.(  .S [ ( T [ ( [ @.( T [ ( ( [ %.( T I { { T [ T  .m T [ (  .S ( @.:.S.J.-.I e.I @. .T I @.S T I I I T ( { [ T I I T T { T T I T @.T I ( S @.[ S %.T S T [ [ I I T S I (  .T T I S T S T -.[ I T B S { J.Y.k.S.I  .( [ ( [ S S T { [ T S I T [ T T T S T [ T P S l S T ",
"T P ( T T T { I ( S I S { I [ m ( T S T T T T T T T T m :.J.J.N.m m I S [ S S S T I S I S T m S S S ( S S T T T T I { I S S S S  .I [ I I S T I S I T T T S S S T T T S [ ( S T I I T T [ %.Y.S.J.T [ S T I [ T I T { T T [ %.( %.[ T T [ T  .S I T [ T  .T [ I { T T T [ T ;.m T I { [ I ( @.T T T T { [ I @.( T  .[ [ { T :.J.J.-.{ ( @.I [ I T I [ T  .T ( S @.T T T ( T ( I S { [ T { ( ( ( @.I  .( T :.%.T [ T T T { m { m l T T T [ m T T @.I T I T T S T Y.N.x.T [ [ [ I :.I { [ %.T [ S ( m { T I T T T T S T P m m ( S ",
"S m m P S T S [ S T T T %.T T T S T T T T [ I T S T T %.( k.k.N.S l S T S I I { S S T I I [ m T S S T S S S I T S T S [ T S B S T I T T T S S T T T T S T I [ T I B T T m ( S ( S T m T S :.J.J.N.T S @.I ( T I T ( S @.m @.[ [ I [ T [ S T ( @.[ I T { [  .T T [ T S @.m ( T { S T (  .T I T  .( [ [ { T  .( %.I ( ( @.T T { J.k.e.I ( I T  .I ( %.T { I [ { ( T [ T T m I T [ T T I T T [ { I T ( T S I %.[ T I :.I T T S T T g I [  .S S T I m [ T I S T S S J.N.k.:.[  .T :.( T T T T [ T S S I S T m S T T P ( T S m T P P ",
"T S ( P P T T ( T m T I T S [ T T T  .T T T I [ %.[ [ ( k.Y.J.k.m S T T I m S l S [ @.T T I I [ [ T :.S I T -.I S I I B ( T { S S S [ ( S { T [ T I T l { I  .B m S T :.S T T T ( [ T S l :.Y.J.N.T T T [ I S B ( T [ I [ T T T S T :.m  .[ T [ [ %.[ ( T [ l I T T [ T T { ( T [ T T S S T S [ @.T [ T %. .%.I  .[ ( [ [ @.e.J.J.;.T [ { S m m T m { [ S S S :.%.@.( [ T T :.S { { { S I [  .T  .[ :.I T %.%.T ( {  .T S T { S p T T I T ( S m m T  .T I T p l Y.J.9.:.@.%.@.T T ( @.[ @.T T T T m T T m m S S  .P P T S P P %.",
"m T m ( T T S I { m T T ( T S T S [ T I @.T T T ( ( T %.k.J.J.k.S m T l T S T S S [ m T m T I  .T T ( m I I [ @.T { T I m ( T ( I m I T T T m S l m B m I I S { S I m m T T T T I S m ( S e.I.J.k.T T T T I I S T [ S { ( [ T [ T I T I  .[ ( T [ ( @.I (  .T I %.T T [ I  .I S m T S @.S @.I [ T V T  .[  .S S T  .I I I T e.J.Y.:.I T I [ I T I { T S T ( T (  .T I [ m -.I T S S S T T  .( @.%.:.:.[ I :.T { [ %.S ( T T S T T T I c T u B T S B S T S S m T J.Y.;.S @.T T T T T I [ T I T T T T T m I P m T m T S S S T T T ",
"g S P P ( S T P S T T [ [ [ T S T T T T ( T T T ( S %.T [ N.N.k.T T I T ( ( S S T m T T S I S I T T [ T I T @.T ( m @.T [ T B S S S { T T S [ [ S S I I S T T T { I ( I I [ ( T I { T S T #.J.J.J.T @.T { I  .T T [ T I m (  .I %.[ @.T [ m I I  .m @.T  .-.%.T ( { I T T ( T S T T l T T [ [ S [ I [ S [ [ ( [ T [  .( {  .e.J.Y.%.T [ T [ 9.S S %.I T { T I S [ T { [ I T ( {  .S T T ( T (  .I ( {  .( I ;.I I ( S [ [ I S m I S T S S T T S S S T T T S I S Y.J.-.-.I T I T S T T T %.I [ S g S T S ( T T S ( ( T P S S S T ",
"m S T S m T S T P [ I [ T %.T T I { I I B T T ( T [ S T I S.S.S.S ( T S I I m T S ( m T T I T I T T @.T T [ T ( B S S ( ( T S S S S T S S m T { S S S I B m T m S T S S T ( T ( [ %.S S m ;.J.J.N.( ( T m T I m S [ T T m T I S S @.I :.S ( { ( S S [ %.T ( T [ T %.m T T S S T S I l T S ( I I [ T T ( T  .T T T @.S T S [  .I.J.@.m  .T I [ S I ( I S S I T I I T T @.m S [  .I u T T T { T T ( T S @.T T T T T T T [ T T S S S T S T m T m [ T I I T T S T S J.J.@.9.S T S T m S S T T T T I T T S T S ( S T T T S T S g S m ",
"T P  .S ( m P S T T T ( %.S [ S T T [ S [ T T I [ T { @.x.S.J.k.S S [ T ( S T S I I :.T T I @.%.%.{  .[ T [ @.I I c m S S S %.[ T ( T [ T 6 %.m I l I S T T S S e.T I T  .I ( m  . .%.T :.:.S.k.Y.m T T T I S T [ S T T -.( T %.:.T { T ( S T [ [ T I I [ I T T ( I { T T T ( ( ( p I S ( B S :.I [  .@.( l %.T S %. .( I [ :.k.Y.[ T S  .T [ m %.T T ( [ ( T S m T e.T [ I I T [ T S T ( ( [ [ { %.@.T S :.( I [ S T m [ l T S T p m T V c S S ( T ( I T [ T T Y.J.k.T { l I I @.( @.I  .%.T T S c ( ( T l T S T ( @.P S ( T P ",
"m T S l T T p ( T ( T T S T { I T [ T T T T T m T T T I e.J.k.k.T T T T T m l @.[ [ T { %.{ T T T S S { [ S ( c T T m I T %.T m T I S S S V S l T S S S S T I p T I m S I T p S I [ T ( ( :.J.Y.J.T [ T { [ T m T [ m { T { T [ B S c m [ T T I I T S ( T  .( ( [ T m l S @.T m I [ ( S T T T T T I T S T T I ( ( -.I S [ [ :.J.J.e.@.T S T T I I I T T T ( I I ( { S ( T T %.T S T T T T ;.[ T [ [ T T I T S S S I T T T S I [ m B I l p ( S T m { S T m S m S J.J.5.e.m ( S S S T T T ( S T ( S ( ( ( T ( S B S T P S m T l T ",
"S S S P P m m T T @.%.( T T { T  .T @.I %.T T T { ( [ T T J.J.N.T c ( [ [ T I I [ %.T [ ( T T S S m I T S T ( S T [ I S  .T ( m [ [ S S I m m T T T S S I I I S ( S T T I S [ [ S T [ T I :.Y.Y.Y.T T T I ( ( T T T T I @.S T T T S %.I T S [ T [ @.( ( ( T T T ( I ( T { I  .T m T S I T {  .T ( S [ T T [ ( m I ( %.[ [ [ :.J.J.e.T T %.( [ ( T ( %.S T m I T { S S T [ S T T T m [ I ( [ [ %.[ T @.I { T [ S T T ( ( T S ( S ( T [ S I S S I T l S T I m ( S J.J.e.{ [ T T S T S I { [ T [ ( ( ( { ( ( T T P ( T ( ( #.T ( m ",
"T S u T l S m P T T ( ( T ( [ I :.[ T @.[ ( B T S [ [ { e.Y.Y.J.{ T S I S ( S m S T I %.T T T S l S S S T S T %.S I l T [ T B S S T S S m S l l S m S { m T { [ [ T [ :.I :.{ T T c @.l T k.J.Y.J.{ S S [ I T S B S S I T T T [ T { T T l (  .[ [ S m @.S ( S T ( :.I S T [  .{ l @.T S S T S T I [ T T  .( l %.T  .T ( ( T e.N.Y.9.I  .S T [ T T T m T T T S [ T S S T S T T m T T m S T V { T I T %.%.I ( S S T T [ [ g S S I S [ S I T [ S S { m I m I T S T N.J.e.S c S S { S ( S %.( ( %.@.(  .%.@.S ( ( T T P T T m P m T ",
"S S l T P T ( T T P ( P T P { P ( T  .[ { { T [ m { %.( N.Y.Y.J.m T T ( I S T T T l S B { I T S [ I I T [ T { S T I S S T T S c [ ( T m T g S S T T T S [ T m T S T I [ I T T T [ B T S T N.Y.Y.J.T @.[ S [ [ ( I I ( T ( T T S [ T @.{ T ( {  .( ( @.T [ T ( S ( S [ [ { S S S [ I T [ T I T I [ S T { { T @.T %.( ( [ T T e.J.J.-.T T T I { T ( T T I m T :.I @.[ T I T m { (  .S I T T S %.T { { %.S [ T T ( T ( [ T m T T S m T I T I m I I T [ [ T S B T S Y.N.k.:.{ S  .T T [ T T S I ( ( ;.( ( ( ( ( ( T ( T { T S S T P ",
"S T l T T T l P T T T S B P T T P ( S S ( T [ T I ( ( %.:.Y.J.J.T I S T I S S m m S S S S ( I ( S c ( T I T l T S S S [ T T m T S S T T T S m S S T S I B T I S m I S S T S T S S I S ( S @.Y.J.S.[ m (  .T I T I ( [ T S S S T { T T { %.@.{ T I @.[ [ T [ S I :. .[ T T m S T ( %.I I T T { T ( I T T I [ T T T @.( %.T I :.Y.J.k.( T I [ [ ( T S S T T S T T [ I m m ( T I T T T T S T T I T { @.T @.I I B I { T T [ I m S T [ [ ( ( T T T S S [ I c S B S @.Y.Y.5.H.T I T S S S T [ P S (  .%.T P  .( ( P  .( P T S ( T S T ",
"P p l ( l S T T P S T T ( T P S P ( ( I @.T m S [ [ T { N.Y.Y.N.( S [ T S T  .m T I S S T I [ S T I %.T S S S S T m T T S T T I S T T ( T S S p c m m S S S I S T I [ m T T T S I S T I S :.Y.Y.Y.T T ( [ T [ S I T T T { I T ( T [ [ %.( S S T T T [ S T T T T ( I  .T T c S S S S ( [ I ( :.( [  .-.-.T T T T ( S [ ( ( { @.J.Y.e.;.T  .[ ( [ S S { [ [ T T T T T T [ S [ T T I %.[ T :.S I [ ( I { [ :.I S T [ S [ T ( %.[ {  .m T T T T  .T [ T S S m m S S Y.J.e.T T c S S { S @.{ ( @.{ T  . .@.P  .P T S T T P T m T S S ",
"S T m T S S m m m S m T S S T S { @.m ( ( T S S I { T I k.Y.J.J.T I T m S T m T c S T m T T S S I S I m S T l S S T l S T T I T m T S [ V m S ( I I T ( S [ T T I  .I S S T I { S T S I V :.J.Y.J.T T S I T T T T T T m T T S S p ( T T S ;.{ S S S T T p [ I -.T T [ [ [ S m T T T T S T { T %.I @.( %.[ [ T T T %.T T T S e.Y.J.-.T [ T S S I T I S I T I T S S S I S S { m m m m S T l T I T ( ( T ( ( ( I { S c T I S I T [ T (  .S T S T T T T S T m T g { Y.J.5.;.I I S S m T S T P ( ( ( T P T S T ( ( #.S T P T S m S ( ",
"T m T l P S p P m m S T T T @.P T T T T [ I T ( T [ { S k.J.Y.J.[ T T T T l m m T T [ T T T [ S T I T S g c S m S I ( T S m I S T I T S T S B S T S S S T T { m T S I T T { m m [ [ I S T  .Y.N.J.m T I ( T T S @.( T S T T S ( [ T ( T T T [ l S { I I T S [ I :.%.[ [ I T S T T ( @.T T T [ I  .T ( [ I [ [ m I ( [ { S S T J.Y.e.T [ [ I I T T S [ I T S T T I T T T m S  .S T I S T T S T I [ ( T :. .T T T I S T T I I [ T  .[ I T I T T T S T T S T T S T Y.J.k. .T T T l g T ( T T T S T T T ( T S T ( P  .T ( ( S m T P ",
"m S T S S g S T P ( S T ( m ( P ( P ( P ( S B T T { { %.k.Y.J.J.T S ( @.( S T S T m m [ I S I @.T T S { S T c S m T T T T T T T m S S T S S T { T ( S S [ T T { S T I [ ( [ T S T T I S T %.Y.J.N.S T T ( T T l S T S [ [ [ T { ( T T T [ T S T [ m p I T T S { T [ T  .S T S ( T T S T ( T I T [ { [ @.%. .[ m ( ( T T T S { Y.J.k.{ :.S [ %.I T I I m S %.T m { @.T [ ( ( { S T ( S T I I T T I I I { @.m I m m I T  .S T I T :.@.I T T [ T I m S T T T T I S Y.Y.k.%.m T [ P l ( S S (  .{ P T T ( ( S  .P ( S T S S ( m T T ",
"S P S S T S T S P S S S ( S T S P T P P T P T T I ( T S e.J.Y.J.%.m T [ S S { T S [ T  .[ [ S T ( m ( S T m T S T I T I ( S T l S m I I [ I m [ [ T T T ( B m S { S ( S S m I [ I T S v T -.Y.J.J.I T T I T { T T { T T T [ [ [ T T I T [ { ( I { I T m I ( [ T  .T [ { { S S S ( { m ( %.{ @.T [ S ( [ I [ ( ( { T [ S T S ;.Y.Y.:.T T ( [ -. .T ( T T T m I I ( T [ [ { ( [ I S T { T T m [ S ( T T g { m  .T I l T T [ { T S [ S  .S ( I { { ( T ( S I [ I  .Y.J.9.[ [ ( ( ( T S P ( %.g T P P P T p  .P (  .@.T T T P T T T ",
"m S m T S S T T m T P S T S P S T ( ( P T P T S T ( T T @.J.J.Y.T S T T { I [ S I I T T S T T l T @.[ T m ( m S m I l T T T T T T T T S I T T I I @.{ T S T T I ( S I I S T S ( S I T S S e.Y.S.J.( S S [ T I S S ( T T S ( @.( T S { @.T I I ( { T T T V [ T { S ( I ( T T ( S [ ( S T T ( S T { T @.S } T T [ I  .T [ T T @.Y.J.:.[ m T T %. .I S I  .I T I [ p I T [ S T T I u [ S { m T [ I m S T  .[ S [ S S T T T T S T I l T T ( S T S I S ( ( [ S T S  .J.J.;.c T ( ( T T u T S P T T ( l P P T T ( m S T  .S S m T T P ",
"T S T S S S T T P  .m T T S S S ( %.-.( T T T %.( P ( I @.k.N.9.S T S [ @.T ( S ( I [ T T T @.T { [ S { T ( m l S I m %.@.( I I p S T T [ c S m [ [ T S S I T S S ( T [ T { S m %.T ( S S #.Y.x.N.( ( ( T T [ ( I T S S m T ( T c T T T I T [ T T T  .[  .{ [ @.T T  .I I T @.( { %.T { [ T [ [ c I I T T S T T ( [ @. .%.S %.S.J. .:.I S T %.( %.( [ ( T I T { %.T m S I T  .T T ( S (  .{ [ S { S T T [ l @.l ( [ ( T S m T T [ S T { T l ( m T I T T I I T I k.N.;.m S S P ( @.T ( ( p S ( S ( T T ( g g T ( ( S ( T T P S P ",
"S m P T S m S T S T P { T ( T ( P T S ( P T T P T ( P [ ( k.k.:.T T T S [ @.T [ T ( T :.S { m S T T T m T T S T S S S ( { I T T I T S I T S T T T T S S T T m :.I T T S T S T T S T T T S %.N.N.k.I T { S T { ( S I S :.T { S I S T @.T T [ T T S  .S  .{ I I T I I [ T  .T T S @.%.( { { { T T  .[ T I  .T T { T [ T I T { ( N.S.-.T I I I T  .[ @.T ( ( { [ S T I [ { T T S S S m S T T { S [ T I T { T S S S T ( S T S T S T B T T T [ S T S S T S T S [ S ( N.S.#.;.( %.T T P T T T ( T P P T T P m T T S S P T T S m S m m ",
"S S ( S S l T S S m ( T T T T ( P S  .( T ( ( T T T T S :.S.J.n.T m [ m ( @.c :. . .@.T I T #.%.{ ( T T %.@.T ( ( [ @.T %.@.T -. .[ @.T { T %. .m S %.S I ( :.I T S [ S T [ @.S T I T S T :.J.J.J.S S S S I I T I { T I { T I ;.:.T I [ T [ T T [ ( @.%.T @. .[ %.S T  .T #.S %.S [ I [ { { #.T  .[ T %.T [ %.{ I { [ I T  .:.Y.Y.#.T T ( S T @.[ T @.[ e.T  .I  . .( ( I S T ( -.%.T ;.@.{ @.T T @.:.[ ( } ( (  .[ S S [ T #. .[ S T S ( T I I  .I ;.T S S S ( Y.Y.;.( T P ( S @.@.T T @.T T ( P S S w ( T P (  .T T T ( m S S ",
"m m l P P m S T S S T m S m m T l S ( m m S S g p p g p N.S.N.N.u l B c l T S T T ( S T T ( T I S [ S I  .%.%.m S S S S [ T { S c :.[ T @.T T I T l T T ( T ( T S S m S l S S T m g S m 6 N.J.Y.S.c c l p T S m T m T [ S T :.T c %.m I I S :.[ S T  .I S %.T %.c { I T S I [ m T l { T T :.I [ ( T T { m T T T m S m l p c N.Y.J.:.p v V S T T T S T :.%.( V :.S ( [ T T  .B ;.( S c  .m [ @.{ [ S  .:.T T m T { p S S S :.I [ [ T B T S T T [ T T ( T m l m e.N.J.:.6 S m m T { S ( ( l T m (  .l T S l ( S T T m T T S p B T ",
"+ + : + . @ : : :   + + + + : : $ $ 4 u p p m m S m P P J.k.N.k.k.m T S S u l l u u l c 6 6 p u p w p u 6 w u u 6 6 6 u 6 6 w p 6 : w 6 6 6 w 6 : 2 6 6 : 6 u u 6 6 6 6 6 l m m c m { { S.k.Y.Y.Y.k.m I I v l g m l p u c p p 6 6 $ 6 6 u 6 p u p 6 6 6 2 6 : 2 : : 6 6 6 6 6 6 : : 6 6 6 u u u 6 : 6 6 u 6 p p p l V T S S.J.Y.J.e.;.S [ [ c p p p p p p 2 6 : 6 $ 6 2 : : u 6 u 2 : 6 6 : : 2 $ : 6 2 $ + : 6 6 $ 6 4 6 : : 6 : : : : : : 6 u u 6 u p c p %.J.Y.J.k.N.6 u l p u 6 6 p w 6 : : @ + @ + @ @ : $ : + : - - $ : - ",
"9.9.;.g.;.g.N.g.g.g.9.g.:.k.k.S.g.N.g.N.g.N.N.J.N.N.N.N.J.S.N.J.N.N.N.J.n.J.N.Y.k.J.N.J.N.J.J.J.J.J.J.Y.S.J.J.J.J.N.J.N.S.Y.J.Y.J.J.N.J.J.Y.J.J.J.S.J.J.k.J.S.Y.J.J.J.Y.I.Y.N.J.J.J.N.J.J.Y.J.Y.J.J.N.J.S.J.J.J.N.J.J.Y.I.Y.J.S.Y.J.J.J.S.J.J.J.J.J.Y.J.U.Y.J.Y.J.N.J.Y.Y.J.Y.Y.J.N.J.J.J.J.Y.Y.N.J.J.Y.Y.H.U.J.J.Y.J.J.J.Y.J.Y.Y.N.J.J.J.J.N.J.N.J.N.Y.Y.I.J.S.J.J.N.J.J.e.Y.J.Y.J.N.N.S.J.J.Y.Y.J.N.J.Y.S.Y.Y.Y.J.S.J.J.Y.k.J.N.N.k.N.J.J.N.Y.Y.N.J.J.J.N.J.N.N.N.k.N.k.J.J.g.J.g.g.9.g.g.-.N.g.J.N.g.g.:.g.N.N.g.S.N.N.N.N.N.",
":.:.9.9.9.;.g.9.N.g.g.g.N.g.N.g.N.N.J.g.N.g.S.N.N.J.J.J.Y.J.J.J.N.S.J.N.Y.N.J.N.J.N.Y.Y.Y.J.J.J.Y.J.Y.S.J.J.J.N.J.J.J.J.J.N.J.J.J.J.J.N.Y.Y.Y.N.J.J.J.J.J.J.Y.S.Y.J.J.J.Y.S.J.J.Y.J.Y.J.I.Y.Y.Y.Y.J.J.J.J.S.Y.Y.J.J.Y.Y.Y.Y.Y.J.Y.Y.Y.J.Y.S.J.N.Y.Y.J.J.Y.Y.Y.J.J.J.J.J.Y.Y.Y.Y.Y.J.J.J.J.J.J.J.Y.J.J.Y.J.Y.J.Y.Y.J.Y.J.J.Y.Y.Y.Y.Y.J.J.Y.Y.J.J.N.J.Y.J.Y.H.J.J.Y.N.J.Y.J.J.J.J.J.J.J.N.S.Y.J.J.Y.N.Y.J.Y.Y.Y.Y.Y.J.J.N.J.S.J.N.Y.N.J.S.J.N.Y.J.Y.J.J.J.J.J.J.J.Y.N.Y.J.J.J.J.J.J.N.N.k.g.5.N.N.J.N.N.N.N.g.g.g.N.g.g.g.N.N.k.g."
};
