/* XPM */
static char *east[] = {
/* columns rows colors chars-per-pixel */
"128 128 23 1 ",
"  c gray19",
". c #313131",
"X c gray25",
"o c #414141",
"O c gray31",
"+ c #505050",
"@ c #5B5B5B",
"# c gray36",
"$ c gray40",
"% c #676767",
"& c #727272",
"* c gray45",
"= c #808080",
"- c #818181",
"; c gray53",
": c #888888",
"> c #8B8B8B",
", c gray55",
"< c #959595",
"1 c gray59",
"2 c #A0A0A0",
"3 c gray63",
"4 c gray74",
/* pixels */
"$+O$+$$$@&@$$&O$$$@$O$O$#OO@+$@$&@OOO$$X#+O++$@$$$$@@$@$+O$@$$$@$OO$O$$$@&@$$&O$$$#$+$O$#+O@O$@$&@+OO$$X@++OO$@$$$$#@$@$O+$@$$$@",
"X212242122222221221-11222-222212>222222&->1>222-211>111,>222-21XX212242122222221221-11222-222212>222222&->1>222-211>111>>222-21X",
"+2@&-&&&&&$&$&$&$$#$&$@$$$@$$&@$@$@$&&$&&$$&&&&$#$$&&&$$&&&&$@$XO2@&-&&&&&$&$&$&$$#$&$@$$$@$$&@$@$#$&&$&&$$&&&&$#$$&&&$$&&&&$@$X",
"$-$$$@@@@@@@$O#@@#@+$$##$$$+$$&@&$&$&@$+@O@@@OO@@@$$$@O@@#OO@@@X$-$$$@#@@@@@$O@@@@@+$$@@$$$O$$&@&$&$&@$O@O@#@OO#@@$$$@O@@@O+@##X",
"$2$@@@+&@@O$O#+O#@OO#O##+@@&$$O$O$#@$+@@##O@+@OOO$#@XXO@@O#O+O$X$2$@@@O&@#O$O#+O@#OO@O#@+@@&$$O$O$#@$+@@#@O@O@OO+$#@XX+#@O@+++$X",
"@-&$++&$++$@@O@@@$&$$O$$$$$@$@@+$$$@@$$@@O@@OO@+@@$@$X$O@OO#O@@X@-&$OO&$OO$@@O@@@$&$$O$$$$$@$@@O$$$@@$$@@+#@OO@+@@$@$X$O#OO@O@#X",
"@-$@@@O@OO$$O$#@#@$$@&$$@$O@@O$$$$$#X$O+$$$@+@O@$&@@OOOO@O@O@$&X@-$@@@O@OO$$O$#@@@$$#&$$@$O@@O$$$$$@X$OO$$$@+@O@$&##OO++@O@O@$&X",
"O>$+$@O##@$@$$$$$$$@$$$#$X$$$@$&@@O@$$$#$+O@@O@#@$&@OO#O#@O@@@$XO,$O$@+@@#$@$$$$$$$#$$$@$X$$$@$&@@O#$$$@$OO@#O@#@$&@++@+@@+@@@$X",
"@1#O+O@O@OX@$#+$O$@$@@$++O$&$@@OO$O@O#@$@O$@@O+@+$@@OO#@@@+O@O$X#1#OOO@O@OX@$@O$+$@$@@$OOO$&$@@+O$O@O@@$@O$@@OO@O$#@OO@@#@OO@O$X",
"O>&+$@@+@$@O$@@@O@$@&O@@$$$#$@#OO#$$@$$$&O@+@@@@$$@O#@@OO@@@@$$XO>&O$@@+#$@O$@@@O@$@&+@@$$$@$@#OO@$$@$$$&O@O@@@@$$#O@#@OO@#@@$$X",
"O,O@$@O$@O@$@$O@@@@$+O@@O@@##$#$X@+$$$+$@$O@O$#@$$O@+$O@@O$@@$$X+,O@$@O$@+@$@$O@@@@$O+#@+#@#@$#$X@O$$$O$#$O@O$#@$$O#O$O@@+$@#$$X",
"@>$O&$#@$#$$&$@+$@@&O@$#@@@O$O@#@@@#$$@@@+OX#@@@$&$@$@$OX@@@#$&X@>$+&$@@$@$$&$#+$@#&O@$##@@O$O#@@#@@$$@@#O+X@#@@$&$@$@$OX@@@@$&X",
"O,O@OOO$$@@$+$O@@$OOX@O$@@OO#@@@O@$$@@@$O$$@@$O+@O@$O$O@@#$O+@OXO,O@OOO$$#@$+$O@@$++X@O$@@OO@@@#+@$$@##$O$$@#$OO@O@$+$+@@@$O+@OX",
"$-$@##$$$$$$$O@@@#@X$+$@@@@+$@@@$O$$$$&@@@@@$@@@@@&O$@@@@$@@@@#X$-$@#@$$$$$$$O@@@@@X$+$@@@@O$@@@$O$$$$&@@###$@#@##&+$@@@@$@@@@@X",
"O1@@@#$+@@$$O++#$$XO@$@$@@O#$$@&$$O#@$@@O$$X@$O@@$O@$$+@X@$O@@$XO1#@@@$O@@$$OOO@$$XO#$@$@@O@$$@&$$O@@$#@O$$X#$O@#$O@$$+#X@$O@@$X",
"@-@@$+@+$@&&$@$O@+@$$+@@$$@@&@$$@$$$&&$@@@$+@#@@$$$@&$$OO@@@@$$.@-@@$O#O$#&&$@$O@O@$$+@#$$@@&@$$@$$$&&$@#@$+@###$$$#&$$OO@@@@$$.",
"O-$+O@+O@@@O$#@$@#@$$$+O@@$$@O@#O+@@#@@#OO+O@OX@$&@$@X+$O@OX#$&XO-$O+@+O@@@O$@@$@@@$$$+O@@$$@+@@+O@#@#@#+OOO@+X@$&@$@XO$O@OX@$&X",
"O-@@OO#@$#$$$O$@#+$#@O$$O@O@@@@@@O$#$@O$$$@$@O@#@$#$&###$@O@@@$X+-@#OO@@$@$$$O$#@O$@@+$$O@O@@@@@@O$#$@O$$$@$@O#@@$#$&#@@$#+@#@$X",
"O1O@O$O$O$@OO@O@#$O$#@@@#@$@$@@@@@+@$$O@@#X$+O@#$$@$#$+$$OO@@$$XO1O@+$O$O$@O+#O@@$O$@#@@@@$#$@@##@O#$$O#@#X$OO@@$$@$@$O$$OO#@$$X",
"@-&O&$$O@+$O$@$@$O@@&O$#$##O@$$@@$$$$#&O$O@O@#$$O@@+$@@OO@@$$O@X@-&O&$$O#O$O$#$@$O#@&O$@$@@O@$$@@$$$$@&O$O@+#@$$O##+$@@+O#@$$+@X",
"O-@$O@@@O#@$O$O+@@OO++@#O@O@@$@@+@O$#@@OOO$+O&$$O@O@O$+@OO&$$+@O+-#$+@@@O@@$O$OO#@OO+O@@O@+@@$@@O@O$@#@O+O$+O&$$O@O@+$O@OO&$$+@O",
"O2&@@$$+$@OO#O@O$O@O@+$##O@$$@$#@O##@O@@#O$XOO$$@@O+O#@$XO+$$@@X+2&@@$$+$@++#O@O$O@O@+$@@+#$$@$@@O@@@O@@#O$XOO$$#@+O+@@$X++$$#@X",
"+2$@O@O@$$$@X@@$@$@++#+$$$$$@@$OO$O#$+OOXOO++O+@$O@@@##@OOOO@$OO+2$@O@O@$$$@X@#$@$@O+@O$$$$$@@$+O$O#$OOOXOOOOOO@$+#@#@@@OOOO@$OO",
"$>$$$@#+@@@O@$#O@$OO$@$@$#@$@O$$$$#OOO$@$$O@$$$$#+@O$@&@#$$$$@OO$>$$$@@O@@#O#$@O#$OO$@$@$@@$@O$$$$@OO+$#$$O#$$$$#+@O$@&@@$$$$@++",
"O1$$+@+$@#+$$$O@@$@$@@$@@$#@OOO@+@$@+$#@O#@@O@@$@$O@@$O@@+@@$@$X+1$$O@O$@@O$$$O##$@$@@$@@$@@OOO@O#$@+$#@O@@@+#@$#$O#@$O@@O@@$@$X",
"@1$#$@@$@$@$$@$@@@$@@@@@@+@$@O@OO@#@$$&@$@@$$#&&$@$O$@$#$$@&&$#O@1$@$@#$@$@$$@$@@@$@@@@@@O#$@O@OO@@@$$&@$@@$$#&&$@$O$@$#$$@&&$@+",
"@1$$$$$@$@@@@@@+$OO$@#O@O$#$@#O$$$@$O@+@$$$@@@$#O$OOO#$$@@@$@O$O@1$$$$$@$@@@@#@+$OO$@@O#O$#$@#+$$$@$O#O@$$$@@@$@+$+OO#$$@@@$@O$O",
"$-$O#@@O&$$$@O#O$O$@O@$@$+@++@$#$@@$$$$O$$$O$$&$$@@+$#$@O$$&$$@X$-$+@@#+&$$$#+@+$O$@O#$@$+@+O#$@$@#$$$$O$$$O$$&$$@@O$@$@+$$&$$@X",
"&-$O@$@O#$$@@OO@O++#$$@$O@O@O@@&O@$@@++O@$X&@O@O@OO@+O+#&@O#O@OO&-$O@$@O@$$@@O+@OOO@$$#$O@O@O#@&O@$@@O+O#$X&@O@+#OO#OOO@&@O@O@++",
"&-$O$O$@$#$$@+$@@OO@+@@#@O@OO@#$$@$@@$$@@@##@@$$OO$@$+@#@#@$$OOO&-$O$O$@$@$$@O$@#O+@O#@@@O@OO@@$$@$@@$$@@@@@@@$$OO$@$+@@###$$OOO",
"#-$@@@@@O@O@O@++O@+OO@@$OO@O@$@@@$@$$$$@#O@@@@#$@@$$$@@@@#@@$@#X#-$@@@#@O@O@+@O+O@OOO@#$OO@O#$@@@$@$$$$@@+@@@@@$##$$$@@@@@@#$@@X",
"$-&#@$@#$@$O$O@@$#O+$#+@@O$O$@$@O$@@$@@@$$@O@O$@@$@@&#$@O#+$@@$X$-&@@$@@$@$O$O@@$@OO$#+@@O$O$@$@O$@@$@@@$$@O#O$@@$@@&@$@+@O$@@$X",
"$1$#@O$@#O@$@+OOOOO$++@+O@O$@$#@O@#$@$OO@$@@O$@$@@$@O$$@@O$@$##+$1$##O$@#O#$@O+O+OO$OO@OO@O$@$@@+#@$@$O+@$@#O$@$@@$@O$$@@O$@$@@O",
"O&@O@##OOO#@OO#@O@$O#@$OO@##$$$@@+@OO@$$O+$@@O$X$$$@O@$@@@+$X$$X+&#O###OOO@@OO@@O@$O#@$O+@@#$$$@@O@O+@$$OO$@@O$X$$$@+@$#@#O$X$$X",
"#-#@@$@$@@@&@#@@@$@O@@+@@@O$$@@$O@@@O$O$OO+@@#OO#@O#$@O@@#@OO@@X@-#@@$@$@@@&#@@@@$@O@@+@@@+$$@@$O#@@+$O$+OO@@@OO@@O@$@O@@#@OO#@X",
"#-$@$$&@@O@O@$$$$+O#$@$#@@@@@$@$$$@OO@$@###@#@@$#@$O$$@O@@@@$@#X@-$@$$&@@O@O@$$$$OO@$@$#@@@@@$@$$$@OO@$@#@#@@@#$@@$O$$#O@@@#$@@X",
"+1$@O$#@O$O$O##+O@@OO@$@@@O$O@@@O@#@+$#$@#O@+#@@@@$@+@@O@O@@@##XO1$#+$@#+$+$O@@+O@@OO@$@@@O$O@@@O@@@O$@$@#O@O@@@@@$@O#@O#O@@#@@X",
"O-$+#@@O@@&++O$O$+@@@X$@@+$@$O$&$@@#OO@O@O$OOO$O@+#O$O+O++O$+#OXO-$O#@@O@@&+OO$O$O@@@X$#@+$@$O$&$@@@OO@O@O$OOO$O#O#+$O+O++O$O#+X",
"X-#@@@@##@+$+$@$+@O#+$O#OOOOOOO$@$@@@@$OO#$@O@+O@$+@@@O@@O@O+@$+X-#@@@@#@#O$O$@$O#O@O$O@O+OOO+O$@$@@#@$O+@$#+@OO@$O@@@O#@O@OO#$O",
"&>$#@@$@@#@+$O+O$@@+#+$@$OO@@@@@@@$@$@+@$@$O@$@@$@$+$+$#+@$@@$#X&>$@@@$@@@@+$+OO$##O@O$@$++#@@#@@@$@$@O#$@$O@$#@$@$O$O$#O@$@@$@X",
"O>$O@@$#@@O$@@$$@@@$@O@$@O@O@$@@@&@#$OOOO@OO@OO#@$OOO@+@O#OO@@$+O>$O@@$@@@O$@#$$###$@+@$#O#O@$@@@&@@$O+OO@++#O+#@$OOO@O@+#O+##$+",
"$1$O@$@#@O$#&$@$$$#+++@+@O@@$$@#O#@@@$O@@@@O#+OOO@$@@@$#O@+OOO@X$1$+@$@@@+$@&$@$$$@OOO@O@O@#$$@@O@#@#$O@@@@O@++OO@$@@@$@+@O+OO@X",
"@-@#+@O$@&#$$#@$+@O@O#O@O##@@@#OO@#$@$++O@@@+OO@$@@$@$$$@++O#$#X@-@@O@O$@&@$$@@$+@O@+@O@O@@##@@+O@@$@$OO+@@#OOO@$@@$@$$$@OOO@$#X",
"@-&@$@$$&$@@#O@#+@@#O@@@#@@@@$$$$$$$$@$O#$@+#+$O$$@+#$$@+@O$O$$X@-&@$@$$&$@#@O#@O@@#O#@@#@#@#$$$$$$$$@$O@$@O@+$+$$@+@$$@O@O$O$$X",
"O-#@#$+@$@O#$$@@O#O@+#O#O@O$#O@@+@#$@OO@O$@@OO@$@@O+#O$@@+O@$@@XO-@@@$+#$@+@$$##+#O@O@O#O@O$@O#@O@@$@OO@O$@@+O@$@#+O@O$@@OO@$@@X",
"@&&@+O&@@@$O$@$$$@@@@OO@O@$O$@@+$O@#$+@$@@$O@X@##O@#@O$$O@X@@#OX@&&@OO&@@@$O$@$$$@#@@O+@+#$O$@@O$O@@$O@$##$O@X@@#O#@@O$$O@X@@@OX",
"O-@@O$O@O@@#@$@$O$@@O+@O@@@$##@$O@@@@@@@@@@$#+@$@$@$O$X$$@O@$@$X+-#@O$O#O#@@@$#$+$@#+O@O#@@$@#@$+@#@#@@@@@@$@O#$@$@$+$X$$@O#$#$X",
"$1@@$$$O@@&@$$@@##@O+@$O#O@@$@$O$@@OO@$@#+@#$O@@@#$@@O$##$O@#@@.$1@#$$$O#@&#$$###@@O+@$O@O@@$@$+$@@+O@$@@O@@$O@@@@$@@+$@@$+@##@.",
"@-$@#$@@@@#$#@@$#@@$O@O@O$O#O@@OO#@#@$@@O@O@+$@@O#O+OO@#@O$@@+@X@-$@@$#@##@$@##$###$O@O@+$O#O@@OO@@@@$@@O#O@+$@@O@+OOO@@#O$@@O@X",
"O&$$+#@@X@O#$@$@$@$O@@#$$O$$$@$O$+@O#$$$@@O@O+$#$#$O$$$+@OO$#$@XO&$$O@#@X@+@$#$@$@$O@@@$$O$$$@$O$O#O@$$$#@O@O+$@$@$+$$$+@++$@$@X",
"+-O$O@O@+$$#OO@O@@$$@$@@@@@O$O+@$@@OX$@$@@@O+@+@O@OOO@@#O+@O@O@XO-+$O@O@O$$@OO@+@@$$@$@@@@@+$OO@$@#OX$@$@@@O+@O@+@O+O@@@O+#+#O@X",
"@-OO@$@O#OOOOO$+@@#@O@@#@@$@@O#@$$@$#O$@@#$O$@@@@@OO#$$@O$@@@@@X@-OO@$@O@OOOOO$O#@@@O@@#@@$@@O#@$$@$@O$@@@$O$#@#@#+O@$$#+$##@@@X",
"@-#+#+@OO#X$O@@#@@@@@@#@O+$@O@#@$O#OO@O$@$@@+@O#O@O$O+@@@O@O#O@X#-@O@+@+O@X$O@###@@@@#@@OO$#+@@#$O@OO@O$#$@#O@+@O@O$++@@@O@O@O@X",
"@-$#$O$@#@OO$$$$@@@#$@@$$@OO@@$O@@$$$@$+@+@#@O@OO@@@@@@+#@O@O+@.@-$@$+$##@+O$$$$@@@@$@@$$@OO@@$O#@$$$@$O@+@@@O@OO#@@@@@O@@+@+O@.",
"$1@@$@O@@@XOO@O@@@@$@O@@@OO@OO+$OOO@O@$$@O##X+XO+@#@+@O$@X+XOO@X$1@@$@O@@#XOO@O@@@@$@O@@@OO@OO+$OOO@O@$$@O@@XOXOO@@@O@O$@X+XOO@X",
"@>&@#O@+OO@+$$O@+O+O@@$@#$@O$O@+$X@@@##O$$##@XX#@#@@++$O@@XX@@@.@>&@@+@OOO@O$$O@+O+O@@$@@$#O$O@O$X@##@@O$$#@#XX@##@@OO$O##XX@@@.",
"$>O@O$OOO@++O#@#O@@@O@O$O@O+###@$$O@+&@#+@OO+@O#O+O@OOOO++@O#O+X$>O@+$+OO@+OO#@@O##@+@O$+@OO@@@@$$O@O&#@+@O+O@O@OOO#OOOOOO@O#OOX",
"@-$#@$$$$@@@$$$$@O$OO@$@#O@+@#@#@O&@#@$@$#O#O@#@$@@@+@@O@+@##$@.@-$@@$$$$@@#$$$$@+$OO@$@@O@O@#@@@O&#@@$@$@O#O@@@$@@@O@@O@O##@$@.",
"@2&$$$@@$@@O@$O$$$@@OOOO$@O@@@O@#@@$@$O##@O+O++OO++O@@+OOOOOO+O.#2&$$$@@$@@O@$O$$$@@O+OO$#+@#@O#@@#$@$+@#@OOO+OO+OOO@@O+++OOO+O.",
"#-$#$#$$@+$@$+$@$@@##@$@@+@@@#$@@O@$&O$@@OO+O@$#$#@O$@$OOO@$@$#X#-$#$#$$@O$@$O$@$@@@@#$@@+@#@@$@@O@$&O$@@OOOO@$@$@@O$@$OOO@$@$@X",
"#-@O#+@OO@X$O@@@@#@@@@##OO$#+@@@$+@OO#O$@$@@O@O@O@O$OO@@O@@@OO+X@-#O@+@+O@X$+@@@@@#@@@@@O+$@O@@@$O#OO@O$@$@#+@+@O@+$OO@#O@#@OOOX",
"@-$@$O$@@@O+$$$$@#@#$@@$$@OO@@$O#@$$$@$O#O@@#+@++@@@@#@+@@@$$#@X@-$@$+$@@@+O$$$$@###$@@$$@+O@@$O@@$$$@$+@+@@@O@++@#@#@@O@@@$$@@X",
"O-$$$$@$@@&$#$$&$$$$@+$$#$$@&$@@@$$@$@O@$O$@@@$$#@$#&@$@#@@$$@#++-$$$$@$@@&$@$$&$$$$@+$$@$$@&$@@#$$#$@O@$O$@@@$$#@$@&@$@@#@$$@@O",
"$.X.....X.X.XXX.X.X.....X.X.................................X..X$.X.....X.X.XXX.X.X.....X.X.................................X..X",
"$OO$O$$$@&@$$&+$$$@$O$O$@OO@O$#$&@OO+$$X#++OO$#$$$$@@$@$OO$@$$$#$OO$O$$$@&@$$&O$$$#$O$O$@++@O$@$&@OOO$$X@OOOO$@$$$$@@$@$O+$@$$$@",
"X212242122222221221-11222-222212>222222&->1>222-211,111>>222-21XX212242122222221221-11222-222212>222222&->1>222-211,111>>222-21X",
"O2#&-&&&&&$&$&$&$$@$&$@$$$#$$&#$#$@$&&$&&$$&&&&$@$$&&&$$&&&&$#$XO2#&-&&&&&$&$&$&$$@$&$#$$$@$$&@$@$@$&&$&&$$&&&&$@$$&&&$$&&&&$@$X",
"$-$$$@@@#@@#$O@@@@@O$$@@$$$O$$&@&$&$&@$O@O@@@OO@@@$$$@O##@+O@@@X$-$$$@@@@#@@$O@@@@@O$$##$$$O$$&@&$&$&@$O@O@@@OO@@#$$$@+@@#OO@@#X",
"$2$#@@+&#@O$O@+O#@OO@O@@O##&$$+$O$#@$O@#@#+@+@O+O$@#XX+@@O@+O+$X$2$#@@O&@@O$O@+O@#+O@O@@O#@&$$O$O$@@$+@@@@O@O@+OO$@#XXO@@O@OOO$X",
"#-&$OO&$OO$#@O##@$&$$+$$$$$@$@#O$$$@@$$@@O#@O+@O#@$@$X$O@OO#O@@X@-&$O+&$++$@@+@#@$&$$+$$$$$@$@@O$$$@@$$@@O@#+O@O##$@$X$O@+O@O@#X",
"#-$#@@O@OO$$O$@@@@$$@&$$@$O@@+$$$$$@X$OO$$$@O@+@$&#@+++O@O@O@$&X@-$@#@+@O+$$+$@@@@$$#&$$@$O#@O$$$$$@X$OO$$$@O@+@$&@@O+O+#+@O@$&X",
"O,$O$#O@#@$@$$$$$$$@$$$@$X$$$#$&@@O@$$$#$OO@@O@@@$&@+O#O@#O@@#$X+,$O$#O@@@$#$$$$$$$#$$$#$X$$$#$&@@O@$$$@$+O#@+@#@$&@O+@O@@O@@@$X",
"#1@+++@O#+X@$#+$O$@$@#$+O+$&$#@O+$O@O@@$@+$@@OO@O$@@OO@@##O+@+$X@1@OOO@+#+X@$@+$O$@$@@$++O$&$@@OO$+#O#@$@O$#@OO@O$@@OO@@@@+O@O$X",
"+>&O$@#+@$@+$#@@O#$#&+@@$$$@$@@O+@$$#$$$&+@O#@@@$$@O@@@OO@@@@$$XO;&O$@@O@$@O$#@#O@$@&+@@$$$@$@@OO@$$@$$$&O@O#@@@$$@O@@@OO@@@#$$X",
"O,O@$#O$@O@$@$O@@@@$OO##O@@@@$@$X@O$$$+$@$O@O$@@$$O@O$O@@+$#@$$X+,O@$@O$@+#$@$O@@#@$OO@@O@@@@$@$X@O$$$O$@$O@O$@@$$O@O$O#@O$@@$$X",
"@>$O&$@@$#$$&$@O$@@&O@$@@@@O$+@#@@@#$$@@#OOX@@@@$&$#$@$OX@@##$&X@>$+&$@@$@$$&$@O$@@&O@$@@@#O$O@@@@@#$$@@@OOX@@@@$&$@$@$+X@@@@$&X",
"O,O@OO+$$@@$+$O@@$OOX@O$@@O+#@@#O@$$@@@$O$$@@$+O@O#$O$O@@@$OO#+XO,O@OO+$$@@$O$O@@$OOX@O$##+O@@@#+@$$@@@$+$$@@$+O#O@$O$O@@#$O+@+X",
"$-$@#@$$$$$$$O@@@@@X$+$@@@#O$@@@$O$$$$&@@@@@$@@@@@&O$@@@@$@#@@@X$-$@@@$$$$$$$O##@@@X$O$#@@@O$@@@$O$$$$&@@@#@$#@@@@&O$@@@@$#@@@#X",
"O1@#@#$O@@$$OOO@$$XO@$#$@@O@$$@&$$O@@$@@+$$X@$O@#$O@$$O#X@$O@@$XO1@#@@$+@#$$OO+@$$X+@$@$#@+@$$@&$$+@@$@@O$$X@$O@@$O@$$O@X@$+@#$X",
"#-@#$O#O$@&&$@$O@O#$$O@@$$@@&@$$@$$$&&$#@@$O##@@$$$@&$$OO@@@@$$.@-#@$+@O$@&&$@$O@O@$$O@#$$@@&@$$@$$$&&$#@@$O###@$$$@&$$+O#@@@$$.",
"+-$OO@OO#@@+$#@$@#@$$$O+@@$$@O@#O+@@@@@@OO+O@OX@$&@$@XO$O@OX@$&XO-$+O@OO#@@O$#@$@@@$$$++@@$$#O#@OO@@##@@OOO+#OX@$&@$@XO$O@OX@$&X",
"O-@#OO@#$#$$$O$##O$@@O$$O@O@@@@@@O$#$@+$$$#$@O@##$@$&@##$@+@@@$XO-@@+O@@$@$$$O$#@O$@@+$$+@+@@@@@@+$@$@O$$$@$@O#@@$@$&@@@$@O@@@$X",
"O1+@+$+$O$@+O@O#@$O$@@@@##$@$@@@@#O#$$+@@@X$++@@$$@$@$O$$O+@#$$XO1+@O$O$+$@OO@O#@$+$#@@@@@$@$#@#@#+#$$+#@@X$OO@@$$#$@$O$$OO@@$$X",
"@-&O&$$O@O$+$#$@$O#@&O$@$@@O@$$#@$$$$#&+$O#O#@$$O@@O$@@OO@#$$O@X#-&O&$$+@O$O$#$@$O@#&O$@$@@+@$$@@$$$$@&O$+@O@#$$O@@O$@#OO@#$$O@X",
"O-#$O@@@+##$+$OO@@OO++@@O@O#@$@@O#O$@@@OOO$+O&$$O@+@O$O#O+&$$O@+O-@$O@@#O@@$+$OO@@OOOO@@O@+@@$@@+@O$@@#+OO$O+&$$O@O@O$+#O+&$$O#O",
"O2&#@$$+$#++@O@O$O@O@O$#@O@$$@$@#+@#@O@@@+$XOO$$#@++O@@$X+O$$#@X+2&@@$$O$#+O#+@O$O@O@+$@@+@$$@$@#O#@#O@@@O$XOO$$@@O+O@@$XOO$$@@X",
"O2$@O#O#$$$@X@@$@$@OO#O$$$$$@@$O+$O@$OOOXO+OOOO@$O#@@@@#OOO+#$OOO2$@+@O#$$$@X@@$@$@O+@O$$$$$@@$+O$O@$O+OXO+++OO#$O#@#@#@+OOO#$OO",
"$>$$$@#+#@@O@$@O@$OO$@$@$@#$@+$$$$@O++$#$$+#$$$$@O@O$@&#@$$$$@O+$>$$$@@O##@O#$#O@$O+$#$@$@@$@O$$$$#OOO$@$$O@$$$$@O@+$#&@@$$$$@+O",
"O1$$O@+$@@+$$$O@@$@$@#$@@$@@+OO#O@$@O$##+@#@O@@$@$O@@$O#@O@@$#$XO1$$+@O$@@O$$$O#@$@$@@$@@$@@OO+@+@$@O$@@+@##+@@$@$O@@$O@#+@@$@$X",
"@1$#$@@$@$@$$@$@@@$@@@@#@O#$@O@OO@#@$$&@$@@$$@&&$@$O$@$@$$@&&$#O#1$#$@#$#$@$$#$@@@$@@@@#@O@$#+#+O@#@$$&@$@@$$@&&$@$O$@$@$$@&&$@+",
"#1$$$$$#$@@@@##+$O+$#@O#O$@$@@O$$$#$O@O@$$$@@@$@O$+OO@$$@@@$#O$O@1$$$$$@$@@@@@@O$OO$@@O@O$@$@#O$$$@$+@O@$$$##@$#+$+O+@$$@@@$@O$O",
"$-$+@@#+&$$$#O@O$O$@+@$@$+@++#$@$@@$$$$+$$$O$$&$$@#+$#$@O$$&$$#X$-$+@@@+&$$$@O@O$+$@+#$@$+#+O@$@$##$$$$+$$$+$$&$$@@+$@$@+$$&$$@X",
"&-$O#$@+@$$@@OO@O+O@$$@$O@O@O@@&+@$@#OO+@$X&@O@O@+O@+OO@&@O#+@OO&-$O@$@+@$$@@OO@OO+@$$@$O@O@O@#&O@$#@+OO@$X&#+@+@OO@OOO@&@+@O@OO",
"&-$O$O$#$@$$@O$@@OO@O@@@@O@O+@@$$@$@#$$@#@#@@@$$+O$@$O@@@@@$$OO+&-$O$O$@$@$$@O$#@OO#O@@#@O@O+@@$$#$@@$$@##@@@@$$OO$@$O#@@##$$OOO",
"@-$@@@@@O@O@O@OOO@OOO#@$+O@+@$@@#$@$$$$@@+@@#@#$@@$$$@@#@#@@$@@X@-$@@@@@O@O@O#+OO@+OO#@$++@O@$#@@$@$$$$@@O@@@@#$##$$$@@@@@#@$@@X",
"$-&#@$@@$@$+$O@@$@OO$@O@#+$+$#$@O$@#$@@@$$@O@O$@@$@@&#$@O@O$@@$X$-&@@$@#$@$O$+@@$@OO$@O@@+$O$@$@O$#@$@@#$$#O@O$@#$#@&@$@O#O$#@$X",
"$1$@@+$#@O#$#+OO+OO$OO@OO@O$@$@#O@@$@$O+#$@@O$@$@@$@O$$@#O$@$@@O$1$@#O$#@O@$@OOO+OO$+O@+O@O$@$@@O#@$@$OO@$@@O$@$@@$@+$$@@O$@$@#O",
"+&@+@#@OO+##OO@@+@$+@@$OO@@#$$$@@O@OO@$$OO$@@O$X$$$@O@$@@@O$X$$XO&@+@@@OOO#@OO##O@$+@@$+O@##$$$#@O@OO@$$O+$@@+$X$$$#O#$@@@O$X$$X",
"@-@@@$#$#@@&#@##@$@O@#O@##+$$@@$+@@@O$+$OO+@@@OO@@+@$#O#@##OO@@X@-#@@$@$@@@&@@@@@$#O@@+@@@O$$@@$O@#@+$+$OO+@@@OO@@O@$#+@@##OO##X",
"#-$@$$&@@+@O@$$$$OO@$@$@@#@@#$@$$$@OO@$@@@@@@@#$@@$O$$@+#@@@$@@X#-$#$$&@@O#O@$$$$OO@$@$@@@@@@$@$$$@+O@$@@@@@@@@$#@$O$$@+#@@@$@@X",
"O1$#+$@@O$+$O@@O+@@+O@$@##O$O@#@+##@O$@$@@+@O@#@@@$@+@@O#O@@@@#XO1$@O$@@O$O$O@#OO##O+@$@@@O$O@@@+@##O$@$@@+@O@#@@@$#+@#+@+@#@@#X",
"O-$O@#@O#@&OOO$O$O@@@X$@#O$#$O$&$@@@OO@O#O$++O$O@O@+$O+OO+O$O@+XO-$+@@@O@@&OO+$O$O@##X$@@O$@$O$&$#@@+O@+@+$OOO$O@O@+$O+OOO+$O@+X",
"X-@@@@#@@#O$O$@$O@O@+$O#OOOO+++$@$@@@@$+O#$#+@+O@$O@@@O@@O@OO@$OX-@@@@@@@@O$+$@$O#O@O$O@OO++OO+$@$@@@@$+O#$@+#OO@$O@@@O@@O@++@$O",
"&>$###$@@@@O$OOO$@@O@+$@$++@#@@@@@$@$@+@$@$O@$@@$@$O$+$@O@$@@$@X&>$##@$@@@@O$O+O$@@O@O$@$+O@@@#@#@$@$@O@$#$O@$@@$@$O$+$#O#$@#$@X",
"O>$O@@$@@@O$@@$$@@@$@O@$@O@O@$#@@&@@$OO+O@OO@+O@@$++O@O#O@++@@$O+>$O@#$@@@O$@@$$@@@$@O@$#O#O#$@#@&@#$OOOO#OO@OO@@$+O+#+@+@+O@@$+",
"$1$+@$@@#O$@&$@$$$@OOO@O@O@#$$@@O@@#@$O@@#@O@OOOO@$@#@$@+@OOOO@X$1$+#$#@@+$@&$@$$$@OOO@O@O#@$$@@O##@@$O@#@#O@O+OO#$@@@$@O@+O+O@X",
"@-#@O@O$#&@$$@@$O@O@O@O#+@@@@@#+O@@$@$OOO@@@OO+@$@#$#$$$@+++@$@X@-@@O@O$#&#$$@@$O@O@O#O#O@@@#@@+O@@$@$OOO@@#OOO@$#@$@$$$@O+O@$#X",
"#-&@$@$$&$@@@O@@O@@@O#@@#@@@@$$$$$$$$#$+@$#O@O$O$$#O#$$@O@O$+$$X@-&@$@$$&$@@#O@@O@@@O@@@#@@@@$$$$$$$$@$O@$@O@O$O$$@O#$$@O@+$O$$X",
"O-@@#$O#$@O@$$@@+@O@O@O#O@O$#O@@O@@$@+O#O$@#+O#$@@OO@O$@#O+@$@@XO-@@@$O@$@O@$$@@O@O#+@O@O@O$@O##O@@$@+O@O$@@OO@$#@++@O$@#OO@$@@X",
"#&&#O+&@#@$O$@$$$#@@#OO@O@$O$@@O$O@@$+#$@@$O@X#@@O@@@+$$O@X@@@OX@&&#OO&##@$O$@$$$@@@@OO@O@$O$@#O$+@@$+#$@@$O@X@@@O@@@O$$O@X@@@OX",
"O-#@O$O@O@@@@$@$O$@@++@O@@@$#@@$O@#@#@@#@@@$@+@$#$@$O$X$$#+@$@$X+-@@O$O@+@@#@$@$O$@@OO@O#@@$@@@$O#@#@@@@@#@$@O@$@$@$O$X$$@O@$#$X",
"$1@#$$$O@#&#$$#@@@@OO@$O#O#@$@$O$@@+O#$@@O#@$O@@@@$@@O$@@$O@@@@.$1@@$$$O@@&@$$@@@@@+O#$O@O@#$@$O$@@OO@$##O@@$O@@@@$@#O$@@$+@@@@.",
"#-$@#$@@#@@$@@@$@##$O@+@O$O@O@@+O@@@@$@@+@O@O$@@O@OOOO@@#O$@@O@X@-$@@$@#@@@$#@#$@#@$O#O@O$O@O@@OO#@@@$@#+@O@O$@@+@OO+O@@@O$#@O@X",
"O&$$+@##X#O#$@$@$@$O@@@$$+$$$@$+$O@O#$$$@@O@OO$#$@$O$$$+@OO$@$@XO&$$O@@@X@O@$@$@$#$O#@@$$+$$$@$+$+@O@$$$@@O@+O$@$@$O$$$O@OO$@$#X",
"O-O$+#+@+$$#O+@O#@$$@$@@@@#O$+O@$@@OX$@$@@@+O@O@O@+OO@@#OO@O@O#XO-O$O@O@O$$@OO#O##$$@$@@@@@O$OO@$@@OX$@$@@@OO@O#O@OOO#@@++@O#O@X",
"@-O+@$@+@OO+O+$O@##@O@@@@#$@#O@@$$@$@O$#@#$+$@@@@@OO@$$@+$@@@@@X@-OO#$#+@O+OOO$O@@@#O#@@#@$@#+@@$$#$@O$@@@$O$##@@#OO@$$@+$@@@@@X",
"#-#+#O@OO@X$O@@@@@@@@@@@O+$@+###$O@OO@O$@$@@O@+@+@+$OO@@#O#O@O@X#-#O@O@O+@X$O####@#@@@@#O+$@O@#@$O@OO@O$#$@#O@O@+@+$OO@@@+@O#O@X",
"@-$#$O$@@@++$$$$#@@@$@@$$@O+@@$O@@$$$@$O@O#@@+@O+@@@#@@O#@+@O+@.#-$@$O$@@@OO$$$$@##@$@#$$@OO@@$O#@$$$#$O@O#@@O@OO@##@@@O@#O#+O#.",
"$1#@$@O@#@X+O@+@@@@$@O@@@O+@+++$++O#+@$$@O@@XOXOO#@@O@O$@XOX+O#X$1@@$@O@@#XOO@O##@@$#O@@@OO@+OO$OOO@O@$$@O@@XOX++#@@O#O$#XOXOO@X",
"@>&#@O@OO+@O$$O#OOO+@@$@@$@O$O@O$X@@@@#O$$@@#XX#@@@@OO$O@@XX@@@.#>&#@+#OOO@O$$O@OOOO@@$@#$#+$O@O$X@#@#@O$$@@@XX@@@##OO$O@#XX##@.",
"$>+@+$OOO@OOO@@@O#@@O@O$O@++@@#@$$O@O&@@O@O++@O@OOO@OOO+OO@O@OOX$>O#O$O+O@O+O@@@+@@#O#O$+@OO@@@@$$+@O&#@+#OOO@+@OOO@O+O+OO@O@OOX",
"#-$@@$$$$@@@$$$$@O$O+@$@@O#O@@#@@O&@@@$#$@+#O@#@$##@O@@+#O@#@$@.#-$@@$$$$@@@$$$$@+$OO#$@#+@O#@@@@O&@@@$@$@O@O@@@$@@@O##O#O@#@$@.",
"@2&$$$@@$@@+@$+$$$@@O+OO$@O@@@+@@@@$#$+@@@OOO+O+O+O+@@OOOOOO+OO.@2&$$$@@$##O@$O$$$@@O+++$@O@#@+@###$@$O@#@OOOOOOOOO+#@OOOOOOOOO.",
"@-$#$@$$#O$@$+$@$@@@@@$#@O@@@@$@#O@$&+$##OOOO@$@$@@O$@$OOO#$#$@X@-$@$#$$@O$#$O$#$@@@@#$@@O@#@@$@@O#$&+$@#OOOO#$@$@@O$@$OO+@$@$#X",
"@-@O@O@++#X$+@@@@@@@@@@@OO$@+@#@$O#+O@O$#$@@O@O#+@+$+O@@O#@#+OOX@-@O@+#O+#X$O@#@@@@#@#@@+O$#O@@#$+#+O@O$@$@@O#O@O@O$+O@@O##@OO+X",
"@-$@$+$#@@+O$$$$@@@@$#@$$@OO@#$O@@$$$#$O@O#@@O#O+@@@@@@O@#@$$@@X@-$@$O$@#@OO$$$$@@@#$@#$$@OO@#$O@@$$$@$O@O@#@O@+O#@@##@+#@#$$#@X",
"O-$$$$@$@#&$@$$&$$$$@O$$#$$#&$#@@$$#$@+@$+$###$$@#$@&@$#@@@$$@@+O-$$$$#$@@&$@$$&$$$$@+$$@$$@&$@@@$$@$#O@$O$@@#$$#@$@&@$@@#@$$@@O",
"$.X.....X.X.XXX.X.X.....X.X.................................X..X$.X.....X.X.XXX.X.X.....X.X.................................X..X"
};
