/* XPM */
static char *texture[] = {
"64 64 254 2",
"aa c #656327",
"ab c #A8A32E",
"ac c #AF9D2B",
"ad c #6F6D2B",
"ae c #74631F",
"af c #C6A82F",
"ag c #52421F",
"ah c #82822A",
"ai c #8F8F28",
"aj c #8B7A22",
"ak c #BCB475",
"al c #A49B27",
"am c #5B301C",
"an c #A49126",
"ao c #957F2A",
"ap c #534522",
"aq c #A2A198",
"ar c #9F7331",
"as c #B2A72E",
"at c #AE9529",
"au c #8C8024",
"av c #715D27",
"aw c #4D411D",
"ax c #D3A649",
"ay c #52471D",
"az c #171614",
"aA c #6C381C",
"aB c #7D7340",
"aC c #867E34",
"aD c #BAA62D",
"aE c #947A27",
"aF c #A7A02D",
"aG c #B7A22A",
"aH c #C8B431",
"aI c #B2A12A",
"aJ c #594928",
"aK c #B79B2D",
"aL c #392727",
"aM c #CAC9C8",
"aN c #A08725",
"aO c #B9A42A",
"aP c #95942D",
"aQ c #4C302F",
"aR c #06020B",
"aS c #6A511E",
"aT c #533220",
"aU c #432E23",
"aV c #AF9A2A",
"aW c #2B1F1A",
"aX c #361E15",
"aY c #B1A82C",
"aZ c #8B8927",
"a0 c #886324",
"a1 c #A9A698",
"a2 c #B3A02A",
"a3 c #826F21",
"a4 c #908C76",
"a5 c #261F1A",
"a6 c #928123",
"a7 c #5C4D26",
"a8 c #111114",
"a9 c #A59C2A",
"ba c #CDB42F",
"bb c #5D5724",
"bc c #08050E",
"bd c #433318",
"be c #4D311C",
"bf c #978227",
"bg c #432B29",
"bh c #B3A62A",
"bi c #583B1D",
"bj c #211F1B",
"bk c #1A1A1B",
"bl c #36251D",
"bm c #120F14",
"bn c #7B681D",
"bo c #AE9129",
"bp c #292217",
"bq c #3B251E",
"br c #A29132",
"bs c #483C1D",
"bt c #9A8B30",
"bu c #70662A",
"bv c #C0B030",
"bw c #705822",
"bx c #816A20",
"by c #A08A25",
"bz c #8B8A30",
"bA c #AFAEA8",
"bB c #422519",
"bC c #B9A02A",
"bD c #837B2A",
"bE c #ACA52A",
"bF c #A6982A",
"bG c #514B2D",
"bH c #221C1A",
"bI c #B5AD2E",
"bJ c #5B5121",
"bK c #655222",
"bL c #AA9727",
"bM c #C3A82E",
"bN c #664A1A",
"bO c #957B22",
"bP c #4F391D",
"bQ c #4C2C1F",
"bR c #46371D",
"bS c #6A5728",
"bT c #C0B432",
"bU c #352524",
"bV c #392B15",
"bW c #33221A",
"bX c #745817",
"bY c #3C281B",
"bZ c #0E0810",
"b0 c #989928",
"b1 c #907C22",
"b2 c #A18B2D",
"b3 c #817226",
"b4 c #644F1E",
"b5 c #392E1A",
"b6 c #4D3E20",
"b7 c #BFA12C",
"b8 c #584818",
"b9 c #30221D",
"ca c #605223",
"cb c #AA9C28",
"cc c #A17F2E",
"cd c #B4A534",
"ce c #C3A32D",
"cf c #BDA82C",
"cg c #0D0B10",
"ch c #605C27",
"ci c #36321D",
"cj c #BFAC2E",
"ck c #96803A",
"cl c #B9AE30",
"cm c #665727",
"cn c #BBAE32",
"co c #A99229",
"cp c #CAAE31",
"cq c #A4992D",
"cr c #85816E",
"cs c #7C6A28",
"ct c #B7A12C",
"cu c #050509",
"cv c #0A090E",
"cw c #4B2819",
"cx c #6A3219",
"cy c #837F25",
"cz c #43281A",
"cA c #BBB22F",
"cB c #A7A32F",
"cC c #A7A52C",
"cD c #5D481C",
"cE c #523912",
"cF c #A29029",
"cG c #AC9F29",
"cH c #584218",
"cI c #C3B02F",
"cJ c #070809",
"cK c #1E1918",
"cL c #B18037",
"cM c #9B9027",
"cN c #827421",
"cO c #C2AC2F",
"cP c #B39C30",
"cQ c #AC922B",
"cR c #BBAC2D",
"cS c #BFA52D",
"cT c #C99B47",
"cU c #A49728",
"cV c #3C311B",
"cW c #BCAE2F",
"cX c #C2AE2F",
"cY c #8B731E",
"cZ c #989A2D",
"c0 c #36211A",
"c1 c #B8A62C",
"c2 c #3F3921",
"c3 c #4C4520",
"c4 c #CFBE33",
"c5 c #D7BF33",
"c6 c #C6B031",
"c7 c #BA923B",
"c8 c #34281D",
"c9 c #2B251A",
"da c #AE9829",
"db c #532C18",
"dc c #432A1B",
"dd c #38231D",
"de c #3A2B22",
"df c #49421B",
"dg c #CDC064",
"dh c #66571B",
"di c #685E23",
"dj c #66421A",
"dk c #989656",
"dl c #39251F",
"dm c #CDB930",
"dn c #B8A62E",
"do c #74501E",
"dp c #C6B730",
"dq c #928926",
"dr c #B9A533",
"ds c #AB8B2F",
"dt c #1D1C1C",
"du c #979694",
"dv c #A48C2A",
"dw c #281C1A",
"dx c #0D0C11",
"dy c #BEA830",
"dz c #534214",
"dA c #9A8825",
"dB c #949428",
"dC c #C6AC2F",
"dD c #CBB432",
"dE c #151315",
"dF c #B4AC2F",
"dG c #7A6320",
"dH c #8E6A26",
"dI c #2C2919",
"dJ c #998323",
"dK c #BEB431",
"dL c #9B8B28",
"dM c #C6B433",
"dN c #A59A46",
"dO c #5D4D18",
"dP c #6D5819",
"dQ c #715C19",
"dR c #A88F27",
"dS c #BCAF2E",
"dT c #ABA12A",
"dU c #0E0F10",
"dV c #CAB933",
"dW c #B2A32C",
"dX c #C0B42F",
"dY c #7F5C1F",
"dZ c #917327",
"d0 c #8A7427",
"d1 c #513E19",
"d2 c #D0AE3A",
"d3 c #C9AD30",
"d4 c #B39A29",
"d5 c #0E0D12",
"d6 c #C5B42F",
"d7 c #131216",
"d8 c #2F1F19",
"d9 c #100E13",
"ea c #3D2827",
"eb c #544A18",
"ec c #958C3A",
"ed c #CBB932",
"ee c #19181B",
"ef c #412822",
"aRcvcJeeeecKaWbUaWbYbeaXaWa5cKbYbBddefddbWd8c0c0bWcVb6a7aaaaadadadaaaaaaaaaSdjdbbBcwdbdbdbaTdbaAaAcxbBdcdcbBcwamaAcxambQdcaXefdd",
"bcbZcJcgeebkdtbHd8czbQbYaWbjcKdddcbqdcaXd8aWaXbdbJaabub3bDbDcNcyahcyahahahbDb3aaaybdcwdbdbdbdbaAaAaAbBbBdcczaTaAaAaAambQdcaXefdd",
"bcbccJcuazbkdta5blbQbQdcd8dwbHc0czbYbec0bpbpaybubuaecNahauaZaZauaZaiaZcyahahaZahaCbucHdbamdbcwcxcxcxcwczefbBdbaAaAcxcxdbczaXdcdd",
"bccvcgcveedtbHaWbYefczbQbWaWdwd8aUbBbebBbVbbb3aBaqa4crcrcra4aBdua4aPdkcra4aqaCaibzbzbDaScEdbcwamcxcxbQczbQbBdoarara0djdbbBaXdcbq",
"aRbccgdUazdtbjb9bWaXbQaTbWbpdwdwdebYcwcHbub3aZaCaMa4bAaqbAbAdubAa4bta1aqaMa4ecb0b0dBaibzcscEcwamaAcxcwbBcwcDccaEaEaodZamefbWefbq",
"bccgcgcgdUazbjbHdwc0beaTbqbpa5cKd8bpcEcsauaicMcMbAdkaMaMbAaMcrbAa1cqa1aqduaMdkdTaFa9cZaZbzb3cEdbcxcxcwefdbcsd0bXbxb1ccdHczd8dddl",
"bZbmcgcvdUeedtbHd8bYbebebQd8bja5aWbdcsaZcMcUancqaMdkaMdubAaMa4duaMdNakaqdubAa1aldTabaldBdBaPadcEcxambBc0cEaEbnaSb3b1dJb2cDd8dldl",
"bmbma8dUdUeedta5b9dlbBaTaTd8bjbHbVaddqcMcUa2ctcPa4dka4cra4dudka1a1cndka4a1a1dNbhdWasa9b0b0aPbzbucEcwefaXdzbtaedhb3aubfdvd0aXdldl",
"bmd9d9dUcvdEdtbjb9d8bYaTaTaXbjbpchcycMcUdWdyafbMatcScOcpcpdDc5dDdVdmdDaHdMbvdpbTcWdndTalb0b0dBecdibddcaXb4btbndhbxaub2cQbrbVbWdl",
"bmdxdxbmcvdxeedtbHaWefaTaTefbpc3bzcMbFdWdnbMafafbMbabac5c5c5c5c5c4dmc4c4c4eddpdpbTcRdWa9alb0cZaPbzdhbVbVcsbtaodPbnajcFaVccbVd8bl",
"bmbmcgd5bmd9eebkbHb9aUbQamaTbVaCcMalaVaIaOdCdCd3cpbac5c5c5c4c4edcIdXdpd6dpdXbTdKbTcAbhcGa9cqcZcZaPbzebdObDaub2btaobtbrdvdYczc0ef",
"dxdxbZd9bmd9eedta5bUdlbBamdbbKbtcUcbacaIdydCcpcpbabac5c4dmaHededc4c4c4c4dpbTcAcAbTbTclaccbaFcqdBcZaPahbzaubnbndGbxdHa0dobidcaXaU",
"cgbcbZd9a8d9d7cKbHdwaWefamcEbDcMcUacdncncjc6dCd3bababadmdmdVc6dMdVdpdXbTdMdKdKbTbTdKcWdWcGbEabdBaZaidqdqajavbibidjdjaAaAaTbYaXef",
"bpazbZbZd9d7d7eecKdwb9bgdbbNbzcMaldWasascRcWcXc6eddmdmdmdpcjbLcobFanascAclclcAdKdKdKdSc1dndFbEcMdJdAdLdqb3b8bBcwamamambQbBd8d8bq",
"aBaBawazcgdEdEbkcKdwbUbgcwdPaPcUalcGaIcGclbvcIdMdMd6d6bvcbdLbnbxbnbXa6accldFbIcAdKdXdScnbTcWc1dabodvdAauaecEczbqddc0c0c0bWb9d8bW",
"dOaCecbubVdEd7azbja5b9c0bVa3cZalcbcGcGcGcRbvcjcjdyaDc1cPaobwcHcHdzdzdzbnb1aFdFcldKdMbTbTbTdSaOd4dRdAauaeadchbYdlb9bpd8dlc0bWbWb9",
"cEdObrbraCdfazdEdtbjbHd8dzbtalala9cGcGdWdyaDaGa2ctdncPbtaSd1cEdzb8b8dzdzdPajdWbIbIcldKcAcAcRc1daana6bndOchaac2b5decibWdlbYc0blbl",
"cDbVbDcqbrecaabVazcKbHbWaecqala9cbcbcGaIcta2a2aGdndraEdOdzdzdhbDaZaubDbndQcYcbcRbhaYcAcAcAdKcRaIaVcFcNdichaabGb5c8c2c2debYbYbYbl",
"cmbVdzbtcodvb2aCa7bpbHbVaCaFdTdTcbbLbLcPcta2dydycQbxdOdzdObxbrdWdWdTaFaccqcFaIbhasdFcAdKcAbvbTcnc1aIa9aPbzahaac2dIbpcicibpdeaUde",
"buebbdbDdLb2dvdLecaBbJdhbrdWbEcbcbbLacctctaGdndRbXb8dzaeeccqa9cbcbcbcbbLbLcbcGdWdndFcldKbTbvbTbTdSbIbEabcBcZahchbGcibjbpcidIc8bG",
"addib4csb3bDbDauauaoaobracctctacdabLdWaIc1a2cPb1dzdOb3brcqa9alcUbFcbcbbFbFcbcbacdWbhaDdSbTbTdXdXdSclaYbEabaFcZbDbbbGc2c9bpdIbpci",
"c3chbJawbsbsawbJbub3aucqcGaGaGd4aVaVaVa2aOa2cQaEb3aobrcqcFcMcMcMcFb2cFcFcFcUcUbFbFacaGcjbTbTdpdpd6bvclasabaFcBbzadchbGc2dIbjdIc9",
"azazdUazdUcvdUazbpawdibDcFbFacacaVcoata2dadadvaodqdLdAdJb1ajd0b3a3cNajb1a6dAdLcFcFdaacdncIdpedc4dpbvclascCcCcBcZahadaabbc3dIcKa5",
"d7dUcJdUa8dxd5d7bjb5bPdzaecNaoaobxa3dJcodRcQbyb1auajcNa3aeaeaebxaobrbrbrbrbrcFdvdvanaVaOd6c4c4c4edbTclaYbEcCa9cZaZahahadaabGdIdI",
"dEd7cJd5d9bZcveebjdeaUdcbdbdd1cHcEbwd0aoaNcodva6cNa3dGdQdQdQb3aCcsaSdzb4dhdGaEb2anbLaGcXedc4c5c4dVbTclaYbEcCa9cZaZaZaPaiaZahchdI",
"d7d7cvbcbcaRcveeeedIb5bRbdbdbdbdbdbKaecsajaNdvdAajcNbnaedGcscsdhaSbiaXbSa7aBbNbOdadndMdVc4c5c5c4dVdXcAbIbEcCa9b0aiaicZcCcZcZahbb",
"d9bmd5aRbcaRbcdEbkcidfc3awawd1d1d1dzdzb8aeb1dAaNdJbfb1aja3csbNdNcTdjaAaAckdNa3cQdncXdVdmc4c5c5c5dVdXcAdFbEcCaFb0cZdBcZcCcCcCcBbD",
"cgbmd9aRaRbZbcd7azciebebebbJb8agapaJapdzdOb3dJaNdRdRcFdLaodQdPdNdgcTa0dHccbOdvaKaOaHc4c5c5dmdmdmeddXcAbIbEcCcCalcZaPcZcCaYdFcCbz",
"bZcgd5bcaRbmd5d5eedIdfaydzbKcHdcbVapb6cab8d0dvd4aKatbLcodvcYbXdYdZckaEdZaEcQbod4cOc4c5c5dmbaaHdDdpdXcAbIaYcCaFalcZaib0cCdFdFbEaP",
"cgdxd9cvcud9d9dxd7bpdfbsb8dNckbibicEbwavdPajcQbCbMbCd4aVd4cPbfdYdYa0dHccccaNdRb7dmc5c5dmbabaaHdDcIbvcAbIaYabaFcqcZdBb0cCdFdFbEbr",
"cgdxd5dxcucJd9a8dUbVchdzdOckc7a0dodYdZdHcYdLcPaObMaOa2a2aGaGctcQdJcYcYcYdJbLcSbac5c5c5bababaaHaHc6cXcWbIaYbEaFcqcZdBb0bEdFbIbhcq",
"d5d9d9dUcucudxd9dUaabtaedOaebxa0dZccccaNanacctaOcjcfaGaGc1aOaOcScSctctctdycOdDc5c5c5c5bababaaHcXc6cXcRclasaYbEa9a9dBb0bEcncRbhbr",
"bmcgdUdUcvcucvcvbpeccdcFdQaea3cYbOaNdRcodaa2aDcfcfcXcfaDdycfcfcfcfcjc6aHc6d3bac5c5c5bad3cpcpdDd3cOcjcRcldFaYaba9a9dBdBbEcncWc1br",
"dEcgcgd9cgcucuaRcVbrcnbTcPdJdAcFbrb2bydaaVctctaDcfcjcfdydycfcfcjcfcOcpdDdDbabac5c5bacpafd3d3cpdCcfcjcRdFaYasbEaFa9aPdBdTcnbvdnbr",
"dEd5cgd5d9cucuaRbdbtaIc1cRdndWcqdLb1byaVaVctctaDcjcOdyaDaDcfdydyaOd4bCbMdCcpbababaafbMafdCc6cOcOcfcjbIasaYdFaYbEa9aPdBdTcRcXdnbt",
"aza8dxdxd9cvcJaRb5bzcUaIbhaIcbcFdqdAa9dWctdycfbMdDdDdCcObMdCcOcfa2codJdacSceafd3afafcSbMcOcOaOaDaGbhdnaYbIbIdFaYaFb0aidTcRcXcdbD",
"dtd7d5bZd9d9cJaRbpbDdLbFcGcbcUdAa6cFcUbLdaaKaKbCcSd3afbMbMd3dCcSctcQcYcYdvd4bCb7bCbCbCbCaGaOa2a2aIaIdWbhcRcAbIaYabdBdqdTcjcXcPbu",
"dtd7d5bZbmd7bcbcazaaajdLanandLa3cNdLbyancobobobod4bCb7bCb7bMcSctcPbtd0bxbndZbfdvdvdvdvdRbLdadaaVacaVa2dWcWdScRasabdBaZaFcjdybtdz",
"bkd7dUdxd9dEcgcvdUdfbucNb1aud0dQdQaoaNbydRdRdRdRboatd4atatatbraobxbXbOcPdJbnbXbXbXdYcYaobfbyanbLdaata2c1cXbvcWdFaFdBaZaFcWdTb3a7",
"dtbka8d5d5d7a8cucJcKbbdhdPdQdPb8dOcNa6aNdvdvaNdRdRbobodRaocscHcEdzcYb7afafctdvdZdYbXbXdYdZbfdLanaVd4aOcfcjbvcWbhaFaZaZdTbvb2dodo",
"dtdtd7dxdxa8d7bcbccvcibbdOb8dOdOebdhd0aodJaNaNaNaNdvb2dZbNbVbVbNaoctceceb7b7bCcPcQccbOcYcYbfbycbctaDcfcIcXdSbhbEcqaudqacccdoaAaA",
"bjdteed5dxa8d7cvbccvdUcicmdOdhb4ebebdPb3aEaEaEbOaEdZbxbNcEcHbxcQcScececeb7b7bCd4d4d4d4d4dRdRdacRbvcIcIdpdXdSbhascMcydAbrdjamcxam",
"dtdteed9d5a8d7dxaRcgbccJbRcmdhdOb8ebebdOdPaebXbXdPbNdzcEbNaEaKced3d3afafbMaDaKaKaKbCbCceafbMdycWdMdMd6d6bvcRbha9dqajdAcqarcLaram",
"bkeedtdEdUdUd7d7aRbZdEcKbpbbdidhb8ebdzd1d1d1cEcEcEcEcEbNaEcPbMdCd3cpdCd3cOdncPatdRbob7afafd3cXcIaHeddpdXdSbhdTcMaucYdqdLc7axaxck",
"eebkbjdteedUdUbmcKdwaLeablb6aadhebebebdzawbPbPbecEcEcHbxcQdydCd3c6dCcpd3dycQaodHbOd4b7afcSbMcId6dpdpdpbTaYdTcUaZcycNdqdLcTaxaxdN",
"eeeedtbjbjdtazcKbUeaeabgbgbdaadidfdzebdzdzcEcEcEcEbNbncQcfcOd3dDaHcpdycQcYdYa0ccaKcpcpbMcjcOcId6d6bTdKdFdTa9dqauajbnauaoaxdgaxcT",
"bjdwbHbja5dwdwaWbUeabgaQbgbPcmdiebbdawa7b4aSdQaebna6cocjcIc6cpafcPdJdYbXdHcLb7b7bCcSc6cOcOcXdMdpdXcAasdTcqdBauaucNbnbDckdgdgaxcT",
"bUaLbUbUb9aWaWd8ddeabgbgaUapbKdibJawbdd1b4dGd0brcqcddrdrcPcca0bXbXdYarc7d2afcebMdycScfcfaDcRbvbTbTbIbEdTcqa6ajaoaebuavcLdgaxaxcT",
"bUaLeabgbgbgeadebqbqefefdcaJcabbchbJb4bNbNdobXbncYdZcYdYbXbXa0arc7cTd2afcebMcXcjcfdycfaGaGc1cldKcAdFcbbFdAcYajbxdicmdocTaxaxaxcT",
"aLeaaQaQaQaQbgaQaQaQaQaQbPa7cacabbdhdhdGdHardHa0dHdHdHararcLc7aKceb7b7b7aDclcnaDaOcOdyaGa2dWclbIaYdTandAajcNa3dPcacDckaxaxaxcTcL",
"bgbgaQaQaQaQaQaQaQaQaQaTaJcabJbJbbbbdhaedHarcccccLcLcLcLdsboaKd4aKaKcPacaIdWc1ctcfbMcScta2aIasaYdTcbdLaja3a3aedhebcscTaxcTcTcTbS",
"aLeabgaQaQaQaQaQaQaQaQaJa7cacDaybJbbdhdhdGcYbObObOaNaNaNaNdRboatbLcocobLbLbLdaaVa2bCd4d4dabLdWdTalcMb1a3a3dGdhaycEdHcLcLcTcLcLbd",
"aLbUbUaLeabgbgaQaQaQaJaJa7bJa7apaybJbbdhdhaea3a3ajb1b1a6dJaNaNbybycFbyancoanancoatatcobLcobLdTcbcUa6a3csdGdPbJbRbidHcLdYdNara0aX",
"eaeaaLbUbUbUddbqefaQbGapbJbJa7aJapdfaycmdhdhdQaebxa3cNajaja6dJdJbfdAdLbybyaNaNbydvdvandRdRbLcbcUdLa3dGbwdPb4bsbRbScsckdockarcsc2",
"eaaLeaeaeaeaeadebYbGbGagbJbJayapapapbda7didhdhbwbwdGbxcYd0ajb1b1a6bfbfdJdJdJdJaNbyaNbydRdRbLbFcMd0aedQdPb4aybVbRbububKbKcLcLavb6",
"aLaLaLaLeabgbgefbRaJapbsayayapagapapbRbVcmdididPdPdQaedGbnbxa3cYcYb1b1b1bObOdJdJaNbydRbocococFajdGdQdPaSb8bdbsd1d1dfawbKckardjc2",
"bUbUb9bUeabgbgaUaJaJapbsbsaJapapapb6bRbpbVchdidQdQdPbwbXdQdGbnbxcYb1b1dJaNbybyanatd4d4atdRaNb1dGbwaSb4cDbRcVa7cma7cmbSbScsbSbPc9",
"aWb9b9bUaLeaeabRa7aJapc2cVb6apapb6b6bRc2c2bGchchchbSbwaBaBavbuaBaBaBaBckckckckdkecdkdNbodvdZdGbwaSbNb8bsbdbVawa7a7a7cacmbKbPb5a5",
"b9b9b9bUbUbUbWaJcmaJc3c2deb5bRb6b6b6cVduaMbAbAduducraBbAdududuaMduaqbAaMa4aMa4aMdubAa1ckbOdYbwaSbNcDd1bVaJa7bPbRbdb6cHcaaJcVc9bp",
"b9bldedeaLaLbYcmcaapb6c2cic8b9bldebRcVdubAbAa1craMaBaBaMcra4bAaMbAaqbAbAduaMduaMaqbAbAcsdYbXbNbNbNcHbdbVawaycabKapaJaga7bRc9bpbG",
"bUbUdeaUbgbgbRcma7bGb6c2cic8b9b9b9bWbpdubAbAaqbGaMdiaBcraMa4aMduaMduaMaMdubAbAbAaqbAbudYbwaSbNbNcDcEbdaJagdzavbScHagaJb6c8bpbRaB",
"eabUdlaUbgbQapcmaJapc2c2dec8c8bUc8c9cKa4a4a4dubGaqbsaBbAbAcraMcraMa4bAa1duducraqdua4dobwaSb4b4cDbibVbdapagb8bSb4b8d1aJcVd8bVbudk",
"bgbUbUeaaUbecmcaaJb6c2c2dec8c8b5dec8c9c9b9b9b9a5bUbpbRbSbubwbSbSbSbSbSbSbScmcmbSbSbSaSdOb4dOb8cHbdbVb6d1d1cab8dOb4ayc3dIbpaJckdN",
"bgdebleaaUaJbSa7aJb6c2c2dec8c8c8dec8c8d8aWaWbpbpbjbjbpbRbSavdYdYdYdYbwbwdQdPdPbwaSdhdhb4dOdOcHbsbVbsawd1aBa4crcraBcrbGbGcra4akak"
};
