/* XPM */
static char *texture[] = {
"64 64 256 2",
"aa c #E3E3E3",
"ab c #ACABAC",
"ac c #A4A3A3",
"ad c #EFF0EF",
"ae c #ECECEC",
"af c #595959",
"ag c #3C3A3B",
"ah c #706E6F",
"ai c #1F1D1E",
"aj c #0A0809",
"ak c #5B595A",
"al c #999899",
"am c #AEADAD",
"an c #727171",
"ao c #454344",
"ap c #5A5859",
"aq c #E7E7E7",
"ar c #797778",
"as c #626061",
"at c #777576",
"au c #969495",
"av c #E9E8E8",
"aw c #615F60",
"ax c #959394",
"ay c #8D8C8D",
"az c #292728",
"aA c #3D3B3C",
"aB c #474546",
"aC c #CACACA",
"aD c #D4D4D4",
"aE c #9D9C9D",
"aF c #B5B5B5",
"aG c #282627",
"aH c #131112",
"aI c #6B696A",
"aJ c #4E4C4D",
"aK c #636162",
"aL c #F0F0F0",
"aM c #DBDBDB",
"aN c #8A8889",
"aO c #B9B8B9",
"aP c #EDECED",
"aQ c #ABAAAA",
"aR c #898788",
"aS c #6A6869",
"aT c #5D5D5D",
"aU c #000000",
"aV c #DFDEDF",
"aW c #0B090A",
"aX c #2A2829",
"aY c #151314",
"aZ c #B7B7B7",
"a0 c #A7A6A7",
"a1 c #444344",
"a2 c #4C4B4C",
"a3 c #100F0F",
"a4 c #171616",
"a5 c #312F30",
"a6 c #DDDDDD",
"a7 c #A1A1A1",
"a8 c #878687",
"a9 c #E2E1E2",
"ba c #8E8D8D",
"bb c #6C6A6B",
"bc c #575556",
"bd c #E4E4E4",
"be c #F9F9F9",
"bf c #B4B3B3",
"bg c #929091",
"bh c #C0C0C0",
"bi c #B2B2B2",
"bj c #E6E6E6",
"bk c #C9C9C9",
"bl c #C7C7C7",
"bm c #E8E9E8",
"bn c #EDEDED",
"bo c #E5E5E5",
"bp c #EAE9EA",
"bq c #B1B1B1",
"br c #D0D0D0",
"bs c #222021",
"bt c #3E3C3D",
"bu c #F3F3F3",
"bv c #F6F6F6",
"bw c #0D0B0C",
"bx c #2E2D2D",
"by c #141213",
"bz c #0C0A0B",
"bA c #888687",
"bB c #323031",
"bC c #060606",
"bD c #030203",
"bE c #585657",
"bF c #302E2F",
"bG c #1B191A",
"bH c #4C4A4B",
"bI c #373536",
"bJ c #565455",
"bK c #727071",
"bL c #403E3F",
"bM c #555354",
"bN c #918F90",
"bO c #5D5B5C",
"bP c #7C7A7B",
"bQ c #020101",
"bR c #363535",
"bS c #3B393A",
"bT c #ADABAC",
"bU c #7B797A",
"bV c #908E8F",
"bW c #939292",
"bX c #EEEEEE",
"bY c #4A4849",
"bZ c #0E0C0D",
"b0 c #232122",
"b1 c #CFCFCF",
"b2 c #989798",
"b3 c #383637",
"b4 c #090708",
"b5 c #666465",
"b6 c #494748",
"b7 c #7D7B7C",
"b8 c #EBEBEB",
"b9 c #D6D6D6",
"ca c #5E5C5D",
"cb c #858384",
"cc c #C3C2C2",
"cd c #9C9B9B",
"ce c #848283",
"cf c #6F6D6E",
"cg c #999798",
"ch c #B4B4B4",
"ci c #E1E0E0",
"cj c #7B7A7B",
"ck c #090908",
"cl c #121111",
"cm c #2C2A2B",
"cn c #4B494A",
"co c #B9B9B9",
"cp c #D8D8D8",
"cq c #A1A0A1",
"cr c #A4A4A4",
"cs c #171516",
"ct c #9E9D9D",
"cu c #525051",
"cv c #DFDFDF",
"cw c #F4F4F4",
"cx c #3A3738",
"cy c #908F8F",
"cz c #AFAEAE",
"cA c #DEDEDE",
"cB c #686768",
"cC c #A6A6A6",
"cD c #A3A2A3",
"cE c #4D4B4C",
"cF c #E1E1E1",
"cG c #CCCCCC",
"cH c #959495",
"cI c #E8E8E8",
"cJ c #E0E0E0",
"cK c #CBCBCB",
"cL c #F1F1F1",
"cM c #ECEBEC",
"cN c #4F4D4E",
"cO c #060405",
"cP c #1D1B1C",
"cQ c #413F40",
"cR c #605E5F",
"cS c #E5E5E6",
"cT c #242223",
"cU c #050304",
"cV c #CDCDCD",
"cW c #757374",
"cX c #2B292A",
"cY c #5F5D5E",
"cZ c #747273",
"c0 c #9B999A",
"c1 c #BFBFBF",
"c2 c #BCBBBB",
"c3 c #0F0D0E",
"c4 c #434142",
"c5 c #070506",
"c6 c #262425",
"c7 c #676667",
"c8 c #9B9A9B",
"c9 c #646363",
"da c #545253",
"db c #696768",
"dc c #424041",
"dd c #BABABA",
"de c #181617",
"df c #878585",
"dg c #2D2B2C",
"dh c #080708",
"di c #9F9E9E",
"dj c #535152",
"dk c #C1C1C1",
"dl c #F5F5F5",
"dm c #A6A5A5",
"dn c #B0AFAF",
"do c #514F50",
"dp c #A3A1A2",
"dq c #8E8C8D",
"dr c #131212",
"ds c #100E0F",
"dt c #151414",
"du c #504E4F",
"dv c #8C8A8B",
"dw c #9A999A",
"dx c #7E7C7D",
"dy c #767475",
"dz c #E2E2E2",
"dA c #BBBBBB",
"dB c #F7F7F7",
"dC c #A8A6A7",
"dD c #5C5A5B",
"dE c #3A3A3A",
"dF c #E9E9E9",
"dG c #A9A8A9",
"dH c #929191",
"dI c #1E1C1D",
"dJ c #6D6D6D",
"dK c #E4E3E4",
"dL c #040203",
"dM c #595758",
"dN c #444243",
"dO c #B0B0B0",
"dP c #807E7F",
"dQ c #787677",
"dR c #3F3D3E",
"dS c #979696",
"dT c #7F7D7E",
"dU c #BDBCBC",
"dV c #F1F0F0",
"dW c #B6B6B6",
"dX c #EAEAEA",
"dY c #F2F2F2",
"dZ c #121011",
"d0 c #464445",
"d1 c #424242",
"d2 c #D3D3D3",
"d3 c #080607",
"d4 c #EFEFEF",
"d5 c #828182",
"d6 c #C5C5C5",
"d7 c #353233",
"d8 c #DADADA",
"d9 c #A09F9F",
"ea c #D2D2D2",
"eb c #8B8A8A",
"ec c #B8B8B8",
"ed c #E5E4E4",
"ee c #484647",
"ef c #DCDCDC",
"eg c #110F10",
"eh c #6E6C6D",
"a6cAcvcJcFdzaabdbobobjaqdFdXb8aeb8aebnbXbXd4aLcLcLbubeavdic9bEcubHb6d0dcdccQaAcQdcdMdWbvcLd4d4bXbXbXaeaeaeaeb8dXdFcIcIbjbobdbjcK",
"a6cAcvcJcFdzbdbobobjaqcIdFb8b8aeaeaebnbXd4aLcLdYbvbuc1d5dMcEcneed0aodccQdRb6bEaAd7bLapabaLbud4d4d4bXbnbnaeaeb8dXdFcIaqbjbjboaqcK",
"cAcAcvcFdzaabdbjbjaqcIdFdXb8aeaebnbXbXd4cLcLdlbub9cqbbdjaoaod0d0aocQaAbtcQdbdAccceb6dNcubabddlaLd4d4bXbnbnaeb8b8dXdFcIaqbjbjcIcK",
"cAcvcvcFaabobobobjcIdFdXb8aeaebnbXd4aLaLdYdBefdmb7c9duc4cQdNdNdRc4dDdabiaMaybIceaCdfbtb6aJarefdlaLaLd4bXbnaeaeaeb8b8dFdFaqaqcIcG",
"cvcJcJdzbdbobobjaqcIdXb8aeaebnbXbXd4cLdYcwaZardbdMcnbEaJagagdNcYarc1dOaEaCahc4cGbfcZbxbadDeecfcvdlcLaLd4bXbXbnaeaeb8dXdXcIaqdFcV",
"cJcFdzaabobjbjaqcIdFdXaeaebnbXd4d4aLcLbvamaKcYdMandHb2dcbcbaaraCcjbhdGbgdmdvaocpc2dPbFasbMctehcZbpcwaLaLd4bXbXbnaeaeb8dXdFdFdXb1",
"cJcFaabdbobjaqcIdXb8b8aebnbnbXd4cLdYdBd6cRbcascobfdUcrcodGcpdJaDehbkdSdAcqbqdNdGdkd5bFdSdid2dTbIaybudYcLaLd4bXbXbnaeaeb8dXdFaeb1",
"dzdzaabdboaqcIdFb8aeaeaebXbXd4aLdYbubXcjdoehd2efbbdnabcpahcVcYcpbKcSaldzcKaqbHdMecarbFbKcgdndxbUbHbfbedYaLaLd4bXbnaeaeaeb8dXaeb1",
"aaaabdbobjcIdFdXb8aeaebnbXd4aLcLdYdBcVapaJdxa7aQdyaFdTbkahd8bbcMcKbkawdydTdOcQcfdScZcXdMa0bab7bkcacacAdlcLaLaLd4d4bnaeaeaeb8bnbr",
"bdbdbobjaqcIdXb8b8aebnbnbXd4aLdYbubeamdjbHdcabdpbUaZdTcKehdza8bKaKbLbHbhcKbHdcdWa6aqaCd9ccaNaRdUaycQdHdBdYcLcLcLd4d4bnbnaeaebXea",
"boboboaqcIdFdXb8aeaebnbXd4aLcLdYbudlbVcub6bYd6bNaSeadSaDcYdjbYa1d0aBbYbYbYbLbbdSbKebaFbabNaydGdGaId0cRaqbvdYdYcLaLd4bXbnbnaebXea",
"bobobjaqdFdXb8aebnbnbXaLcLcLdYbudlcIdQdab6b6c1aZdSc8cda7d0eeb6a2ducubcbMducEeebSbRbxcmaXazbFagaoaoeeduddbubebebucLaLaLd4bXbnbXea",
"boboaqcIdXb8aebnbnbXbXaLcLdYbubudBaDcfbMbHeeaEdFaneeaSdabHcudMbEbHaAbBaGbsaibGcsbydZegdsc3c3c3dsaHdeaidgdja8bhaebebuaLaLd4bnd4ea",
"bjbjcIcIdXb8aebnbXbXd4cLdYbubucwbebhbbbJcNducRbbdMbJdobcbOdjcxcTcPdeaYdZdsbwaWajb4b4d3b4b4ajajaWaWbzbwbwbwegaicEcdeddBcLaLbXaLea",
"bjaqdFdXb8aeaebnbXbXaLcLdYbubudlbednaSbJdobMcYaKaTcacRaJbFdIdedZbwb4cOdLdLbQbQbQdLcUcOcOc5c5d3d3b4ajaWaWbzbzbwbwaYc4dmcLbud4cLd2",
"aqcIdFdXb8aebnbnbXd4cLdYdYbubudlcwcdaSbEdjbEb5dbc7bJa5bGegaWc5ajbZdZcscPbGbGbGcsc3d3dLbQdLcUcOc5d3b4b4ajaWaWaWbzbwbwdtaIbdcwcLaD",
"cIcIdFb8aeaebnbXd4aLcLdYdYbububvbndvaSdMbJcRcfc7cQcPdsbZdtcXdcbEdbanbbbPbKdxanaSbMc4a5dIbwdLdLcOc5d3d3b4ajajaWaWbzbwbZbwdacJdlaD",
"cIdFdXb8aeaebXd4d4aLcLdYbubucwdBcid5bbakbMehbObxaYdsaibtaKb7cdacbibfc8ccdScCdmbgatcfawaJbIcTbwdLcUc5c5d3b4b4ajajaWbzbzbwaWc7dlb9",
"dFdFdXaebnbnbXaLaLaLcLdYbubucwbeaCarbbdDc9cEbsbyaYbFdDatcgaOcKccaCeacdaCaxbhbfdWcDdHdQaIcaaod7decUcUcOc5d3d3b4ajajaWaWaWaWdecGd8",
"dFdFb8aebnbXbXd4aLcLdYdYbucwdlcwdOdQdycRd7bGaHcsbSdDatbAcHa0aQccc1d6cbbkbVcCbTdpdSbadJc4aBbcaBbFdsd3dLcOc5d3d3b4ajajajaWaWc5ala6",
"dFdXb8aebnbXd4aLaLcLdYbubucwbvaed9b7bMbsbGegdZdNdDdJahcWandQatdvctbVcRaCayaSd5aKbYbRaGbIaBbIaodccPbybZdLcOc5c5b4b4ajajajajbQa8cA",
"dFdXb8aebnbXd4aLaLcLdYbubububebjdTcxdra3egcObGcxdja2c4aJcNdcbtdNcEdRawbdc2bSbxcTaGdgcEdQehagd7dNcmbGdIcsdLcOc5d3d3b4b4b4b4bQdpa6",
"dFdXb8aebnbXd4aLcLcLdYdYbubedVaRb0egbwaUaUaUaUbDbQaUdha3clc3bZbwbZbwbRanc7b0bzaibRcaa8dSb7awdcbtbxdIb0bIcPdLcOc5d3d3b4b4dLaia6cp",
"dXb8aebnbXd4d4aLcLdYdYcwbecVcacsdsegajaUaUbxafdha3dEa3aUaUaUaUaUaUaUaUaUaUaUaUaUaUbDbDbQaWa3a3c3ckbCcka3drdLcUc5c5c5d3cOcUalbeaD",
"dXb8aebnbXd4aLcLcLdYbvdBaQa5c3bZbZc3dhaUaUahaDckbLdzbSaUaUaUaUaUaUaUcub2cZcsaUbFd0bDdtbta3aUaUaUaUaUaUaUaUdeegdLcOc5bQc5a8dldYaD",
"dXb8aebnbXd4aLcLdYdBaPb7cPdsdsdZaHbGdeaYaUcmbcaraScRaSb5bCaUaUaUaUaUcrbeeda2aUdHcGaUbMedcxaUaUaUaUaUaUaUaUcXdNdLaUaUc6crdld4aLd2",
"dXb8aebnbXd4aLcLbecAbOaHdZaHbydZdedebyaHaUaUd3dUarbDaxdUaWaUaUaUaUbDdAbeaPc9aUagaTahbEbJcZdQbwaUaUaUaUaUaWd7awcXb3bAcAbvd4bnd4ea",
"dXb8aebnbXd4aLbeaDeeegbybyaHaHdscPcsaHc3drbCbQdtdod6bYbsalaraUaUcOa4bkbedXdbbDaUbGefcRaUdfdOa4dtdhaUaUbDaAapareba9becLbXbXbnd4ea",
"b8b8aebnbXaLdBb1bLc3bybybyaHaHdZcTbGegdsbGbZckbQbRaEc6bCctdxaUaUc6ceaDbvdKbUbLcObGb2dRdhclckd1eabJaUcUdsdcbEbPdHd6cLbXbnbnaed4ea",
"b8b8aebnbXdlb9bLdsbybybybybyegaidgaibwdZbGb0cxbsaUaUaUaUbQbQcUbBapdpeacwa9a8bEdIbDaUaUd5c2bGdgcyb3bQckdecxdodPcbbfd4bnbnaeaebXea",
"b8b8aebncLaqdadsbybybybybyaHdsbSb3bsaWaHdIcTbtcxaUaUaUaUaUaUc5aRdnddcpbnaaa7aSc9c6dhaUb5aya4aUaUaUa4bGdedgbHdxbPa7dXaebnaeaebXea",
"b8b8aebncwa8egaHaYaYaYbyaHegcPbEaobsc3debsb0doaIdaafaAaXb3eeaJdic8aCaeaLefc1cYaBb7bRaUaUaUaUaUclaicPbGbsaXeebUdTbWd8aeb8aeaebXbr",
"dXb8aecLaDcXdsbydtaYbybyaHdZbBdMdoaidtdebsb0docfarcWc9cebib9cGarawcKbXbna6c2awaidxbNehb3c6csa4cmcmc6decTa5d0dxbUbNbidXdXb8dXbnbr",
"dXb8b8cwcyc3aHaYaYaYbybyaHdtcQapbOdebydtcTcTd0cYbYdRc7dicVb9aFcRdGcVbmaed8abbKdMdMdCdicfbSbsdgbFb0aGcTcPd7c4d5atdfddeab8dXdXaebr",
"dFdXaeaLdDbwaHaYaYaYbybybyaYb6aIc7dsegaicTcXbRdadccQd5aFbkbhancdaCddb9efblbWakdxaoaRd9bUcxaicTcTcTcXcTdebFd0dTbKdTeaccaqdXdXaebr",
"dFdXaebXcNbwaHbyaYaYaYdtdZdedcbUdbegc3bsbBd7bxdNaJaBcWbic1axbSdfd9dqcza0bWb5dRaoaXakdScZdgbsaGb0cTbBbFcsd7cNbUaKcjaDbkaMb8dFaeb1",
"dFdFb8bucBajaHbyaYaYaYcsegc6aBdQbbcsajcTaAagd7cxbJeeaIdOaZc9duasbHakcRbJdcbBaGcTdjcxdPcWcmaGbFbsaGbRcxbsbBdadyapareabkcpdXcIb8b1",
"cIdFb8buaQbwegaHaYbyaYcsdIcXdud5bKbsd3aGbYbMbYagbccucZdWcga1aQdSb0aGbBdgazaiaWdIanbcapbUbBaGd7b0bBaAbtcXbxbcahdjbbc1bhcFcIcIb8b1",
"cIdFb8aeb8cuc5dZbybybyaibGaGdMdvbUcXdZbBbJc7cYaBbEdbbPbqdbebb9dOc9bIdIcsegbzdtdRceaubJbKaAcXb3cmbtdcbScmd7bJc7bJdabWddcIaqaqdXb1",
"aqdFdXdXadd8eeb4c3aHdZaGdeaXdDdfbKbIaicQbOcZc9djaKcZbActcDaqdzcVb2c7bSegegdebScZctbldncWeebRaAagaBbLbtbxbSbccRcYcNbbamcIbjbjdXcV",
"aqaqcIdXdXcLaqceb0aWbZazaGbFbKdfcYcxaib6ahb7asawand5alc1bnaebdb9dddqb5cmazd7dMalaQcGcAczdac4b6cNcucnd7bRaAdaakaKd5dQdHefaqbodFcV",
"bjaqcIdFdXb8bXbvaDcfbsbsbIbtcbceawcxdgawdybPatdPcbcHdOdzd4cIcvaCdkcCd5cNcEdDdyacdGd6d8aDdTdabcakapdaaBbIbLdudMdacyd9anc1cFbjcIcV",
"bjbjaqcIdFdXb8b8d4dYaDdidDdMbWbPaIcxb3bcb5cZcebVc8abbrb8dXefb1aRdHcqd5cYapdydxaxbgaFbrb9bqbbc9asdjdueebSd0cEasbHbWa0b7bqblbdaqcG",
"bobobjaqdFdFdXdXdFdFbnaVbadfctbPaIdRcxapc9aIbAcddCaCdzdFaMbkbabsbSdydaaBcudbb5c9cacHc1cKaCcHatdbbMbMcNbIc4bMbbcndSdGdwbWb1d8cIcG",
"boboboaqaqcIcIcIaqbocFbkebbUaEdPc7b6bSbcc9dbdfamcccpdzdzbkdSbJdedeaXbGbGbscTcXdIdIdDcdd6bldWbWc7docnb6agdRdDc9aJdPd9ecdTeab9dFcK",
"bdbobobjaqaqaqbjbobocvc1b7aldSdQdbcnb3akahdPcqc1b1d8dzeaalbEaYbSbObEaBd7aXaGazbBazcxdPdUc1dUdWaycYcubHaAa5cYcab6aKdSaOd5dUefaqcK",
"bdbdbobobjaqbjbjbjaaefaydmcddGcfcYbteeakahcHamd6braMb1dSaKcPdccyauaxdPdQbbasasbMcEbSbKdndkecdda7bbbEbYdRaGdacfc4ascyaZdPaFcFboaC",
"aaaabdbobobobdbobddzdGaxd9dpdiaScYdcasaIdvdmbqc1c2ddbNbcc6a5dwdwdpdiaxcdaud5bWc7bEbHahc0dUbqaZaQdPapb6aAaGbScbdNc9cgambPdUcFcFbk",
"dzdzaabdbobdbobobdcKdqacaldOdHcWc9cuaKdQcddnbhbkdGaRbbdgcTc8aba0cgebdqcqdPd5auebdDcabPc0dCbTbibTaycacNd0cXaXdxakapdqcdarcccJcvbl",
"cFcFaaaabdbdbobdbobicdcqdda7dPdTcYbMbcaNa0dUcobWdPcRbSa4cedAdWdOcHbAbactcZebaubNdTbKdPaud9bTbqbTaxcfdMcnbFcTbJb7aIahdvaybkcvcvd6",
"cFcFcFdzaabdbdaadzaZcqecaFb2dPatbMbEehbWczacaydTbcb0aWard6d6cVaZbgaydHcgcealc0diaubgb7dfdidGdOaQdSbUc9aJcxcmdRbOanaSc9dfd6efa6dk",
"cvcJcFcFdzaaaaaacFccctaOamcgd5anbJasaRdHbYbYbbcucmcOakcVcVb1cGdnc8bWbVacbVdiaEd9czcDbUarbWcdacdGdpbAdydobLa5bIakasb5c9cZaQd8efc1",
"cvcvcJcFcFcFdzcFcvb1dmchbTc0bAcZbHbbc0bEbsdecXc6bDa2aCaCbkbkdAchcgdqbWdGcta7dma7dnambAdQcbdqauctcqdSdfcYaAbxb3bMc7dDbUcfdQb1efc1",
"cAcvcJcJcFcFcFcJefb1dWczbTcddvdQaJarbWdabJd7egcObSbkbkd6bkdUbfamebcgdmcCcddwabdpdOamaxcbcecebNbWcgaxd5cWeed7b3cEaSc7ceeedbeccpdk",
"cAcAcAcvcvcJcJcAb9blc1dndGaldPbUbJbAc8cjdebscUaGdAaCccd6dkbfbicraxaxczcrcgd9czdCbfczcdd5dfebdqbWbgbgdTdyapbSdRb6cabUaSazdubPabbi",
"a6cAcAcAcvcvcvaMd2dkc1dnbTbVbKcfc7bWbWczawdecNambkd6dkdkdUdObqcCcHalaQdGc0acbTdmdnbqcqaRdPbVebbNbNbgcbatc9bLaAdRbJcfcabFbLdDancj",
"a6a6cAcAcAcvcAd8aDc1dAdCdpbKbKaIdybgb2coc1chblccdkdkbhc1aZbqddd9dwcgacdmaudGbTacczbqdCaxbAbWbNbgdqbVaNb7ehd0bIbIaJdybYbBcxaAaAdM",
"efefa6cAa6cAa6d8brbhcocdaRdjd5aIahaycCeccobhdUdAdAdUdUdUaFbqbfdidiaEamctbNcrabamabdnbTaubVbaaubWdqdqbAdQcZcub3bFdNehb3cmagcxb0bs",
"aMaMefa6a6cAa6d8ecdndpahaKdubVapcWdHabdAaZdddddddUdUddecchamdOd9diacaQd9dSa7abamdCaQdCcgbaaRbNbWbabVdfbUbKbJcQaXd7cRbFa5b6bBcTaz",
"d8d8aMa6a6cvcvbldQaIbUdbbJc9dPbObUalchecdWcodWcoc2ddecaFbqdnbqcta7acd9cqdmdGdOabdmaQdCdSdqaRaNbNaybacbb7dQapaAcmaXdubIagdMdgazd7",
"d8d8d8a6cJbrc8c7cYaKbKatdua8cWc7b7dibfczaFdWchcoc2chaZchbibqczcdcrdmcDd9amdpa0cDamdmdCdSdvbAdvbgaRdqceb7b7cRaobBaXbYaJdNdMaGcXbB",
"d8d8efb9dCcWbJcudubYbYbKaIdSawc7d5d9czbqchchbfcoaZdOaFbqamabdCctdGaEcCdpaca0acd9dGdidmc0aNbVbVbVdfbAcbbUdQaKeed7a5c4awdMcndIcmdg",
"cpd8cKebbMcQc4aJbHaga5bcebcZbJbbaNcqbibqdnbqbqaZdObfdnamczacdmd9a0aEd9cddCcrdpacdmdwcqcgdvbAbgdvaRdfdTdydyaIaJa5bIbSc7aSdcdeaXaG",
"cpaCcbcnaGcPcPcmaBbLd7bEd5aTcaahaycDdOabambqdnbqbqbibqbqaQd9cDd9dGaucqaxdmacacdmdialcdcgdvdvaRdqaRcedQcWanehdja5d7bScabOcNcPcTcX"
};
