/* XPM */
static char *texture[] = {
"64 64 256 2",
"aa c #D5A085",
"ab c #18171C",
"ac c #798387",
"ad c #979BA9",
"ae c #151516",
"af c #DEE1E4",
"ag c #808891",
"ah c #7D858C",
"ai c #9699A4",
"aj c #7C8287",
"ak c #73848E",
"al c #5E4E3F",
"am c #9B7159",
"an c #798790",
"ao c #738186",
"ap c #9999A4",
"aq c #2A231F",
"ar c #18191C",
"as c #9099A0",
"at c #7B848B",
"au c #768185",
"av c #CECFD2",
"aw c #7C8487",
"ax c #798592",
"ay c #828A95",
"az c #7F8487",
"aA c #9F9BA7",
"aB c #6D7377",
"aC c #B0B3B5",
"aD c #1C1A22",
"aE c #17171C",
"aF c #929BA2",
"aG c #D3D5D7",
"aH c #7A858C",
"aI c #1E1E23",
"aJ c #181819",
"aK c #7B848D",
"aL c #17181D",
"aM c #90969A",
"aN c #19181F",
"aO c #17191E",
"aP c #9E9EAC",
"aQ c #707D83",
"aR c #80878D",
"aS c #7F838B",
"aT c #191920",
"aU c #373A3E",
"aV c #1B1D26",
"aW c #7A8388",
"aX c #89959C",
"aY c #7C838A",
"aZ c #4D3B27",
"a0 c #7A8391",
"a1 c #2B3B45",
"a2 c #6E7B83",
"a3 c #807E81",
"a4 c #7F818D",
"a5 c #C59880",
"a6 c #D6997A",
"a7 c #81838B",
"a8 c #788388",
"a9 c #9C9CA6",
"ba c #3F4245",
"bb c #16161B",
"bc c #9898A3",
"bd c #171717",
"be c #9A98A5",
"bf c #2A1D18",
"bg c #37241B",
"bh c #878E96",
"bi c #748089",
"bj c #2A2624",
"bk c #A09FB0",
"bl c #2C3035",
"bm c #818187",
"bn c #7B8488",
"bo c #121114",
"bp c #423121",
"bq c #0B0B0E",
"br c #4C3421",
"bs c #7D838C",
"bt c #9B9EA7",
"bu c #1A1B1F",
"bv c #19191B",
"bw c #C7C7C9",
"bx c #A0A0AB",
"by c #17161A",
"bz c #171719",
"bA c #19161C",
"bB c #FFFFFF",
"bC c #8E9398",
"bD c #728188",
"bE c #8E8D91",
"bF c #798392",
"bG c #7F8188",
"bH c #212126",
"bI c #78848E",
"bJ c #7D848C",
"bK c #B6B7B8",
"bL c #161B22",
"bM c #88909D",
"bN c #A1A0AF",
"bO c #DADCDE",
"bP c #161616",
"bQ c #FDFFFF",
"bR c #72787E",
"bS c #D1896F",
"bT c #7C8387",
"bU c #585857",
"bV c #828487",
"bW c #8A949C",
"bX c #DCA389",
"bY c #F1F3F4",
"bZ c #82868D",
"b0 c #81818B",
"b1 c #848C94",
"b2 c #2C2C2F",
"b3 c #788188",
"b4 c #8A9098",
"b5 c #141316",
"b6 c #A2A3AC",
"b7 c #2A343C",
"b8 c #6C7A82",
"b9 c #161618",
"ca c #A8AAAE",
"cb c #CF9272",
"cc c #7F5540",
"cd c #939BA0",
"ce c #1C1D25",
"cf c #707C83",
"cg c #7B8288",
"ch c #C1896A",
"ci c #7D8389",
"cj c #9B9BA5",
"ck c #8C989F",
"cl c #88888B",
"cm c #576369",
"cn c #15171C",
"co c #0F1012",
"cp c #808388",
"cq c #C59173",
"cr c #DA9F82",
"cs c #1D2127",
"ct c #8B93A0",
"cu c #191A20",
"cv c #868E9B",
"cw c #79838F",
"cx c #8D969D",
"cy c #A2A1B0",
"cz c #83888C",
"cA c #403B35",
"cB c #8C959C",
"cC c #9B9BA7",
"cD c #151419",
"cE c #768085",
"cF c #888F9C",
"cG c #9A9AA6",
"cH c #AC8B7B",
"cI c #9F9FAA",
"cJ c #9399A4",
"cK c #949CA8",
"cL c #19181C",
"cM c #202B33",
"cN c #919AA2",
"cO c #C1C2C4",
"cP c #8E979E",
"cQ c #7F8289",
"cR c #14161C",
"cS c #18171D",
"cT c #77838F",
"cU c #798289",
"cV c #17161C",
"cW c #9F9EAE",
"cX c #646462",
"cY c #201E20",
"cZ c #939BA4",
"c0 c #96979B",
"c1 c #7E7E82",
"c2 c #1D222A",
"c3 c #18181E",
"c4 c #191C22",
"c5 c #E4E7E9",
"c6 c #CBCBCD",
"c7 c #AFA3A0",
"c8 c #BCBEC0",
"c9 c #7E828B",
"da c #75838E",
"db c #9F9FAC",
"dc c #838992",
"dd c #D8AC98",
"de c #18171F",
"df c #50565A",
"dg c #838B98",
"dh c #9C9BAA",
"di c #1A1A21",
"dj c #3A2A20",
"dk c #17161E",
"dl c #888C95",
"dm c #7D868E",
"dn c #7C828A",
"do c #7C8389",
"dp c #4D4D4D",
"dq c #141417",
"dr c #8A929E",
"ds c #758590",
"dt c #18191F",
"du c #243039",
"dv c #7A7B7C",
"dw c #9A9BA0",
"dx c #93999F",
"dy c #959194",
"dz c #737E83",
"dA c #7D878F",
"dB c #7F888E",
"dC c #858D9A",
"dD c #191A1D",
"dE c #161617",
"dF c #848C99",
"dG c #1B1B24",
"dH c #7D8588",
"dI c #979AA3",
"dJ c #9197A1",
"dK c #91999E",
"dL c #7C838B",
"dM c #15181D",
"dN c #C3C7C9",
"dO c #BA7A60",
"dP c #818B90",
"dQ c #7D8489",
"dR c #7B8188",
"dS c #F9FAFB",
"dT c #272A33",
"dU c #1A181F",
"dV c #79838E",
"dW c #9899A2",
"dX c #171718",
"dY c #76828B",
"dZ c #12141A",
"d0 c #1D262E",
"d1 c #7A838B",
"d2 c #181B23",
"d3 c #7D888F",
"d4 c #7C838D",
"d5 c #9198A2",
"d6 c #DBA186",
"d7 c #A1A1AD",
"d8 c #363331",
"d9 c #686D70",
"ea c #23252C",
"eb c #7F868C",
"ec c #17151A",
"ed c #9697A4",
"ee c #1C1C1E",
"ef c #8F989F",
"eg c #42484B",
"eh c #58412A",
"asasasasasefcPefasefefcPcxcxcBcBcBbWbWb4bCdvd8aqdjaqbfaqbfbfaqbjaqcYaqd8aUcXbVdcagdAa0ahahatd1d1d1dVcTdadabibibibidYd9egaUaUegd9",
"cNcNcNasasefcPefasefefcPcxcxbWcxcxcBcBb4bEbUbgaZdjaqbjbfbfaqd8bpdjaqaqaqaqbjbabUaBebd3ahahatd1d1d1dVcTdadabibibidacmblaUaUaUaUbl",
"aFaFaFcNcNcNasasasefefcPcPcPcPefascPctcBdvalbrehdjdjdjbgbfaqbjdjbgbgbfaqbfaqbpaZcAbUczdmdHawbTcic9cwcwcTcTdYbidYdYbablbaaMbEaUbl",
"aFaFaFaFaFaFcNcNcNasasasasasasasascPcxc0aBehbrbpdjbpaZehbgbgdjbfbfdjbpaZbgbpalehbpdjbUa3ebdHdQdLdLaKdVdVd1dVdYdYdVdfb2badfbUbabl",
"cKcKcKcKcZcJcZcZcZaFaFaFaFaFaFcNasefcPc0a3albrbgbfdjdjdjbfbfaZaZbpaZehalbrbpdjaZaZbrbpcAdvbVbsaKbnatd1d1d1d1d1d1aHb3dfaUblblaUdf",
"cKcKcKcKcKcKcZcZcZaFaFaFaFaFaFcNasefckckdydvalccalehbrbpbrehehbrbrehbrehbpbgdjbpbpehbraZd9czd4dVa8bnbsbsbsdndnaYaHaHaHdzaBaBbidA",
"dhdhdhadadadcGapaiaiaiaidIdIaiaFaFcNasckcPclcHa5a5cHamamdOchchchcqa5cqamccbrbgdjdjbraZaZcXczahdQdHdLdLdLdLdLdLdLatatd1d1atatbnaW",
"aPaPaPdhdhdhcCcCcGapapapdIdIdIaFaFaFcdefckdydddda5a5a6cbcbcba6bXddddddbXchccdjaqbpehalehbUczebazdQbJdLdLdLdLdLdLatatatd1d1d1aWaW",
"aPaPdhaPdhdhcCcCcCcGapbcdIdIaicJaFaFdxcdd5c7ddaaa5cqcbcbcbcba6bXbXddddaacqamehdjbpaZehehcXczebazebahdLdLdLdLdLdLatatatatatatatat",
"aPaPdhaPdhdhcCcCcCcCcCcGdIdIdIaFaFaFdxdJdJbEcHcqa5a5cbcbcba6d6bXbXddddbXcqamehaZbrbrehehcXb1dBazebahdLdLdLdLdLdLatatatatatataKaK",
"cWcWcWaPaPaPdhcCcCcCcCcGcjcjapdWdIdIdJdJdycHamamdOcqcqdOdOdOdOcqaabXdddda5ccehehehaZbrehcXclaRahbJd4dLdLdLbJbJbsc9c9c9c9c9a4d4d4",
"bkbkbkbkbkbkdbcIdhcCcGcGcCa9cjapbcbceddJdycHcHcccccqaacbdOamccamchcqaaddddchehbpbpbpbpcAdvczebdmd4d4dLdLdLbJbJbsa4a4a4a4a4a4bsbs",
"bNbNbNcybNbkdbcIcIcCcCcCa9a9cjapbcbceddJc0c7a5dOdOcbddbXdOamamamcha6aaddbXdOehbrccamccala3czdBdAdmbJbJbJbJdLdLbsa4a4a4a4a4a4a4a4",
"bNbNbNcybNbkdbcIcIdhcCcCa9a9cjapbcbcededdwc7a5chbScrbXaabSchchaad6d6bXbXbXdOccdObSd6bSdvbVbZagdAahbJbJbJbJdLdLbsa4a4a4a4a4a4a4a4",
"bNbNbNd7bNbNbxbxcIdhcCcCcCcjcjapapbccJdJdwaacqcqa6a6crcbbSbScbcrd6d6d6d6d6crd6d6dObSchclczbZagdBebebahebbJc9cQc9b0a7aSc9c9c9b0b0",
"d7d7d7d7d7d7d7bxcIcIcIdha9cjcjapapbccdaMc0a5cqcbcqchcbbSchcba6crcrcrd6d6d6bXbXa6bSbScHclaRahebaRaRaRahaScQcQbmb0b0a7a7c9bsdLc9c9",
"d7d7d7d7d7d7d7bxcIcIcIcIa9cjcjapapbcdxdxc0c7cqbSbScba6a6cbcbcrcrcrcrd6d6d6d6aabXchamclaRaRahebaRebahdQcicQcQbmb0b0a7aSc9bsbJc9c9",
"cyd7d7d7d7d7d7bxcIcIcIcIa9cjcjapapbcdIedc0c7cqdOamdOdObScha6crcrcrcrcrd6bXbXbXddcHa3dlaRaRaRaRebahdQdQcicQa7bGbGb0b0c9c9bJahatat",
"cyd7d7d7d7d7d7bxcIbxcIcIa9cjcjcjcjapdWdWc0c0a5bSdOdObScbcbcba6aaaacrcrcrbXbXbXa5a3dvdcbZbZaRbZebebaSaScQcQa7bGbGb0b0c9aSaSbJbsbs",
"cyd7d7d7d7d7d7d7bxbxcIcIa9cjcjcjcjapdWdxd5c0c7aacbbSa6a6a6a6a6a6cba6cra5dOccbraqeacmbhdcczbZbZbZbZbZa7a7cQcQcQcQcpcpcpcpcpcpc9c9",
"cyd7d7d7d7d7d7d7bxcIcIdhcCapapapapbcbccJcJdJdycHcHchcqcbcbchchchchdOccbpbvaebdbucsbadzdcczbZbZbZbZa7a7a7cQcQcQcQcpcpcpcpcpcpcQcQ",
"cycyd7d7d7d7d7bxcIcIdhcCcGapbcapbcbcdWc0dJefcxbCbEcHa5cqchdOchamehbfbPaecnc3dUeecYcYbabZdldcczbZbZa7a7a7a7a7a7cpazazazazazazcpcp",
"cycycybNbNbNbNdbdbaPdhcCcGapdWbcdWedc0c0aMcPckaXaXbCc7a5cqdOalbfb5cDaLcLbdaJaJaJbvc4dudfcmdob1bZbZa7aSaSaSaSaSazazazazazazazazaz",
"cycycycycycycybkcWaPdhcGapapdIdIcJdJefefcPcxcxcBaXbCc7a5ambpbPbzbHb2bvbvbvbvcLc3dMcec2d0cMega8b1dBebdododododQdQawawawawawawdodo",
"cycybkbkbkbkbkbkcWdhcCapapapdIdIcJdJefefcPcxcxcBbWb4bEcXbfaJcRcDbadpbvbvbvbvcLc3c4cscsd0d0cMbacfdPahdododododQdQawawawawawawdodo",
"bkbkbkbkbkcWcWaPaPdhcGapbcbcdIdIaicNefcPcxcBcBbWcBcEd8bAdUaTbLbucYdDbvbvaJbvcLc3c4cscsc2d0cMcMa1aBdBdododododoaYdLdLdLdLdLdLahdo",
"cWcWcWcWcWaPdhdhdhbeedbcbcbcaidxdJdJcPcPcxcBcBbWbCbUbldedGd2dtbvbzbzaJbzbzaJcLcLbuaIcscsc2d0cMcMa1d9dmaYdodododoaYaYdLbJbJahebeb",
"aPdhdhadadadadadadadaiaicJcJd5dJdJefcxcBcBcBbWbWaRblbHaTdiaTdtbybzbzbzbzbzbzcLdUaDaIceaVc2c2d0cMcMa1b8dmataYdodQdHdHdHebebebebeb",
"adadadadaiadcKcKcKcZcZaFaFcNd5dJefcPcxcBcBcBbCcBcmcubudidtaLcnbzbzbzbzbzaJb9b9cLdidicececscscsd0cMd0babiahaYdodQdHawawdHdHdHatat",
"cKcKcKcKcKcKcJdJcNcNasefdKdxcxefdxcBbCbCbCbCb4ebcXaIdDararbbcodqbob9byb5cobveeb5cDcVdicucuc4c4c4d0d0dudfahdocgdQebbndHawacdHebat",
"cKcKcJc8c5afafaGb6dWaGafb6btdNc5bYc5c8b6afdNbCcOaGdvdDarb9coc1cObKblbobab6c6aGaAbEbwcOcOc6dwaBdNczbLd0cEbObOafcOc8afc8czdNafaCbn",
"adaddJbObBaGbObBavcabQbYb6c5bBbOc8c6btcObBafafbYa3cYaJaJcodvdSdSbBcXcobwbBcOa3dpcXcIbBbYbEcXc8bBa7dkc4cObBbOavcadKdSbYbObQcOebdo",
"cJd5btbYdSbYbYafcIcObBaGbKbBbYaMdcdldlbObQbYbBdybqaeaJcod9dSaGaCbBc0bqcXbwc5aGaBbqd9bBc8bqeac5dSbadZblc5dSbOafaMdzbKbBdScacEcgeb",
"d5cxaCbBc5c6bBbOaMafbBc8cadSbQafbOaGbxdSbYbRbYdScXbodqcXbQdSbOc5bBavegdwbEc6bBbKbqaCbBbEbqcXbBdSaCdwaBbBbYdNavdxdzaCbBbOcEdnajbG",
"cPcPcaavbKaMbwavcacOava9b4caavbObOc8b6dNclbzcXb6bEbHbHdyb6dfcYbacIc0cXb6cObKbVb2aJclb6egcRbUb6b6aCbCd9b6caaCc8b4dRcac6b6dRdLbGbG",
"ctctdrcvcFdrcvcvdrcvdCdrdrcFdCcFdldcb4dfdMc4cDcoboaJbzbocoboaebococobocob5dqbocDaEbocoaNc4b9cobocRaVd0dZcMcMdfebdQdRcEc1bGb0b0b0",
"ctctctctctctctctctctctctctdrdrcFcFctaBcmdTc4bubAecbzbzbzbzbzbzbdbddXbycVcVaNaNaNcVcVcVdGdiarbdaEc3ead0bLdub7dfczdQcicibGbGbGc9c9",
"ctctctdrdrdrctctctctdrdrdrdrbMcFdrdcb7aUaVcuc3bycDaJbzb9aeaJb9bdbdbzcLaNaNcScScVbbbbbbaDcearaJb9cnc2c2bLdub7dfczdocicicQbGbGc9c9",
"drdrdrbMbMbMdrbMbMbMbMcFcvcvcvdFdrdfbLcRcRdtcDdqcDaecobzbzbydqbob5b9eccDcVbbcDbocDcDboaNcebzcobbaLdGb7cMcMdudfczdRdRcicQbGbGdLdL",
"bMbMdrbMbMbMb4c6aGaCaGdJadcZdraibZegc2aUaUbubld8eecYbVbKb6b2cYbaeaeed8aUb2bHd8d8cYbHaUeaaDbuc1bKcaaUbCajbab7d9b1bCbCb0bGbGbGcici",
"cvcFbMcFcFcvdxbYbYbYafavafafc8c5aGcacaaGavdvafc0bdd9bYdyaGaBbwbKavbmbOavaCcIavafa3bEafaCcDcXdSdyaGdvavclaGc8avavc5c5a9c1bGcQdodo",
"dCdCcvdCdCdgcIafaCc5bKdNafdNdxbOcOb2dwavc0dvc8bvcobacObwbwbUc8aCa9c0b6dwc0bKbmc8c1cOcOc0bbaUc8dNc6dvbwbac8bwc1dNafdNb1ajciajaWaW",
"dCdCdCdCdCdCdCcFb1cFdFdFb4bhb4dfbLcRc3b2aIeeeeaeaeboaJb2eecoeeb2dqeeeeeeeeaIaNaIcVeabHaDbHb5eeb2bvbuead2b7dTd9aRdcdQcgcicgdRa8a8",
"dFdFdFcvcvcvcvcvdFaydgdFaybhbRcsdMcudtdkaEaLb5cococobocoboaJbodqb9bzaecodqbobodqbob5byaEaIbudDdqdqcudkaVb7cMaBdBdRcgdocgcgaWa8a8",
"dFdFdFdCdCdCdCdFayb1b1b1bhbhbadMdtdDcuaTdtdZaUdwbUc0bUb2cYbdbjcYeabvbzclbUbUbEbHeab2bzaraIbudDcDarced2c2b7dubRebdododocgcgcgacac",
"dgdgdgdFdFdFdgdgayb1b1b1b4aBd2bLdtdDcuaNaLbbbbbKbYdybKbKc6dvbwa3bwbHd8bYbUbKbKb6bKc6dvcocsdGaTcDaTdGdGcMb7cMbRaScgcgcgcgcgcgaWaW",
"dgdgdgdgdgdgdgdgayb1b1bhdLb7cRaOdtdDcuaNaLarcoclbKcYbwbKc8bVbObwaCcod8avc8c6cXc5cObwcXcocscedGdkd2dGc2cMdubacfc9cgcgcgcgcgcgaWaW",
"dgdgdgdgdgdgayayayb1bhdRaUdMaOdtdtcuaTc3aEbbcDbjbHb5cYaUcYdEb2b2bHb9cDbHaUaIegc6egbHbobbaVc2d2aOaVc2eaeablaBdQdndndndRdndRdRacac",
"ayayayayayayayayb1bhcQaUdZaraLdtcucuaNcSbyecdEb5b5b9dqboaebzdqdqcDbycVcDdZbbaDbHb5b5cVcnaVd0bLaIead0eadpbUbEawd1dLdndRdndRb3b3b3",
"agagagagagagagayb1d9b7dMaOaLcnaLcucudtcSbyecdEbPbPb9b9b9bzbzbzbzbybycVdkdkcVbbcDcVcVcSaLaVdTd2bucsbldvbUb2egbRdmd1d1cUd1cUb3cEcE",
"agagagagagagdAaydfbLbLdtdtdtaLaLdtdtc3cSbybbdXbPaeb9b9b9bzbzbzbzbybycVdkdkcVcVcVcVcSaNaOaVdTd2arbLcsblblc2ducfbIa8a8a8a8a8a8cEcE",
"d3d3agagagagagayaBdTdZdMdtdkc3aTaNcLabaEbyb9dXdEaeb9b9b9bzbzbzdXdXbycVcVdkcScScVcVcSaNcuaVdTdGaOcud2aVcsegaBcUdYa8a8a8auauaucEcE",
"anand3d3d3d3agagdccEdfeacRcRaTdUdUbAbyb9b9b9b9b9b9b9b9b9bzbzbzbdbddXbycVcVaNaNcScVcSaNcuceblaVaTdDcubHb2cXaCazb3a8a8a8auauaucEcE",
"bIananananandAdAagdcbhdRcmblcRcVc3cSabb9b9b9b9b9b9b9b9b9bzbzbzbdbddXbycVcVcScScScVcSaNdtdGdTdGaTdDbvaUbUdpcXegaua8auauauauaucEdz",
"axaxaxaxaxaxaxaxaxagagagb1ebcmblbbbbbybzbzbzbzbzbzbzbzbzbzbzbzbPbPdEecabcScVcVcVcVcSaNaNceead2dkaIcXaBbab2bLbLcmacauaucEcEcEdzdz",
"axaxaxaxaxaxaxaxaxaxdAdAdmdAayahegeaaEdXdXdXaJaJaJbzbzbzbzbzbzdEdEb9bbababcVdkcScSdedUcucedGaTc3eeblb2c2b7dub7cma8auaudzdzdzaQcf",
"cwananaxaxaxcwcwcwaxaxaxa0axananb1dfarb5aeaJbdbdbdb9b9b9bzbzbzbzbzbzbzbzbzcSdeaNaNaNdid2aVd2c3arcLd2c2ducma2aoaoaoaodzaQaQa2a2a2",
"dacTcwcTcTcTdVdVdVcwcwcwbFaxanandPdpbudpeebdbdbdbdb9b9b9bzbzbzbzbzbzbzbzbzcSdeaNaNaNaDdGd2d2bLdMaObLducmbIaoaQaodzdzdzdzaQaQcfcf",
"cTcTcTcTcTcTcwcwcwcwcwcwa0axdsandPdfeaa3b2b5bdbdbdbzbzbzbzbzbzbzbzbzbzbzbzdkdkaNaNaDcediaTd2d2aVcMcMa1bDdabDaoaoaoaoaodzdzdzaQaQ",
"cTcTcTcTcTcTcwcwcwcwcwcwbFaxdsbId3cmbHaUaJbdbdbdbdbzbzbzbzbzbzbzbzbzbzbzbzbbcVdkdebHceaDdGaVd0b7a1egcmakakbDaoaoaoaoaodzdzdzaQcf",
"akakakdsdsdscTcwcwcwcwcwdsdsdsd3dzb7dDbdbPaebPbPdEbzbzbzbzbzbzbzbzbzbzbzbzaEaLdtaDcsdGaVd0cMdub7a1a1a1b8dYaoaQaQaQaQaQcfcfcfcfcf",
"akakakdsdsdscTcTcTcTcTcTdadabIagdfcRb9bPbdbdbPbPdEbzbzbzbzbzbzbzbzbzbzbzbzaEaLdtdGaTdGc2cMa1a1dub7dub7cmbiaQcfa2a2a2a2cfcfcfcfa2",
"akakakakakakdadadadadadadadYaHaBcsdqaebPbPbPbPbPdEbzbzbzbzbzbzb9b9b9bzbzbzardtcudtd2dGeab7a1a1a1a1b7a1a1d9aQcfa2a2a2a2b8b8b8b8b8",
"akakakakakakakakakakakakdadYd1badZdEbPbPbPbPbPbPdEbzbzbzbzbzbzb9b9b9bzbybyardtcudtd2dGdGc2cMdua1a1a1a1dudfa2a2b8b8b8b8b8b8b8b8b8"
};
